(G-CODE GENERATED BY FLATCAM v8.994 - www.flatcam.org - Version Date: 2020/11/7)

(Name: Overdrive-B_Cu.gbr_iso_combined_cnc)
(Type: G-code from Geometry)
(Units: MM)

(Created on Saturday, 16 May 2026 at 10:41)

(This preprocessor is the default preprocessor used by FlatCAM.)
(It is made to work with MACH3 compatible motion controllers.)

(TOOL DIAMETER: 0.1 mm)
(Feedrate_XY: 100.0 mm/min)
(Feedrate_Z: 60.0 mm/min)
(Feedrate rapids 300.0 mm/min)

(Z_Cut: -0.15 mm)
(Z_Move: 3.0 mm)
(Z Start: None mm)
(Z End: 15.0 mm)
(X,Y End: 0.0000, 0.0000 mm)
(Steps per circle: 64)
(Preprocessor Geometry: Default_no_M6)

(X range:    0.5506 ...   99.6495  mm)
(Y range:    0.5506 ...   67.6495  mm)

(Spindle Speed: 0.0 RPM)
G21
G90
G94

G01 F100.00

M5
G00 Z15.0000
G00 X0.0000 Y0.0000
T1
(MSG, Change to Tool Dia = 0.1000)
M0
G00 Z15.0000
        
M03
G01 F100.00
G00 X7.7971 Y12.0450
G01 F60.00
G01 Z-0.1500
G01 F100.00
G01 X7.8556 Y11.8652
G01 X7.9449 Y11.6899
G01 X8.0605 Y11.5307
G01 X8.1997 Y11.3916
G01 X8.3588 Y11.2760
G01 X8.5341 Y11.1866
G01 X8.7213 Y11.1258
G01 X8.9140 Y11.0953
G01 X8.9140 Y11.5016
G01 X8.8481 Y11.5114
G01 X8.7696 Y11.5310
G01 X8.6887 Y11.5598
G01 X8.6112 Y11.5966
G01 X8.5417 Y11.6383
G01 X8.4757 Y11.6872
G01 X8.4112 Y11.7458
G01 X8.3569 Y11.8058
G01 X8.3079 Y11.8718
G01 X8.2638 Y11.9455
G01 X8.2292 Y12.0186
G01 X8.2196 Y12.0451
G01 X7.7971 Y12.0450
G00 Z3.0000
G00 X7.7971 Y12.6450
G01 F60.00
G01 Z-0.1500
G01 F100.00
G01 X8.2196 Y12.6450
G01 X8.2292 Y12.6715
G01 X8.2638 Y12.7446
G01 X8.3079 Y12.8183
G01 X8.3569 Y12.8843
G01 X8.4112 Y12.9443
G01 X8.4757 Y13.0029
G01 X8.5417 Y13.0518
G01 X8.6112 Y13.0935
G01 X8.6887 Y13.1303
G01 X8.7696 Y13.1591
G01 X8.8481 Y13.1787
G01 X8.9140 Y13.1885
G01 X8.9140 Y13.5948
G01 X8.7213 Y13.5643
G01 X8.5341 Y13.5035
G01 X8.3588 Y13.4141
G01 X8.1997 Y13.2985
G01 X8.0605 Y13.1594
G01 X7.9449 Y13.0002
G01 X7.8556 Y12.8249
G01 X7.7971 Y12.6450
G00 Z3.0000
G00 X9.5140 Y13.5948
G01 F60.00
G01 Z-0.1500
G01 F100.00
G01 X9.5140 Y13.1885
G01 X9.5798 Y13.1787
G01 X9.6584 Y13.1591
G01 X9.7393 Y13.1303
G01 X9.8168 Y13.0935
G01 X9.8862 Y13.0518
G01 X9.9523 Y13.0029
G01 X10.0167 Y12.9443
G01 X10.0710 Y12.8843
G01 X10.1200 Y12.8183
G01 X10.1642 Y12.7446
G01 X10.1988 Y12.6715
G01 X10.2084 Y12.6450
G01 X10.6308 Y12.6450
G01 X10.5724 Y12.8249
G01 X10.4831 Y13.0002
G01 X10.3674 Y13.1594
G01 X10.2283 Y13.2985
G01 X10.0691 Y13.4141
G01 X9.8938 Y13.5035
G01 X9.7067 Y13.5643
G01 X9.5140 Y13.5948
G00 Z3.0000
G00 X9.5140 Y11.5016
G01 F60.00
G01 Z-0.1500
G01 F100.00
G01 X9.5140 Y11.0953
G01 X9.7067 Y11.1258
G01 X9.8938 Y11.1866
G01 X10.0691 Y11.2760
G01 X10.2283 Y11.3916
G01 X10.3674 Y11.5307
G01 X10.4831 Y11.6899
G01 X10.5724 Y11.8652
G01 X10.6308 Y12.0451
G01 X10.2084 Y12.0450
G01 X10.1988 Y12.0186
G01 X10.1642 Y11.9455
G01 X10.1200 Y11.8718
G01 X10.0710 Y11.8058
G01 X10.0167 Y11.7458
G01 X9.9523 Y11.6872
G01 X9.8862 Y11.6383
G01 X9.8168 Y11.5966
G01 X9.7393 Y11.5598
G01 X9.6584 Y11.5310
G01 X9.5798 Y11.5114
G01 X9.5140 Y11.5016
G00 Z3.0000
G00 X8.2551 Y17.4251
G01 F60.00
G01 Z-0.1500
G01 F100.00
G01 X8.1943 Y17.2379
G01 X8.1635 Y17.0435
G01 X8.1635 Y16.8466
G01 X8.1943 Y16.6522
G01 X8.2551 Y16.4650
G01 X8.3445 Y16.2896
G01 X8.4601 Y16.1304
G01 X8.5993 Y15.9912
G01 X8.7586 Y15.8755
G01 X8.9339 Y15.7862
G01 X9.1211 Y15.7253
G01 X9.3156 Y15.6945
G01 X9.9124 Y15.6945
G01 X10.1068 Y15.7253
G01 X10.2940 Y15.7862
G01 X10.4694 Y15.8755
G01 X10.5875 Y15.9613
G01 X10.5996 Y15.9692
G01 X10.6086 Y15.9728
G01 X10.6756 Y15.9925
G01 X10.6838 Y15.9942
G01 X10.6897 Y15.9945
G01 X12.1482 Y15.9945
G01 X12.1811 Y15.9913
G01 X12.1895 Y15.9894
G01 X12.1974 Y15.9862
G01 X12.2609 Y15.9515
G01 X12.2658 Y15.9483
G01 X12.2704 Y15.9444
G01 X12.9125 Y15.3023
G01 X12.9335 Y15.2767
G01 X12.9381 Y15.2695
G01 X12.9418 Y15.2604
G01 X12.9614 Y15.1934
G01 X12.9630 Y15.1864
G01 X12.9635 Y15.1793
G01 X12.9635 Y15.0466
G01 X12.9943 Y14.8522
G01 X13.0551 Y14.6650
G01 X13.1445 Y14.4896
G01 X13.2601 Y14.3304
G01 X13.4007 Y14.1898
G01 X13.4060 Y14.1850
G01 X13.4315 Y14.1559
G01 X13.4351 Y14.1512
G01 X13.4387 Y14.1450
G01 X13.4414 Y14.1383
G01 X13.4623 Y14.0666
G01 X13.4632 Y14.0608
G01 X13.4635 Y14.0560
G01 X13.4635 Y12.8755
G01 X13.4632 Y12.8701
G01 X13.4596 Y12.8389
G01 X13.4576 Y12.8319
G01 X13.4545 Y12.8252
G01 X13.4205 Y12.7628
G01 X13.4172 Y12.7578
G01 X13.4133 Y12.7533
G01 X12.2433 Y11.5833
G01 X12.1393 Y11.4276
G01 X12.0677 Y11.2546
G01 X12.0311 Y11.0710
G01 X12.0312 Y9.1177
G01 X12.0305 Y9.1096
G01 X12.0216 Y9.0623
G01 X12.0186 Y9.0528
G01 X12.0138 Y9.0442
G01 X11.9696 Y8.9868
G01 X11.9640 Y8.9807
G01 X11.9594 Y8.9769
G01 X11.7867 Y8.8514
G01 X11.6253 Y8.6900
G01 X11.4911 Y8.5053
G01 X11.3874 Y8.3018
G01 X11.3169 Y8.0847
G01 X11.2812 Y7.8592
G01 X11.2812 Y7.6309
G01 X11.3169 Y7.4054
G01 X11.3874 Y7.1883
G01 X11.4911 Y6.9848
G01 X11.6253 Y6.8001
G01 X11.7867 Y6.6387
G01 X11.9714 Y6.5045
G01 X12.1749 Y6.4008
G01 X12.3920 Y6.3303
G01 X12.6175 Y6.2945
G01 X13.3458 Y6.2945
G01 X13.5713 Y6.3303
G01 X13.7885 Y6.4008
G01 X13.9919 Y6.5045
G01 X14.1766 Y6.6387
G01 X14.3380 Y6.8001
G01 X14.4722 Y6.9848
G01 X14.5759 Y7.1882
G01 X14.6464 Y7.4054
G01 X14.6822 Y7.6309
G01 X14.6822 Y7.8592
G01 X14.6464 Y8.0847
G01 X14.5759 Y8.3019
G01 X14.4722 Y8.5053
G01 X14.3380 Y8.6900
G01 X14.1766 Y8.8514
G01 X14.0020 Y8.9783
G01 X13.9969 Y8.9830
G01 X13.9646 Y9.0172
G01 X13.9588 Y9.0252
G01 X13.9546 Y9.0342
G01 X13.9339 Y9.1047
G01 X13.9327 Y9.1106
G01 X13.9322 Y9.1177
G01 X13.9322 Y10.5116
G01 X13.9324 Y10.5169
G01 X13.9358 Y10.5469
G01 X13.9381 Y10.5552
G01 X13.9411 Y10.5619
G01 X13.9752 Y10.6243
G01 X13.9784 Y10.6292
G01 X13.9823 Y10.6338
G01 X15.1523 Y11.8038
G01 X15.2563 Y11.9595
G01 X15.3279 Y12.1324
G01 X15.3645 Y12.3161
G01 X15.3645 Y14.0560
G01 X15.3650 Y14.0633
G01 X15.3705 Y14.1003
G01 X15.3730 Y14.1095
G01 X15.3766 Y14.1171
G01 X15.4189 Y14.1815
G01 X15.4228 Y14.1859
G01 X15.4272 Y14.1898
G01 X15.5678 Y14.3304
G01 X15.6835 Y14.4896
G01 X15.7729 Y14.6650
G01 X15.8337 Y14.8522
G01 X15.8645 Y15.0466
G01 X15.8645 Y15.2435
G01 X15.8337 Y15.4379
G01 X15.7729 Y15.6251
G01 X15.6835 Y15.8005
G01 X15.5678 Y15.9597
G01 X15.4286 Y16.0989
G01 X15.2694 Y16.2146
G01 X15.0940 Y16.3039
G01 X14.9068 Y16.3648
G01 X14.7124 Y16.3956
G01 X14.5784 Y16.3956
G01 X14.5444 Y16.3992
G01 X14.5373 Y16.4010
G01 X14.5305 Y16.4039
G01 X14.4681 Y16.4380
G01 X14.4621 Y16.4418
G01 X14.4567 Y16.4465
G01 X13.2199 Y17.6834
G01 X13.0642 Y17.7874
G01 X12.8912 Y17.8590
G01 X12.7076 Y17.8956
G01 X10.6897 Y17.8956
G01 X10.6776 Y17.8960
G01 X10.6717 Y17.8970
G01 X10.6659 Y17.8987
G01 X10.6000 Y17.9221
G01 X10.5935 Y17.9250
G01 X10.5875 Y17.9288
G01 X10.4694 Y18.0146
G01 X10.2940 Y18.1039
G01 X10.1068 Y18.1648
G01 X9.9124 Y18.1956
G01 X9.3156 Y18.1956
G01 X9.1211 Y18.1648
G01 X8.9339 Y18.1039
G01 X8.7586 Y18.0146
G01 X8.5993 Y17.8989
G01 X8.4601 Y17.7597
G01 X8.3445 Y17.6005
G01 X8.2551 Y17.4251
G00 Z3.0000
G00 X9.1696 Y17.7591
G01 F60.00
G01 Z-0.1500
G01 F100.00
G01 X9.0887 Y17.7303
G01 X9.0112 Y17.6935
G01 X8.9417 Y17.6518
G01 X8.8767 Y17.6036
G01 X8.8112 Y17.5443
G01 X8.7569 Y17.4843
G01 X8.7086 Y17.4193
G01 X8.6643 Y17.3457
G01 X8.6287 Y17.2703
G01 X8.6013 Y17.1941
G01 X8.5799 Y17.1085
G01 X8.5681 Y17.0284
G01 X8.5640 Y16.9475
G01 X8.5681 Y16.8617
G01 X8.5803 Y16.7792
G01 X8.5999 Y16.7007
G01 X8.6287 Y16.6198
G01 X8.6643 Y16.5444
G01 X8.7059 Y16.4749
G01 X8.7569 Y16.4058
G01 X8.8147 Y16.3423
G01 X8.8747 Y16.2880
G01 X8.9407 Y16.2390
G01 X9.0133 Y16.1954
G01 X9.0887 Y16.1598
G01 X9.1672 Y16.1317
G01 X9.2494 Y16.1112
G01 X9.3307 Y16.0991
G01 X9.4127 Y16.0951
G01 X9.8164 Y16.0951
G01 X9.8973 Y16.0991
G01 X9.9798 Y16.1114
G01 X10.0607 Y16.1317
G01 X10.1415 Y16.1607
G01 X10.2147 Y16.1954
G01 X10.2882 Y16.2397
G01 X10.3551 Y16.2896
G01 X10.4150 Y16.3440
G01 X10.4611 Y16.3948
G01 X12.3861 Y16.3948
G01 X13.3982 Y15.3826
G01 X13.3803 Y15.3109
G01 X13.3681 Y15.2284
G01 X13.3640 Y15.1450
G01 X13.3679 Y15.0642
G01 X13.3803 Y14.9792
G01 X13.3999 Y14.9007
G01 X13.4297 Y14.8175
G01 X13.4643 Y14.7444
G01 X13.5072 Y14.6728
G01 X13.5569 Y14.6058
G01 X13.6121 Y14.5449
G01 X13.6747 Y14.4880
G01 X13.7407 Y14.4390
G01 X13.8133 Y14.3954
G01 X13.8637 Y14.3715
G01 X13.8637 Y12.6376
G01 X12.5917 Y11.3656
G01 X12.5563 Y11.3264
G01 X12.5241 Y11.2831
G01 X12.4964 Y11.2368
G01 X12.4738 Y11.1891
G01 X12.4551 Y11.1371
G01 X12.4420 Y11.0847
G01 X12.4341 Y11.0313
G01 X12.4314 Y10.9786
G01 X12.4314 Y8.7510
G01 X12.4245 Y8.7491
G01 X12.3276 Y8.7141
G01 X12.2367 Y8.6711
G01 X12.1483 Y8.6181
G01 X12.0655 Y8.5567
G01 X11.9910 Y8.4892
G01 X11.9185 Y8.4092
G01 X11.8586 Y8.3284
G01 X11.8056 Y8.2400
G01 X11.7616 Y8.1469
G01 X11.7276 Y8.0522
G01 X11.7014 Y7.9475
G01 X11.6867 Y7.8480
G01 X11.6817 Y7.7463
G01 X11.6870 Y7.6397
G01 X11.7018 Y7.5402
G01 X11.7262 Y7.4426
G01 X11.7616 Y7.3433
G01 X11.8068 Y7.2479
G01 X11.8586 Y7.1617
G01 X11.9185 Y7.0809
G01 X11.9892 Y7.0026
G01 X12.0655 Y6.9334
G01 X12.1463 Y6.8734
G01 X12.2378 Y6.8185
G01 X12.3298 Y6.7750
G01 X12.4292 Y6.7396
G01 X12.5268 Y6.7152
G01 X12.6263 Y6.7004
G01 X12.7304 Y6.6951
G01 X13.2317 Y6.6951
G01 X13.3346 Y6.7001
G01 X13.4389 Y6.7158
G01 X13.5364 Y6.7403
G01 X13.6334 Y6.7750
G01 X13.7288 Y6.8202
G01 X13.8150 Y6.8720
G01 X13.8978 Y6.9334
G01 X13.9758 Y7.0044
G01 X14.0433 Y7.0789
G01 X14.1047 Y7.1617
G01 X14.1577 Y7.2501
G01 X14.2007 Y7.3410
G01 X14.2365 Y7.4403
G01 X14.2615 Y7.5402
G01 X14.2763 Y7.6397
G01 X14.2816 Y7.7463
G01 X14.2766 Y7.8480
G01 X14.2619 Y7.9475
G01 X14.2357 Y8.0522
G01 X14.2017 Y8.1469
G01 X14.1577 Y8.2400
G01 X14.1047 Y8.3284
G01 X14.0448 Y8.4092
G01 X13.9723 Y8.4892
G01 X13.8978 Y8.5567
G01 X13.8150 Y8.6181
G01 X13.7266 Y8.6711
G01 X13.6357 Y8.7141
G01 X13.5388 Y8.7491
G01 X13.5319 Y8.7510
G01 X13.5319 Y10.7495
G01 X14.8039 Y12.0215
G01 X14.8393 Y12.0606
G01 X14.8715 Y12.1040
G01 X14.8993 Y12.1503
G01 X14.9228 Y12.2003
G01 X14.9405 Y12.2500
G01 X14.9537 Y12.3023
G01 X14.9616 Y12.3558
G01 X14.9642 Y12.4085
G01 X14.9642 Y14.3715
G01 X15.0147 Y14.3954
G01 X15.0872 Y14.4390
G01 X15.1532 Y14.4880
G01 X15.2159 Y14.5449
G01 X15.2710 Y14.6058
G01 X15.3207 Y14.6728
G01 X15.3636 Y14.7444
G01 X15.3997 Y14.8209
G01 X15.4274 Y14.8983
G01 X15.4476 Y14.9792
G01 X15.4599 Y15.0617
G01 X15.4640 Y15.1450
G01 X15.4599 Y15.2284
G01 X15.4476 Y15.3109
G01 X15.4273 Y15.3919
G01 X15.3993 Y15.4703
G01 X15.3636 Y15.5457
G01 X15.3207 Y15.6173
G01 X15.2710 Y15.6843
G01 X15.2167 Y15.7443
G01 X15.1513 Y15.8036
G01 X15.0862 Y15.8518
G01 X15.0136 Y15.8952
G01 X14.9393 Y15.9303
G01 X14.8630 Y15.9577
G01 X14.7774 Y15.9791
G01 X14.6973 Y15.9910
G01 X14.6152 Y15.9950
G01 X14.3421 Y15.9950
G01 X13.0022 Y17.3350
G01 X12.9630 Y17.3704
G01 X12.9197 Y17.4026
G01 X12.8734 Y17.4303
G01 X12.8223 Y17.4543
G01 X12.7737 Y17.4716
G01 X12.7213 Y17.4847
G01 X12.6679 Y17.4927
G01 X12.6152 Y17.4953
G01 X10.4611 Y17.4953
G01 X10.4150 Y17.5461
G01 X10.3532 Y17.6021
G01 X10.2862 Y17.6518
G01 X10.2168 Y17.6935
G01 X10.1370 Y17.7312
G01 X10.0607 Y17.7584
G01 X9.9798 Y17.7787
G01 X9.8973 Y17.7910
G01 X9.8152 Y17.7950
G01 X9.4127 Y17.7950
G01 X9.3282 Y17.7907
G01 X9.2481 Y17.7787
G01 X9.1696 Y17.7591
G00 Z3.0000
G00 X5.5739 Y19.0549
G01 F60.00
G01 Z-0.1500
G01 F100.00
G01 X5.7586 Y19.1891
G01 X5.9200 Y19.3504
G01 X6.0541 Y19.5351
G01 X6.1577 Y19.7384
G01 X6.2283 Y19.9555
G01 X6.2345 Y19.9951
G01 X5.8200 Y19.9950
G01 X5.8181 Y19.9881
G01 X5.7840 Y19.8932
G01 X5.7400 Y19.8001
G01 X5.6870 Y19.7117
G01 X5.6264 Y19.6299
G01 X5.5564 Y19.5526
G01 X5.4810 Y19.4842
G01 X5.3983 Y19.4227
G01 X5.3640 Y19.4019
G01 X5.3640 Y18.9491
G01 X5.3706 Y18.9513
G01 X5.5739 Y19.0549
G00 Z3.0000
G00 X3.5738 Y19.5351
G01 F60.00
G01 Z-0.1500
G01 F100.00
G01 X3.7080 Y19.3504
G01 X3.8694 Y19.1891
G01 X4.0540 Y19.0549
G01 X4.2574 Y18.9513
G01 X4.2640 Y18.9491
G01 X4.2640 Y19.4019
G01 X4.2296 Y19.4227
G01 X4.1469 Y19.4842
G01 X4.0715 Y19.5526
G01 X4.0015 Y19.6299
G01 X3.9409 Y19.7117
G01 X3.8880 Y19.8001
G01 X3.8439 Y19.8933
G01 X3.8100 Y19.9879
G01 X3.8079 Y19.9951
G01 X3.3934 Y19.9950
G01 X3.3997 Y19.9555
G01 X3.4702 Y19.7384
G01 X3.5738 Y19.5351
G00 Z3.0000
G00 X4.0540 Y22.0352
G01 F60.00
G01 Z-0.1500
G01 F100.00
G01 X3.8694 Y21.9010
G01 X3.7080 Y21.7397
G01 X3.5738 Y21.5550
G01 X3.4702 Y21.3517
G01 X3.3997 Y21.1346
G01 X3.3934 Y21.0950
G01 X3.8079 Y21.0950
G01 X3.8100 Y21.1022
G01 X3.8439 Y21.1969
G01 X3.8880 Y21.2900
G01 X3.9409 Y21.3784
G01 X4.0015 Y21.4602
G01 X4.0715 Y21.5375
G01 X4.1469 Y21.6059
G01 X4.2296 Y21.6674
G01 X4.2640 Y21.6882
G01 X4.2640 Y22.1410
G01 X4.2574 Y22.1388
G01 X4.0540 Y22.0352
G00 Z3.0000
G00 X6.0541 Y21.5550
G01 F60.00
G01 Z-0.1500
G01 F100.00
G01 X5.9200 Y21.7397
G01 X5.7586 Y21.9010
G01 X5.5739 Y22.0352
G01 X5.3706 Y22.1388
G01 X5.3640 Y22.1410
G01 X5.3640 Y21.6882
G01 X5.3983 Y21.6674
G01 X5.4810 Y21.6059
G01 X5.5564 Y21.5375
G01 X5.6264 Y21.4602
G01 X5.6870 Y21.3784
G01 X5.7400 Y21.2900
G01 X5.7840 Y21.1969
G01 X5.8180 Y21.1022
G01 X5.8200 Y21.0950
G01 X6.2345 Y21.0950
G01 X6.2283 Y21.1346
G01 X6.1577 Y21.3517
G01 X6.0541 Y21.5550
G00 Z3.0000
G00 X4.7768 Y24.3410
G01 F60.00
G01 Z-0.1500
G01 F100.00
G01 X4.8815 Y24.3148
G01 X4.9811 Y24.3001
G01 X5.0840 Y24.2951
G01 X5.5840 Y24.2951
G01 X5.6844 Y24.2999
G01 X5.7888 Y24.3152
G01 X5.8876 Y24.3399
G01 X5.9858 Y24.3750
G01 X6.0789 Y24.4190
G01 X6.1673 Y24.4720
G01 X6.2491 Y24.5326
G01 X6.3264 Y24.6026
G01 X6.3948 Y24.6780
G01 X6.4563 Y24.7607
G01 X6.4769 Y24.7948
G01 X11.0152 Y24.7948
G01 X11.0679 Y24.7974
G01 X11.1189 Y24.8050
G01 X11.1737 Y24.8185
G01 X11.2268 Y24.8377
G01 X11.2734 Y24.8598
G01 X11.3197 Y24.8875
G01 X11.3630 Y24.9197
G01 X11.4031 Y24.9560
G01 X16.7031 Y30.2560
G01 X16.7401 Y30.2969
G01 X16.7715 Y30.3393
G01 X16.7980 Y30.3835
G01 X16.8223 Y30.4345
G01 X16.8412 Y30.4877
G01 X16.8537 Y30.5377
G01 X16.8613 Y30.5887
G01 X16.8642 Y30.6450
G01 X16.8642 Y31.1391
G01 X16.8711 Y31.1410
G01 X16.9658 Y31.1750
G01 X17.0611 Y31.2202
G01 X17.1473 Y31.2720
G01 X17.2282 Y31.3319
G01 X17.3064 Y31.4026
G01 X17.3771 Y31.4809
G01 X17.4370 Y31.5617
G01 X17.4888 Y31.6479
G01 X17.5340 Y31.7432
G01 X17.5691 Y31.8415
G01 X17.5938 Y31.9402
G01 X17.6091 Y32.0446
G01 X17.6140 Y32.1450
G01 X17.6091 Y32.2455
G01 X17.5942 Y32.3475
G01 X17.5688 Y32.4498
G01 X17.5340 Y32.5469
G01 X17.4900 Y32.6400
G01 X17.4370 Y32.7284
G01 X17.3756 Y32.8112
G01 X17.3047 Y32.8892
G01 X17.2301 Y32.9567
G01 X17.1493 Y33.0167
G01 X17.0611 Y33.0699
G01 X16.9658 Y33.1151
G01 X16.8688 Y33.1498
G01 X16.7688 Y33.1749
G01 X16.6657 Y33.1901
G01 X16.5640 Y33.1950
G01 X16.0627 Y33.1950
G01 X15.9611 Y33.1900
G01 X15.8579 Y33.1746
G01 X15.7592 Y33.1498
G01 X15.6644 Y33.1160
G01 X15.5690 Y33.0711
G01 X15.4806 Y33.0181
G01 X15.3998 Y32.9582
G01 X15.3207 Y32.8866
G01 X15.2508 Y32.8092
G01 X15.1909 Y32.7284
G01 X15.1392 Y32.6422
G01 X15.0939 Y32.5469
G01 X15.0592 Y32.4498
G01 X15.0337 Y32.3475
G01 X15.0190 Y32.2480
G01 X15.0140 Y32.1475
G01 X15.0190 Y32.0421
G01 X15.0344 Y31.9390
G01 X15.0592 Y31.8403
G01 X15.0930 Y31.7455
G01 X15.1380 Y31.6501
G01 X15.1923 Y31.5597
G01 X15.2523 Y31.4789
G01 X15.3198 Y31.4044
G01 X15.3998 Y31.3319
G01 X15.4806 Y31.2720
G01 X15.5669 Y31.2202
G01 X15.6622 Y31.1750
G01 X15.7570 Y31.1410
G01 X15.7637 Y31.1391
G01 X15.7637 Y30.8730
G01 X10.7861 Y25.8953
G01 X6.4769 Y25.8953
G01 X6.4563 Y25.9294
G01 X6.3948 Y26.0121
G01 X6.3264 Y26.0875
G01 X6.2491 Y26.1575
G01 X6.1673 Y26.2181
G01 X6.0789 Y26.2711
G01 X5.9858 Y26.3151
G01 X5.8876 Y26.3502
G01 X5.7888 Y26.3749
G01 X5.6893 Y26.3897
G01 X5.5840 Y26.3950
G01 X5.0840 Y26.3950
G01 X4.9835 Y26.3902
G01 X4.8791 Y26.3749
G01 X4.7815 Y26.3505
G01 X4.6799 Y26.3141
G01 X4.5890 Y26.2711
G01 X4.5006 Y26.2181
G01 X4.4179 Y26.1567
G01 X4.3433 Y26.0892
G01 X4.2708 Y26.0092
G01 X4.2109 Y25.9284
G01 X4.1580 Y25.8400
G01 X4.1139 Y25.7469
G01 X4.0800 Y25.6522
G01 X4.0537 Y25.5475
G01 X4.0390 Y25.4480
G01 X4.0340 Y25.3450
G01 X4.0393 Y25.2397
G01 X4.0541 Y25.1402
G01 X4.0792 Y25.0403
G01 X4.1139 Y24.9432
G01 X4.1569 Y24.8523
G01 X4.2123 Y24.7597
G01 X4.2723 Y24.6789
G01 X4.3415 Y24.6026
G01 X4.4179 Y24.5334
G01 X4.4986 Y24.4734
G01 X4.5912 Y24.4179
G01 X4.6822 Y24.3750
G01 X4.7768 Y24.3410
G00 Z3.0000
G00 X3.7397 Y25.9018
G01 F60.00
G01 Z-0.1500
G01 F100.00
G01 X3.6692 Y25.6847
G01 X3.6335 Y25.4592
G01 X3.6335 Y25.2309
G01 X3.6692 Y25.0054
G01 X3.7397 Y24.7883
G01 X3.8434 Y24.5848
G01 X3.9776 Y24.4001
G01 X4.1390 Y24.2387
G01 X4.3237 Y24.1045
G01 X4.5272 Y24.0008
G01 X4.7443 Y23.9303
G01 X4.9698 Y23.8945
G01 X5.6981 Y23.8945
G01 X5.9236 Y23.9303
G01 X6.1408 Y24.0008
G01 X6.3442 Y24.1045
G01 X6.5289 Y24.2387
G01 X6.6348 Y24.3445
G01 X6.6604 Y24.3653
G01 X6.6666 Y24.3692
G01 X6.6746 Y24.3725
G01 X6.7428 Y24.3925
G01 X6.7521 Y24.3943
G01 X11.1076 Y24.3945
G01 X11.2912 Y24.4311
G01 X11.4642 Y24.5027
G01 X11.6199 Y24.6068
G01 X17.0523 Y30.0391
G01 X17.1563 Y30.1948
G01 X17.2279 Y30.3678
G01 X17.2645 Y30.5514
G01 X17.2645 Y30.7747
G01 X17.2653 Y30.7816
G01 X17.2740 Y30.8279
G01 X17.2757 Y30.8338
G01 X17.2786 Y30.8406
G01 X17.2833 Y30.8479
G01 X17.3260 Y30.9033
G01 X17.3316 Y30.9094
G01 X17.3362 Y30.9132
G01 X17.5089 Y31.0387
G01 X17.6704 Y31.2001
G01 X17.8046 Y31.3848
G01 X17.9082 Y31.5882
G01 X17.9788 Y31.8054
G01 X18.0145 Y32.0309
G01 X18.0145 Y32.2592
G01 X17.9788 Y32.4847
G01 X17.9082 Y32.7019
G01 X17.8046 Y32.9053
G01 X17.6703 Y33.0900
G01 X17.5089 Y33.2514
G01 X17.3242 Y33.3856
G01 X17.1208 Y33.4893
G01 X16.9036 Y33.5598
G01 X16.6781 Y33.5956
G01 X15.9498 Y33.5956
G01 X15.7243 Y33.5598
G01 X15.5072 Y33.4893
G01 X15.3037 Y33.3856
G01 X15.1190 Y33.2514
G01 X14.9576 Y33.0900
G01 X14.8234 Y32.9053
G01 X14.7197 Y32.7018
G01 X14.6492 Y32.4847
G01 X14.6135 Y32.2592
G01 X14.6135 Y32.0309
G01 X14.6492 Y31.8054
G01 X14.7197 Y31.5883
G01 X14.8234 Y31.3848
G01 X14.9576 Y31.2001
G01 X15.1198 Y31.0378
G01 X15.1249 Y31.0312
G01 X15.1534 Y30.9869
G01 X15.1574 Y30.9791
G01 X15.1601 Y30.9708
G01 X15.1612 Y30.9634
G01 X15.1663 Y30.8925
G01 X15.1662 Y30.8863
G01 X15.1655 Y30.8813
G01 X15.1637 Y30.8741
G01 X15.1608 Y30.8673
G01 X15.1249 Y30.8018
G01 X15.1221 Y30.7979
G01 X15.1182 Y30.7935
G01 X10.6712 Y26.3465
G01 X10.6456 Y26.3255
G01 X10.6373 Y26.3204
G01 X10.6293 Y26.3173
G01 X10.5611 Y26.2973
G01 X10.5541 Y26.2959
G01 X10.5482 Y26.2956
G01 X6.7529 Y26.2957
G01 X6.7227 Y26.2990
G01 X6.7167 Y26.3003
G01 X6.7121 Y26.3019
G01 X6.7065 Y26.3045
G01 X6.6452 Y26.3380
G01 X6.6402 Y26.3411
G01 X6.6338 Y26.3465
G01 X6.5289 Y26.4514
G01 X6.3442 Y26.5856
G01 X6.1408 Y26.6893
G01 X5.9236 Y26.7598
G01 X5.6981 Y26.7956
G01 X4.9698 Y26.7956
G01 X4.7443 Y26.7598
G01 X4.5272 Y26.6893
G01 X4.3237 Y26.5856
G01 X4.1390 Y26.4514
G01 X3.9776 Y26.2900
G01 X3.8434 Y26.1053
G01 X3.7397 Y25.9018
G00 Z3.0000
G00 X9.4540 Y28.3282
G01 F60.00
G01 Z-0.1500
G01 F100.00
G01 X9.6338 Y28.3866
G01 X9.8091 Y28.4760
G01 X9.9683 Y28.5916
G01 X10.1074 Y28.7307
G01 X10.2231 Y28.8899
G01 X10.3124 Y29.0652
G01 X10.3732 Y29.2523
G01 X10.4037 Y29.4451
G01 X9.9975 Y29.4450
G01 X9.9876 Y29.3792
G01 X9.9680 Y29.3007
G01 X9.9393 Y29.2198
G01 X9.9024 Y29.1422
G01 X9.8607 Y29.0728
G01 X9.8118 Y29.0068
G01 X9.7532 Y28.9423
G01 X9.6932 Y28.8880
G01 X9.6272 Y28.8390
G01 X9.5536 Y28.7949
G01 X9.4804 Y28.7602
G01 X9.4540 Y28.7506
G01 X9.4540 Y28.3282
G00 Z3.0000
G00 X9.4540 Y31.1619
G01 F60.00
G01 Z-0.1500
G01 F100.00
G01 X9.4540 Y30.7395
G01 X9.4804 Y30.7299
G01 X9.5536 Y30.6952
G01 X9.6272 Y30.6511
G01 X9.6932 Y30.6021
G01 X9.7532 Y30.5478
G01 X9.8118 Y30.4833
G01 X9.8607 Y30.4173
G01 X9.9024 Y30.3479
G01 X9.9393 Y30.2703
G01 X9.9680 Y30.1894
G01 X9.9876 Y30.1109
G01 X9.9975 Y30.0450
G01 X10.4037 Y30.0450
G01 X10.3732 Y30.2378
G01 X10.3124 Y30.4249
G01 X10.2231 Y30.6002
G01 X10.1074 Y30.7594
G01 X9.9683 Y30.8985
G01 X9.8091 Y31.0141
G01 X9.6338 Y31.1035
G01 X9.4540 Y31.1619
G00 Z3.0000
G00 X12.2496 Y35.3591
G01 F60.00
G01 Z-0.1500
G01 F100.00
G01 X12.1687 Y35.3303
G01 X12.0912 Y35.2935
G01 X12.0217 Y35.2518
G01 X11.9567 Y35.2036
G01 X11.8912 Y35.1443
G01 X11.8369 Y35.0843
G01 X11.7886 Y35.0193
G01 X11.7443 Y34.9457
G01 X11.7087 Y34.8703
G01 X11.6813 Y34.7941
G01 X11.6599 Y34.7085
G01 X11.6481 Y34.6284
G01 X11.6440 Y34.5475
G01 X11.6481 Y34.4617
G01 X11.6603 Y34.3792
G01 X11.6799 Y34.3007
G01 X11.7087 Y34.2198
G01 X11.7443 Y34.1444
G01 X11.7859 Y34.0749
G01 X11.8369 Y34.0058
G01 X11.8947 Y33.9423
G01 X11.9547 Y33.8880
G01 X12.0217 Y33.8383
G01 X12.0933 Y33.7954
G01 X12.1710 Y33.7589
G01 X12.2496 Y33.7310
G01 X12.3281 Y33.7114
G01 X12.4082 Y33.6994
G01 X12.4940 Y33.6951
G01 X12.8940 Y33.6951
G01 X12.9773 Y33.6991
G01 X13.0598 Y33.7114
G01 X13.1407 Y33.7317
G01 X13.2193 Y33.7598
G01 X13.2947 Y33.7954
G01 X13.3662 Y33.8383
G01 X13.4332 Y33.8880
G01 X13.4950 Y33.9440
G01 X13.5411 Y33.9948
G01 X13.8940 Y33.9948
G01 X13.9479 Y33.9974
G01 X14.0013 Y34.0054
G01 X14.0537 Y34.0185
G01 X14.1045 Y34.0367
G01 X14.1544 Y34.0604
G01 X14.1997 Y34.0875
G01 X14.2411 Y34.1182
G01 X14.2831 Y34.1560
G01 X16.2031 Y36.0760
G01 X16.2393 Y36.1160
G01 X16.2715 Y36.1593
G01 X16.2993 Y36.2057
G01 X16.3223 Y36.2545
G01 X16.3405 Y36.3053
G01 X16.3541 Y36.3601
G01 X16.3616 Y36.4111
G01 X16.3642 Y36.4638
G01 X16.3642 Y36.7715
G01 X16.4147 Y36.7954
G01 X16.4841 Y36.8370
G01 X16.5523 Y36.8872
G01 X16.6150 Y36.9440
G01 X16.6702 Y37.0049
G01 X16.7207 Y37.0728
G01 X16.7636 Y37.1444
G01 X16.7993 Y37.2198
G01 X16.8277 Y37.2995
G01 X16.8476 Y37.3792
G01 X16.8599 Y37.4617
G01 X16.8640 Y37.5450
G01 X16.8599 Y37.6284
G01 X16.8476 Y37.7109
G01 X16.8273 Y37.7919
G01 X16.7993 Y37.8703
G01 X16.7630 Y37.9468
G01 X16.7207 Y38.0173
G01 X16.6694 Y38.0861
G01 X16.6132 Y38.1478
G01 X16.5532 Y38.2021
G01 X16.4882 Y38.2504
G01 X16.4147 Y38.2947
G01 X16.3393 Y38.3303
G01 X16.2607 Y38.3584
G01 X16.1810 Y38.3785
G01 X16.0973 Y38.3910
G01 X16.0152 Y38.3950
G01 X15.6140 Y38.3950
G01 X15.5307 Y38.3910
G01 X15.4481 Y38.3787
G01 X15.3673 Y38.3585
G01 X15.2887 Y38.3303
G01 X15.2122 Y38.2941
G01 X15.1417 Y38.2518
G01 X15.0767 Y38.2036
G01 X15.0129 Y38.1461
G01 X14.9554 Y38.0823
G01 X14.9072 Y38.0173
G01 X14.8656 Y37.9479
G01 X14.8287 Y37.8703
G01 X14.7999 Y37.7894
G01 X14.7803 Y37.7109
G01 X14.7684 Y37.6308
G01 X14.7640 Y37.5438
G01 X14.7684 Y37.4593
G01 X14.7803 Y37.3792
G01 X14.7999 Y37.3007
G01 X14.8287 Y37.2198
G01 X14.8656 Y37.1422
G01 X14.9072 Y37.0728
G01 X14.9554 Y37.0078
G01 X15.0138 Y36.9432
G01 X15.0747 Y36.8880
G01 X15.1407 Y36.8390
G01 X15.2133 Y36.7954
G01 X15.2637 Y36.7715
G01 X15.2637 Y36.6930
G01 X13.6661 Y35.0953
G01 X13.5411 Y35.0953
G01 X13.4950 Y35.1461
G01 X13.4332 Y35.2021
G01 X13.3662 Y35.2518
G01 X13.2968 Y35.2935
G01 X13.2170 Y35.3312
G01 X13.1407 Y35.3584
G01 X13.0598 Y35.3787
G01 X12.9773 Y35.3910
G01 X12.8952 Y35.3950
G01 X12.4927 Y35.3950
G01 X12.4082 Y35.3907
G01 X12.3281 Y35.3787
G01 X12.2496 Y35.3591
G00 Z3.0000
G00 X20.0430 Y38.7955
G01 F60.00
G01 Z-0.1500
G01 F100.00
G01 X20.0892 Y38.6979
G01 X20.1409 Y38.6117
G01 X20.2031 Y38.5280
G01 X20.2715 Y38.4526
G01 X20.3469 Y38.3842
G01 X20.4296 Y38.3227
G01 X20.4637 Y38.3021
G01 X20.4638 Y36.5426
G01 X20.4664 Y36.4911
G01 X20.4739 Y36.4401
G01 X20.4874 Y36.3853
G01 X20.5066 Y36.3322
G01 X20.5287 Y36.2857
G01 X20.5558 Y36.2404
G01 X20.5886 Y36.1960
G01 X20.6249 Y36.1560
G01 X23.6214 Y33.1594
G01 X23.6160 Y33.1551
G01 X23.5398 Y33.0857
G01 X23.4723 Y33.0112
G01 X23.4096 Y32.9263
G01 X23.3580 Y32.8400
G01 X23.3139 Y32.7469
G01 X23.2792 Y32.6498
G01 X23.2537 Y32.5475
G01 X23.2390 Y32.4480
G01 X23.2340 Y32.3450
G01 X23.2390 Y32.2421
G01 X23.2541 Y32.1402
G01 X23.2792 Y32.0403
G01 X23.3139 Y31.9432
G01 X23.3580 Y31.8501
G01 X23.4123 Y31.7597
G01 X23.4723 Y31.6789
G01 X23.5433 Y31.6009
G01 X23.6179 Y31.5334
G01 X23.6986 Y31.4734
G01 X23.7869 Y31.4202
G01 X23.8822 Y31.3750
G01 X23.9793 Y31.3402
G01 X24.0791 Y31.3152
G01 X24.1786 Y31.3004
G01 X24.2840 Y31.2951
G01 X24.7840 Y31.2951
G01 X24.8893 Y31.3004
G01 X24.9888 Y31.3152
G01 X25.0864 Y31.3396
G01 X25.1835 Y31.3741
G01 X25.2789 Y31.4190
G01 X25.3693 Y31.4734
G01 X25.4501 Y31.5334
G01 X25.5264 Y31.6026
G01 X25.5956 Y31.6789
G01 X25.6570 Y31.7617
G01 X25.7100 Y31.8501
G01 X25.7540 Y31.9432
G01 X25.7888 Y32.0403
G01 X25.8138 Y32.1402
G01 X25.8289 Y32.2421
G01 X25.8340 Y32.3450
G01 X25.8289 Y32.4480
G01 X25.8138 Y32.5499
G01 X25.7888 Y32.6498
G01 X25.7540 Y32.7469
G01 X25.7100 Y32.8400
G01 X25.6563 Y32.9294
G01 X25.5956 Y33.0112
G01 X25.5264 Y33.0875
G01 X25.4501 Y33.1567
G01 X25.3663 Y33.2188
G01 X25.2789 Y33.2711
G01 X25.1847 Y33.3156
G01 X25.0876 Y33.3502
G01 X24.9900 Y33.3746
G01 X24.9540 Y33.3801
G01 X24.9231 Y33.4141
G01 X21.5642 Y36.7730
G01 X21.5642 Y38.3021
G01 X21.5983 Y38.3227
G01 X21.6791 Y38.3826
G01 X21.7556 Y38.4517
G01 X21.8256 Y38.5289
G01 X21.8877 Y38.6127
G01 X21.9411 Y38.7023
G01 X21.9840 Y38.7932
G01 X22.0180 Y38.8879
G01 X22.0438 Y38.9902
G01 X22.0591 Y39.0946
G01 X22.0640 Y39.1950
G01 X22.0640 Y39.6963
G01 X22.0589 Y39.7980
G01 X22.0435 Y39.9011
G01 X22.0188 Y39.9998
G01 X21.9849 Y40.0946
G01 X21.9400 Y40.1900
G01 X21.8856 Y40.2804
G01 X21.8256 Y40.3612
G01 X21.7573 Y40.4366
G01 X21.6801 Y40.5067
G01 X21.5973 Y40.5681
G01 X21.5089 Y40.6211
G01 X21.4158 Y40.6651
G01 X21.3188 Y40.6998
G01 X21.2188 Y40.7249
G01 X21.1169 Y40.7400
G01 X21.0140 Y40.7450
G01 X20.9111 Y40.7400
G01 X20.8091 Y40.7249
G01 X20.7092 Y40.6998
G01 X20.6122 Y40.6651
G01 X20.5190 Y40.6211
G01 X20.4306 Y40.5681
G01 X20.3479 Y40.5067
G01 X20.2724 Y40.4384
G01 X20.2023 Y40.3612
G01 X20.1423 Y40.2804
G01 X20.0869 Y40.1878
G01 X20.0439 Y40.0969
G01 X20.0092 Y39.9998
G01 X19.9841 Y39.8999
G01 X19.9693 Y39.8004
G01 X19.9640 Y39.6950
G01 X19.9640 Y39.1950
G01 X19.9689 Y39.0934
G01 X19.9847 Y38.9878
G01 X20.0092 Y38.8903
G01 X20.0430 Y38.7955
G00 Z3.0000
G00 X20.0430 Y43.7955
G01 F60.00
G01 Z-0.1500
G01 F100.00
G01 X20.0880 Y43.7001
G01 X20.1409 Y43.6117
G01 X20.2023 Y43.5289
G01 X20.2733 Y43.4509
G01 X20.3479 Y43.3834
G01 X20.4286 Y43.3234
G01 X20.5169 Y43.2702
G01 X20.6122 Y43.2250
G01 X20.7093 Y43.1902
G01 X20.8091 Y43.1652
G01 X20.9111 Y43.1501
G01 X21.0140 Y43.1451
G01 X21.1193 Y43.1504
G01 X21.2188 Y43.1652
G01 X21.3164 Y43.1896
G01 X21.4135 Y43.2241
G01 X21.5089 Y43.2690
G01 X21.5963 Y43.3213
G01 X21.6801 Y43.3834
G01 X21.7581 Y43.4544
G01 X21.8256 Y43.5289
G01 X21.8856 Y43.6097
G01 X21.9388 Y43.6979
G01 X21.9840 Y43.7932
G01 X22.0188 Y43.8903
G01 X22.0440 Y43.9914
G01 X22.0588 Y44.0909
G01 X22.0601 Y44.1150
G01 X22.0749 Y44.1189
G01 X22.1234 Y44.1362
G01 X22.1744 Y44.1604
G01 X22.2197 Y44.1875
G01 X22.2611 Y44.2182
G01 X22.3022 Y44.2551
G01 X24.9431 Y46.8960
G01 X24.9793 Y46.9360
G01 X25.0128 Y46.9814
G01 X25.0393 Y47.0257
G01 X25.0623 Y47.0745
G01 X25.0812 Y47.1277
G01 X25.0937 Y47.1777
G01 X25.1013 Y47.2287
G01 X25.1042 Y47.2850
G01 X25.1042 Y47.8021
G01 X25.1383 Y47.8227
G01 X25.2191 Y47.8826
G01 X25.2956 Y47.9517
G01 X25.3656 Y48.0289
G01 X25.4277 Y48.1127
G01 X25.4811 Y48.2023
G01 X25.5240 Y48.2932
G01 X25.5580 Y48.3879
G01 X25.5838 Y48.4902
G01 X25.5990 Y48.5934
G01 X25.6040 Y48.6950
G01 X25.6039 Y49.1975
G01 X25.5989 Y49.2980
G01 X25.5842 Y49.3975
G01 X25.5591 Y49.4987
G01 X25.5231 Y49.5991
G01 X25.4800 Y49.6900
G01 X25.4270 Y49.7784
G01 X25.3656 Y49.8612
G01 X25.2981 Y49.9357
G01 X25.2201 Y50.0067
G01 X25.1373 Y50.0681
G01 X25.0489 Y50.1211
G01 X24.9558 Y50.1651
G01 X24.8588 Y50.1998
G01 X24.7588 Y50.2249
G01 X24.6569 Y50.2400
G01 X24.5540 Y50.2450
G01 X24.4511 Y50.2400
G01 X24.3491 Y50.2249
G01 X24.2492 Y50.1998
G01 X24.1522 Y50.1651
G01 X24.0590 Y50.1211
G01 X23.9706 Y50.0681
G01 X23.8879 Y50.0067
G01 X23.8115 Y49.9375
G01 X23.7423 Y49.8612
G01 X23.6796 Y49.7763
G01 X23.6280 Y49.6900
G01 X23.5849 Y49.5991
G01 X23.5492 Y49.4998
G01 X23.5239 Y49.3987
G01 X23.5090 Y49.2980
G01 X23.5040 Y49.1963
G01 X23.5040 Y48.6950
G01 X23.5092 Y48.5909
G01 X23.5241 Y48.4902
G01 X23.5500 Y48.3879
G01 X23.5839 Y48.2933
G01 X23.6269 Y48.2023
G01 X23.6803 Y48.1127
G01 X23.7423 Y48.0289
G01 X23.8124 Y47.9517
G01 X23.8888 Y47.8826
G01 X23.9696 Y47.8227
G01 X24.0037 Y47.8021
G01 X24.0037 Y47.5130
G01 X21.8369 Y45.3461
G01 X21.8248 Y45.3621
G01 X21.7564 Y45.4375
G01 X21.6801 Y45.5067
G01 X21.5973 Y45.5681
G01 X21.5089 Y45.6211
G01 X21.4158 Y45.6651
G01 X21.3188 Y45.6998
G01 X21.2188 Y45.7249
G01 X21.1144 Y45.7402
G01 X21.0140 Y45.7450
G01 X20.9086 Y45.7397
G01 X20.8091 Y45.7249
G01 X20.7115 Y45.7005
G01 X20.6144 Y45.6660
G01 X20.5190 Y45.6211
G01 X20.4306 Y45.5681
G01 X20.3479 Y45.5067
G01 X20.2724 Y45.4384
G01 X20.2023 Y45.3612
G01 X20.1423 Y45.2804
G01 X20.0869 Y45.1878
G01 X20.0439 Y45.0969
G01 X20.0092 Y44.9998
G01 X19.9841 Y44.8999
G01 X19.9693 Y44.8004
G01 X19.9640 Y44.6950
G01 X19.9640 Y44.1950
G01 X19.9689 Y44.0934
G01 X19.9847 Y43.9878
G01 X20.0092 Y43.8903
G01 X20.0430 Y43.7955
G00 Z3.0000
G00 X13.8430 Y44.2155
G01 F60.00
G01 Z-0.1500
G01 F100.00
G01 X13.8880 Y44.1201
G01 X13.9409 Y44.0317
G01 X14.0023 Y43.9489
G01 X14.0637 Y43.8811
G01 X14.0637 Y41.8650
G01 X14.0662 Y41.8136
G01 X14.0748 Y41.7553
G01 X14.0874 Y41.7053
G01 X14.1056 Y41.6545
G01 X14.1287 Y41.6057
G01 X14.1551 Y41.5614
G01 X14.1894 Y41.5150
G01 X14.2249 Y41.4760
G01 X16.1749 Y39.5260
G01 X16.2168 Y39.4882
G01 X16.2583 Y39.4575
G01 X16.3025 Y39.4310
G01 X16.3534 Y39.4067
G01 X16.4066 Y39.3878
G01 X16.4590 Y39.3750
G01 X16.5100 Y39.3674
G01 X16.5615 Y39.3649
G01 X18.0161 Y39.3648
G01 X18.2637 Y39.1171
G01 X18.2637 Y35.7450
G01 X18.2667 Y35.6887
G01 X18.2743 Y35.6377
G01 X18.2868 Y35.5877
G01 X18.3056 Y35.5345
G01 X18.3299 Y35.4835
G01 X18.3564 Y35.4394
G01 X18.3871 Y35.3979
G01 X18.4240 Y35.3568
G01 X20.6647 Y33.1161
G01 X20.6599 Y33.1141
G01 X20.5690 Y33.0711
G01 X20.4806 Y33.0181
G01 X20.3979 Y32.9567
G01 X20.3198 Y32.8857
G01 X20.2523 Y32.8112
G01 X20.1923 Y32.7304
G01 X20.1392 Y32.6422
G01 X20.0939 Y32.5469
G01 X20.0592 Y32.4498
G01 X20.0341 Y32.3499
G01 X20.0190 Y32.2480
G01 X20.0140 Y32.1450
G01 X20.0193 Y32.0397
G01 X20.0341 Y31.9402
G01 X20.0585 Y31.8426
G01 X20.0930 Y31.7455
G01 X20.1380 Y31.6501
G01 X20.1903 Y31.5627
G01 X20.2523 Y31.4789
G01 X20.3215 Y31.4026
G01 X20.3979 Y31.3334
G01 X20.4806 Y31.2720
G01 X20.5690 Y31.2190
G01 X20.6622 Y31.1750
G01 X20.7593 Y31.1402
G01 X20.8615 Y31.1148
G01 X20.9611 Y31.1001
G01 X21.0627 Y31.0951
G01 X21.5640 Y31.0951
G01 X21.6681 Y31.1002
G01 X21.7712 Y31.1158
G01 X21.8688 Y31.1403
G01 X21.9635 Y31.1741
G01 X22.0589 Y31.2190
G01 X22.1463 Y31.2713
G01 X22.2301 Y31.3334
G01 X22.3064 Y31.4026
G01 X22.3756 Y31.4789
G01 X22.4370 Y31.5617
G01 X22.4900 Y31.6501
G01 X22.5340 Y31.7432
G01 X22.5688 Y31.8403
G01 X22.5933 Y31.9378
G01 X22.6091 Y32.0446
G01 X22.6140 Y32.1450
G01 X22.6086 Y32.2504
G01 X22.5938 Y32.3499
G01 X22.5688 Y32.4498
G01 X22.5340 Y32.5469
G01 X22.4888 Y32.6422
G01 X22.4370 Y32.7284
G01 X22.3756 Y32.8112
G01 X22.3064 Y32.8875
G01 X22.2301 Y32.9567
G01 X22.1473 Y33.0181
G01 X22.0589 Y33.0711
G01 X21.9658 Y33.1151
G01 X21.8711 Y33.1491
G01 X21.8642 Y33.1510
G01 X21.8642 Y33.2463
G01 X21.8616 Y33.2990
G01 X21.8537 Y33.3524
G01 X21.8409 Y33.4036
G01 X21.8223 Y33.4556
G01 X21.7993 Y33.5044
G01 X21.7715 Y33.5507
G01 X21.7377 Y33.5960
G01 X21.7031 Y33.6341
G01 X19.3642 Y35.9730
G01 X19.3642 Y39.3463
G01 X19.3616 Y39.3990
G01 X19.3541 Y39.4500
G01 X19.3405 Y39.5048
G01 X19.3213 Y39.5579
G01 X19.2993 Y39.6044
G01 X19.2722 Y39.6497
G01 X19.2393 Y39.6941
G01 X19.2031 Y39.7341
G01 X18.6313 Y40.3058
G01 X18.5911 Y40.3419
G01 X18.5497 Y40.3726
G01 X18.5055 Y40.3991
G01 X18.4545 Y40.4234
G01 X18.4049 Y40.4412
G01 X18.3489 Y40.4551
G01 X18.2979 Y40.4627
G01 X18.2452 Y40.4653
G01 X16.7919 Y40.4653
G01 X15.1642 Y42.0930
G01 X15.1642 Y43.6265
G01 X15.2169 Y43.6455
G01 X15.3079 Y43.6885
G01 X15.3983 Y43.7427
G01 X15.4801 Y43.8034
G01 X15.5547 Y43.8709
G01 X15.6271 Y43.9509
G01 X15.6870 Y44.0317
G01 X15.7388 Y44.1179
G01 X15.7845 Y44.2144
G01 X15.8188 Y44.3103
G01 X15.8435 Y44.4090
G01 X15.8588 Y44.5109
G01 X15.8610 Y44.5539
G01 X19.0449 Y47.7378
G01 X19.0733 Y47.7245
G01 X19.1704 Y47.6899
G01 X19.2691 Y47.6652
G01 X19.3723 Y47.6500
G01 X19.4740 Y47.6451
G01 X19.5769 Y47.6501
G01 X19.6788 Y47.6652
G01 X19.7776 Y47.6899
G01 X19.8758 Y47.7250
G01 X19.9667 Y47.7679
G01 X20.0593 Y47.8234
G01 X20.1401 Y47.8834
G01 X20.2164 Y47.9526
G01 X20.2856 Y48.0289
G01 X20.3470 Y48.1117
G01 X20.4000 Y48.2001
G01 X20.4440 Y48.2932
G01 X20.4788 Y48.3903
G01 X20.5040 Y48.4914
G01 X20.5189 Y48.5921
G01 X20.5240 Y48.6938
G01 X20.5240 Y49.1963
G01 X20.5189 Y49.2980
G01 X20.5038 Y49.3999
G01 X20.4788 Y49.4998
G01 X20.4449 Y49.5946
G01 X20.3988 Y49.6922
G01 X20.3470 Y49.7784
G01 X20.2848 Y49.8621
G01 X20.2164 Y49.9375
G01 X20.1401 Y50.0067
G01 X20.0573 Y50.0681
G01 X19.9689 Y50.1211
G01 X19.8758 Y50.1651
G01 X19.7788 Y50.1998
G01 X19.6788 Y50.2249
G01 X19.5793 Y50.2397
G01 X19.4740 Y50.2450
G01 X19.3735 Y50.2402
G01 X19.2667 Y50.2243
G01 X19.1692 Y50.1998
G01 X19.0722 Y50.1651
G01 X18.9790 Y50.1211
G01 X18.8917 Y50.0688
G01 X18.8079 Y50.0067
G01 X18.7333 Y49.9392
G01 X18.6608 Y49.8592
G01 X18.6009 Y49.7784
G01 X18.5480 Y49.6900
G01 X18.5039 Y49.5969
G01 X18.4696 Y49.5010
G01 X18.4441 Y49.3999
G01 X18.4288 Y49.2955
G01 X18.4240 Y49.1950
G01 X18.4240 Y48.6950
G01 X18.4249 Y48.6742
G01 X15.5811 Y45.8304
G01 X15.5556 Y45.8584
G01 X15.4791 Y45.9275
G01 X15.3973 Y45.9881
G01 X15.3079 Y46.0416
G01 X15.2158 Y46.0851
G01 X15.1188 Y46.1198
G01 X15.0188 Y46.1449
G01 X14.9157 Y46.1601
G01 X14.8140 Y46.1650
G01 X14.7111 Y46.1600
G01 X14.6091 Y46.1449
G01 X14.5092 Y46.1198
G01 X14.4122 Y46.0851
G01 X14.3190 Y46.0411
G01 X14.2306 Y45.9881
G01 X14.1469 Y45.9259
G01 X14.0715 Y45.8575
G01 X14.0023 Y45.7812
G01 X13.9409 Y45.6984
G01 X13.8892 Y45.6122
G01 X13.8430 Y45.5146
G01 X13.8092 Y45.4198
G01 X13.7839 Y45.3187
G01 X13.7690 Y45.2180
G01 X13.7640 Y45.1163
G01 X13.7640 Y44.6150
G01 X13.7688 Y44.5146
G01 X13.7847 Y44.4078
G01 X13.8092 Y44.3103
G01 X13.8430 Y44.2155
G00 Z3.0000
G00 X8.6568 Y45.0610
G01 F60.00
G01 Z-0.1500
G01 F100.00
G01 X8.6637 Y45.0591
G01 X8.6637 Y43.8290
G01 X8.6023 Y43.7612
G01 X8.5409 Y43.6784
G01 X8.4880 Y43.5900
G01 X8.4449 Y43.4991
G01 X8.4085 Y43.3975
G01 X8.3841 Y43.2999
G01 X8.3690 Y43.1980
G01 X8.3640 Y43.0950
G01 X8.3640 Y42.5926
G01 X8.3690 Y42.4921
G01 X8.3837 Y42.3926
G01 X8.4092 Y42.2903
G01 X8.4439 Y42.1932
G01 X8.4880 Y42.1001
G01 X8.5409 Y42.0117
G01 X8.6023 Y41.9289
G01 X8.6715 Y41.8526
G01 X8.7479 Y41.7834
G01 X8.8306 Y41.7220
G01 X8.9190 Y41.6690
G01 X9.0122 Y41.6250
G01 X9.1093 Y41.5902
G01 X9.2091 Y41.5652
G01 X9.3111 Y41.5501
G01 X9.4140 Y41.5451
G01 X9.5169 Y41.5501
G01 X9.6188 Y41.5652
G01 X9.7188 Y41.5903
G01 X9.8180 Y41.6260
G01 X9.9089 Y41.6690
G01 X9.9973 Y41.7220
G01 X10.0801 Y41.7834
G01 X10.1547 Y41.8509
G01 X10.2256 Y41.9289
G01 X10.2883 Y42.0138
G01 X10.3400 Y42.1001
G01 X10.3840 Y42.1932
G01 X10.4188 Y42.2903
G01 X10.4433 Y42.3878
G01 X10.4590 Y42.4934
G01 X10.4640 Y42.5950
G01 X10.4640 Y43.0950
G01 X10.4590 Y43.1967
G01 X10.4438 Y43.2999
G01 X10.4194 Y43.3975
G01 X10.3836 Y43.4980
G01 X10.3400 Y43.5900
G01 X10.2870 Y43.6784
G01 X10.2256 Y43.7612
G01 X10.1556 Y43.8384
G01 X10.0801 Y43.9067
G01 X9.9963 Y43.9688
G01 X9.9079 Y44.0216
G01 X9.8169 Y44.0646
G01 X9.7642 Y44.0836
G01 X9.7642 Y45.0591
G01 X9.7711 Y45.0610
G01 X9.8680 Y45.0960
G01 X9.9589 Y45.1390
G01 X10.0473 Y45.1920
G01 X10.1301 Y45.2534
G01 X10.2047 Y45.3209
G01 X10.2756 Y45.3989
G01 X10.3383 Y45.4838
G01 X10.3900 Y45.5701
G01 X10.4340 Y45.6632
G01 X10.4694 Y45.7626
G01 X10.4938 Y45.8602
G01 X10.5088 Y45.9609
G01 X10.5140 Y46.0650
G01 X10.5086 Y46.1704
G01 X10.4938 Y46.2699
G01 X10.4694 Y46.3675
G01 X10.4340 Y46.4669
G01 X10.3888 Y46.5622
G01 X10.3370 Y46.6484
G01 X10.2771 Y46.7292
G01 X10.2064 Y46.8075
G01 X10.1301 Y46.8767
G01 X10.0452 Y46.9394
G01 X9.9589 Y46.9911
G01 X9.8680 Y47.0341
G01 X9.7688 Y47.0698
G01 X9.6676 Y47.0951
G01 X9.5669 Y47.1100
G01 X9.4652 Y47.1150
G01 X8.9640 Y47.1150
G01 X8.8623 Y47.1101
G01 X8.7591 Y47.0949
G01 X8.6592 Y47.0698
G01 X8.5622 Y47.0351
G01 X8.4690 Y46.9911
G01 X8.3806 Y46.9381
G01 X8.2979 Y46.8767
G01 X8.2215 Y46.8075
G01 X8.1523 Y46.7312
G01 X8.0896 Y46.6463
G01 X8.0380 Y46.5600
G01 X7.9949 Y46.4691
G01 X7.9592 Y46.3698
G01 X7.9341 Y46.2699
G01 X7.9188 Y46.1655
G01 X7.9140 Y46.0650
G01 X7.9188 Y45.9646
G01 X7.9341 Y45.8602
G01 X7.9592 Y45.7603
G01 X7.9939 Y45.6632
G01 X8.0392 Y45.5679
G01 X8.0909 Y45.4817
G01 X8.1508 Y45.4009
G01 X8.2215 Y45.3226
G01 X8.2979 Y45.2534
G01 X8.3827 Y45.1907
G01 X8.4690 Y45.1390
G01 X8.5599 Y45.0960
G01 X8.6568 Y45.0610
G00 Z3.0000
G00 X7.9930 Y48.2055
G01 F60.00
G01 Z-0.1500
G01 F100.00
G01 X8.0392 Y48.1079
G01 X8.0909 Y48.0217
G01 X8.1523 Y47.9389
G01 X8.2233 Y47.8609
G01 X8.2979 Y47.7934
G01 X8.3806 Y47.7320
G01 X8.4690 Y47.6790
G01 X8.5599 Y47.6360
G01 X8.6593 Y47.6002
G01 X8.7615 Y47.5748
G01 X8.8611 Y47.5601
G01 X8.9627 Y47.5551
G01 X9.4640 Y47.5551
G01 X9.5669 Y47.5601
G01 X9.6712 Y47.5758
G01 X9.7688 Y47.6003
G01 X9.8658 Y47.6350
G01 X9.9589 Y47.6790
G01 X10.0473 Y47.7320
G01 X10.1301 Y47.7934
G01 X10.2056 Y47.8617
G01 X10.2756 Y47.9389
G01 X10.3363 Y48.0207
G01 X10.3894 Y48.1090
G01 X10.4162 Y48.1654
G01 X10.4258 Y48.1551
G01 X10.4640 Y48.1205
G01 X10.5073 Y48.0882
G01 X10.5546 Y48.0598
G01 X10.6023 Y48.0372
G01 X10.6542 Y48.0185
G01 X10.7066 Y48.0054
G01 X10.7600 Y47.9974
G01 X10.8127 Y47.9948
G01 X16.0140 Y47.9948
G01 X16.0679 Y47.9974
G01 X16.1213 Y48.0054
G01 X16.1737 Y48.0185
G01 X16.2223 Y48.0358
G01 X16.2734 Y48.0598
G01 X16.3217 Y48.0889
G01 X16.3630 Y48.1197
G01 X16.4022 Y48.1551
G01 X17.8631 Y49.6160
G01 X17.9001 Y49.6569
G01 X17.9308 Y49.6983
G01 X17.9369 Y49.7082
G01 X18.9608 Y50.7322
G01 X18.9707 Y50.7382
G01 X19.0121 Y50.7689
G01 X19.0408 Y50.7948
G01 X21.1861 Y50.7948
G01 X21.4637 Y50.5171
G01 X21.4637 Y50.0880
G01 X21.4296 Y50.0674
G01 X21.3469 Y50.0059
G01 X21.2715 Y49.9375
G01 X21.2015 Y49.8602
G01 X21.1409 Y49.7784
G01 X21.0880 Y49.6900
G01 X21.0439 Y49.5969
G01 X21.0096 Y49.5010
G01 X20.9837 Y49.3975
G01 X20.9690 Y49.2980
G01 X20.9640 Y49.1975
G01 X20.9640 Y48.6950
G01 X20.9690 Y48.5921
G01 X20.9841 Y48.4902
G01 X21.0100 Y48.3879
G01 X21.0439 Y48.2933
G01 X21.0869 Y48.2023
G01 X21.1403 Y48.1127
G01 X21.2023 Y48.0289
G01 X21.2724 Y47.9517
G01 X21.3488 Y47.8826
G01 X21.4296 Y47.8227
G01 X21.4637 Y47.8021
G01 X21.4637 Y47.5730
G01 X21.1361 Y47.2453
G01 X19.9640 Y47.2453
G01 X19.9113 Y47.2428
G01 X19.8566 Y47.2347
G01 X19.8019 Y47.2208
G01 X19.7534 Y47.2034
G01 X19.7068 Y47.1814
G01 X19.6593 Y47.1533
G01 X19.6149 Y47.1204
G01 X19.5749 Y47.0841
G01 X17.8249 Y45.3341
G01 X17.7879 Y45.2932
G01 X17.7565 Y45.2508
G01 X17.7299 Y45.2066
G01 X17.7056 Y45.1556
G01 X17.6874 Y45.1048
G01 X17.6748 Y45.0548
G01 X17.6663 Y44.9978
G01 X17.6637 Y44.9450
G01 X17.6637 Y43.3438
G01 X17.6664 Y43.2911
G01 X17.6743 Y43.2377
G01 X17.6874 Y43.1853
G01 X17.7056 Y43.1345
G01 X17.7287 Y43.0857
G01 X17.7565 Y43.0393
G01 X17.7886 Y42.9960
G01 X17.8249 Y42.9560
G01 X19.0267 Y41.7543
G01 X19.0649 Y41.7197
G01 X19.1063 Y41.6889
G01 X19.1546 Y41.6598
G01 X19.2057 Y41.6358
G01 X19.2542 Y41.6185
G01 X19.3042 Y41.6059
G01 X19.3600 Y41.5974
G01 X19.4140 Y41.5948
G01 X23.2240 Y41.5948
G01 X23.2779 Y41.5974
G01 X23.3289 Y41.6050
G01 X23.3860 Y41.6193
G01 X23.4345 Y41.6367
G01 X23.4834 Y41.6598
G01 X23.5317 Y41.6889
G01 X23.5730 Y41.7197
G01 X23.6122 Y41.7551
G01 X26.0537 Y44.1966
G01 X26.0537 Y39.7550
G01 X26.0567 Y39.6987
G01 X26.0643 Y39.6477
G01 X26.0771 Y39.5965
G01 X26.0956 Y39.5445
G01 X26.1199 Y39.4935
G01 X26.1465 Y39.4493
G01 X26.1771 Y39.4079
G01 X26.2140 Y39.3668
G01 X27.7949 Y37.7860
G01 X27.8349 Y37.7497
G01 X27.8783 Y37.7175
G01 X27.9225 Y37.6910
G01 X27.9757 Y37.6658
G01 X28.0242 Y37.6485
G01 X28.0766 Y37.6354
G01 X28.1300 Y37.6274
G01 X28.1827 Y37.6248
G01 X31.6510 Y37.6248
G01 X31.6716 Y37.5907
G01 X31.7331 Y37.5080
G01 X31.8015 Y37.4326
G01 X31.8769 Y37.3642
G01 X31.9606 Y37.3020
G01 X32.0469 Y37.2502
G01 X32.1444 Y37.2041
G01 X32.2393 Y37.1702
G01 X32.3367 Y37.1458
G01 X32.4411 Y37.1301
G01 X32.5440 Y37.1251
G01 X33.0440 Y37.1251
G01 X33.1493 Y37.1304
G01 X33.2488 Y37.1452
G01 X33.3488 Y37.1703
G01 X33.4480 Y37.2060
G01 X33.5389 Y37.2490
G01 X33.6273 Y37.3020
G01 X33.7101 Y37.3634
G01 X33.7847 Y37.4309
G01 X33.8556 Y37.5089
G01 X33.9183 Y37.5938
G01 X33.9700 Y37.6801
G01 X34.0140 Y37.7732
G01 X34.0488 Y37.8703
G01 X34.0738 Y37.9702
G01 X34.0889 Y38.0721
G01 X34.0940 Y38.1750
G01 X34.0889 Y38.2780
G01 X34.0738 Y38.3799
G01 X34.0488 Y38.4798
G01 X34.0131 Y38.5791
G01 X33.9700 Y38.6700
G01 X33.9183 Y38.7563
G01 X33.8571 Y38.8392
G01 X33.7864 Y38.9175
G01 X33.7119 Y38.9851
G01 X33.6273 Y39.0481
G01 X33.5389 Y39.1011
G01 X33.4458 Y39.1451
G01 X33.3499 Y39.1795
G01 X33.2464 Y39.2053
G01 X33.1469 Y39.2200
G01 X33.0440 Y39.2250
G01 X32.5440 Y39.2250
G01 X32.4435 Y39.2202
G01 X32.3391 Y39.2049
G01 X32.2404 Y39.1802
G01 X32.1422 Y39.1451
G01 X32.0490 Y39.1011
G01 X31.9606 Y39.0481
G01 X31.8788 Y38.9875
G01 X31.8015 Y38.9175
G01 X31.7331 Y38.8421
G01 X31.6716 Y38.7594
G01 X31.6510 Y38.7253
G01 X28.4119 Y38.7253
G01 X27.1542 Y39.9830
G01 X27.1542 Y44.3821
G01 X27.1883 Y44.4027
G01 X27.2710 Y44.4642
G01 X27.3464 Y44.5326
G01 X27.4148 Y44.6080
G01 X27.4770 Y44.6917
G01 X27.5288 Y44.7779
G01 X27.5749 Y44.8755
G01 X27.6088 Y44.9703
G01 X27.6333 Y45.0678
G01 X27.6489 Y45.1721
G01 X27.6540 Y45.2750
G01 X27.6540 Y45.7763
G01 X27.6489 Y45.8780
G01 X27.6342 Y45.9775
G01 X27.6088 Y46.0798
G01 X27.5731 Y46.1791
G01 X27.5300 Y46.2700
G01 X27.4770 Y46.3584
G01 X27.4156 Y46.4412
G01 X27.3481 Y46.5157
G01 X27.2701 Y46.5867
G01 X27.1873 Y46.6481
G01 X27.1011 Y46.6999
G01 X27.0047 Y46.7456
G01 X26.9088 Y46.7798
G01 X26.8112 Y46.8043
G01 X26.7069 Y46.8200
G01 X26.6040 Y46.8250
G01 X26.5035 Y46.8202
G01 X26.3991 Y46.8049
G01 X26.2968 Y46.7791
G01 X26.2022 Y46.7451
G01 X26.1090 Y46.7011
G01 X26.0186 Y46.6467
G01 X25.9379 Y46.5867
G01 X25.8615 Y46.5175
G01 X25.7923 Y46.4412
G01 X25.7323 Y46.3604
G01 X25.6780 Y46.2700
G01 X25.6330 Y46.1746
G01 X25.5992 Y46.0798
G01 X25.5747 Y45.9823
G01 X25.5590 Y45.8780
G01 X25.5540 Y45.7763
G01 X25.5540 Y45.2750
G01 X25.5549 Y45.2542
G01 X22.9961 Y42.6953
G01 X19.6419 Y42.6953
G01 X18.7642 Y43.5730
G01 X18.7642 Y44.7171
G01 X20.1919 Y46.1448
G01 X21.3640 Y46.1448
G01 X21.4167 Y46.1473
G01 X21.4737 Y46.1559
G01 X21.5237 Y46.1685
G01 X21.5745 Y46.1867
G01 X21.6234 Y46.2098
G01 X21.6676 Y46.2362
G01 X21.7140 Y46.2705
G01 X21.7531 Y46.3060
G01 X22.4031 Y46.9560
G01 X22.4393 Y46.9960
G01 X22.4728 Y47.0414
G01 X22.4993 Y47.0857
G01 X22.5213 Y47.1322
G01 X22.5398 Y47.1830
G01 X22.5537 Y47.2377
G01 X22.5614 Y47.2899
G01 X22.5642 Y47.3450
G01 X22.5642 Y47.8021
G01 X22.5983 Y47.8227
G01 X22.6810 Y47.8842
G01 X22.7564 Y47.9526
G01 X22.8264 Y48.0299
G01 X22.8870 Y48.1117
G01 X22.9400 Y48.2001
G01 X22.9840 Y48.2932
G01 X23.0181 Y48.3881
G01 X23.0442 Y48.4926
G01 X23.0589 Y48.5921
G01 X23.0640 Y48.6938
G01 X23.0640 Y49.1963
G01 X23.0589 Y49.2980
G01 X23.0438 Y49.3999
G01 X23.0188 Y49.4998
G01 X22.9841 Y49.5968
G01 X22.9400 Y49.6900
G01 X22.8863 Y49.7794
G01 X22.8256 Y49.8612
G01 X22.7556 Y49.9384
G01 X22.6791 Y50.0075
G01 X22.5983 Y50.0674
G01 X22.5642 Y50.0880
G01 X22.5642 Y50.7475
G01 X22.5616 Y50.7990
G01 X22.5537 Y50.8524
G01 X22.5405 Y50.9048
G01 X22.5223 Y50.9556
G01 X22.4993 Y51.0044
G01 X22.4715 Y51.0507
G01 X22.4393 Y51.0941
G01 X22.4031 Y51.1341
G01 X21.8013 Y51.7358
G01 X21.7630 Y51.7704
G01 X21.7197 Y51.8026
G01 X21.6734 Y51.8303
G01 X21.6245 Y51.8534
G01 X21.5737 Y51.8716
G01 X21.5213 Y51.8847
G01 X21.4679 Y51.8927
G01 X21.4152 Y51.8953
G01 X18.8140 Y51.8953
G01 X18.7600 Y51.8927
G01 X18.7066 Y51.8847
G01 X18.6542 Y51.8716
G01 X18.6012 Y51.8524
G01 X18.5546 Y51.8303
G01 X18.5103 Y51.8039
G01 X18.4659 Y51.7712
G01 X18.4258 Y51.7350
G01 X18.3487 Y51.6579
G01 X18.3388 Y51.6519
G01 X18.2974 Y51.6212
G01 X18.2565 Y51.5841
G01 X17.0849 Y50.4126
G01 X17.0479 Y50.3716
G01 X17.0172 Y50.3302
G01 X17.0111 Y50.3203
G01 X15.7861 Y49.0953
G01 X10.8127 Y49.0953
G01 X10.7600 Y49.0927
G01 X10.7066 Y49.0847
G01 X10.6542 Y49.0716
G01 X10.6045 Y49.0539
G01 X10.5546 Y49.0303
G01 X10.5093 Y49.0033
G01 X10.4659 Y48.9712
G01 X10.4515 Y48.9583
G01 X10.4336 Y49.0080
G01 X10.3906 Y49.0989
G01 X10.3377 Y49.1874
G01 X10.2756 Y49.2712
G01 X10.2073 Y49.3466
G01 X10.1301 Y49.4167
G01 X10.0473 Y49.4781
G01 X9.9589 Y49.5311
G01 X9.8635 Y49.5760
G01 X9.7687 Y49.6099
G01 X9.6688 Y49.6349
G01 X9.5669 Y49.6500
G01 X9.4652 Y49.6550
G01 X8.9640 Y49.6550
G01 X8.8635 Y49.6502
G01 X8.7591 Y49.6349
G01 X8.6604 Y49.6102
G01 X8.5622 Y49.5751
G01 X8.4690 Y49.5311
G01 X8.3806 Y49.4781
G01 X8.2979 Y49.4167
G01 X8.2215 Y49.3475
G01 X8.1523 Y49.2712
G01 X8.0909 Y49.1884
G01 X8.0369 Y49.0978
G01 X7.9939 Y49.0069
G01 X7.9585 Y48.9075
G01 X7.9341 Y48.8099
G01 X7.9193 Y48.7104
G01 X7.9140 Y48.6075
G01 X7.9190 Y48.5021
G01 X7.9341 Y48.4002
G01 X7.9592 Y48.3003
G01 X7.9930 Y48.2055
G00 Z3.0000
G00 X5.0541 Y49.4350
G01 F60.00
G01 Z-0.1500
G01 F100.00
G01 X4.9200 Y49.6197
G01 X4.7586 Y49.7810
G01 X4.5739 Y49.9152
G01 X4.3706 Y50.0188
G01 X4.3640 Y50.0210
G01 X4.3640 Y49.5682
G01 X4.3983 Y49.5474
G01 X4.4810 Y49.4859
G01 X4.5564 Y49.4175
G01 X4.6264 Y49.3402
G01 X4.6870 Y49.2584
G01 X4.7400 Y49.1700
G01 X4.7840 Y49.0769
G01 X4.8180 Y48.9822
G01 X4.8200 Y48.9750
G01 X5.2345 Y48.9750
G01 X5.2283 Y49.0146
G01 X5.1577 Y49.2317
G01 X5.0541 Y49.4350
G00 Z3.0000
G00 X3.0540 Y49.9152
G01 F60.00
G01 Z-0.1500
G01 F100.00
G01 X2.8694 Y49.7810
G01 X2.7080 Y49.6197
G01 X2.5738 Y49.4350
G01 X2.4702 Y49.2317
G01 X2.3997 Y49.0146
G01 X2.3934 Y48.9750
G01 X2.8079 Y48.9750
G01 X2.8100 Y48.9822
G01 X2.8439 Y49.0769
G01 X2.8880 Y49.1700
G01 X2.9409 Y49.2584
G01 X3.0015 Y49.3402
G01 X3.0715 Y49.4175
G01 X3.1469 Y49.4859
G01 X3.2296 Y49.5474
G01 X3.2640 Y49.5682
G01 X3.2640 Y50.0210
G01 X3.2574 Y50.0188
G01 X3.0540 Y49.9152
G00 Z3.0000
G00 X2.5738 Y47.4151
G01 F60.00
G01 Z-0.1500
G01 F100.00
G01 X2.7080 Y47.2304
G01 X2.8694 Y47.0691
G01 X3.0540 Y46.9349
G01 X3.2574 Y46.8313
G01 X3.2640 Y46.8291
G01 X3.2640 Y47.2819
G01 X3.2296 Y47.3027
G01 X3.1469 Y47.3642
G01 X3.0715 Y47.4326
G01 X3.0015 Y47.5099
G01 X2.9409 Y47.5917
G01 X2.8880 Y47.6801
G01 X2.8439 Y47.7733
G01 X2.8100 Y47.8679
G01 X2.8079 Y47.8751
G01 X2.3934 Y47.8750
G01 X2.3997 Y47.8355
G01 X2.4702 Y47.6184
G01 X2.5738 Y47.4151
G00 Z3.0000
G00 X4.5739 Y46.9349
G01 F60.00
G01 Z-0.1500
G01 F100.00
G01 X4.7586 Y47.0691
G01 X4.9200 Y47.2304
G01 X5.0541 Y47.4151
G01 X5.1577 Y47.6184
G01 X5.2283 Y47.8355
G01 X5.2345 Y47.8751
G01 X4.8200 Y47.8750
G01 X4.8181 Y47.8681
G01 X4.7840 Y47.7732
G01 X4.7400 Y47.6801
G01 X4.6870 Y47.5917
G01 X4.6264 Y47.5099
G01 X4.5564 Y47.4326
G01 X4.4810 Y47.3642
G01 X4.3983 Y47.3027
G01 X4.3640 Y47.2819
G01 X4.3640 Y46.8291
G01 X4.3706 Y46.8313
G01 X4.5739 Y46.9349
G00 Z3.0000
G00 X5.6611 Y52.1948
G01 F60.00
G01 Z-0.1500
G01 F100.00
G01 X7.9933 Y52.1948
G01 X8.0392 Y52.0979
G01 X8.0909 Y52.0117
G01 X8.1523 Y51.9289
G01 X8.2233 Y51.8509
G01 X8.2979 Y51.7834
G01 X8.3786 Y51.7234
G01 X8.4690 Y51.6690
G01 X8.5644 Y51.6241
G01 X8.6593 Y51.5902
G01 X8.7567 Y51.5658
G01 X8.8635 Y51.5499
G01 X8.9640 Y51.5451
G01 X9.4664 Y51.5451
G01 X9.5669 Y51.5501
G01 X9.6664 Y51.5648
G01 X9.7676 Y51.5899
G01 X9.8680 Y51.6260
G01 X9.9589 Y51.6690
G01 X10.0473 Y51.7220
G01 X10.1319 Y51.7850
G01 X10.2064 Y51.8526
G01 X10.2740 Y51.9271
G01 X10.3383 Y52.0138
G01 X10.3900 Y52.1001
G01 X10.4340 Y52.1932
G01 X10.4694 Y52.2926
G01 X10.4938 Y52.3902
G01 X10.5088 Y52.4909
G01 X10.5139 Y52.5975
G01 X10.5089 Y52.6980
G01 X10.4940 Y52.7987
G01 X10.4684 Y52.9010
G01 X10.4345 Y52.9957
G01 X10.4212 Y53.0241
G01 X11.2031 Y53.8060
G01 X11.2385 Y53.8450
G01 X11.2728 Y53.8914
G01 X11.2993 Y53.9357
G01 X11.3223 Y53.9845
G01 X11.3412 Y54.0377
G01 X11.3537 Y54.0877
G01 X11.3613 Y54.1387
G01 X11.3642 Y54.1950
G01 X11.3642 Y59.3171
G01 X17.2419 Y65.1948
G01 X94.5861 Y65.1948
G01 X97.4637 Y62.3171
G01 X97.4637 Y44.1730
G01 X96.8858 Y43.5950
G01 X96.8427 Y43.5950
G01 X96.7423 Y43.5901
G01 X96.6379 Y43.5746
G01 X96.5392 Y43.5498
G01 X96.4444 Y43.5160
G01 X96.3490 Y43.4711
G01 X96.2586 Y43.4167
G01 X96.1779 Y43.3567
G01 X96.1024 Y43.2884
G01 X96.0315 Y43.2102
G01 X95.9716 Y43.1294
G01 X95.9510 Y43.0953
G01 X95.3719 Y43.0953
G01 X92.4997 Y45.9675
G01 X92.5176 Y46.0392
G01 X92.5299 Y46.1217
G01 X92.5340 Y46.2050
G01 X92.5301 Y46.2859
G01 X92.5171 Y46.3733
G01 X92.4973 Y46.4519
G01 X92.4702 Y46.5280
G01 X92.4324 Y46.6079
G01 X92.3907 Y46.6773
G01 X92.3410 Y46.7443
G01 X92.2850 Y46.8061
G01 X92.2251 Y46.8605
G01 X92.1541 Y46.9131
G01 X92.0847 Y46.9547
G01 X92.0115 Y46.9894
G01 X91.9330 Y47.0177
G01 X91.8498 Y47.0387
G01 X91.7661 Y47.0511
G01 X91.6840 Y47.0550
G01 X91.2840 Y47.0550
G01 X91.2019 Y47.0511
G01 X91.1181 Y47.0387
G01 X91.0396 Y47.0191
G01 X90.9564 Y46.9894
G01 X90.8833 Y46.9547
G01 X90.8117 Y46.9118
G01 X90.7447 Y46.8621
G01 X90.6847 Y46.8078
G01 X90.6254 Y46.7423
G01 X90.5772 Y46.6773
G01 X90.5356 Y46.6079
G01 X90.4978 Y46.5280
G01 X90.4706 Y46.4518
G01 X90.4503 Y46.3709
G01 X90.4381 Y46.2884
G01 X90.4340 Y46.2075
G01 X90.4384 Y46.1193
G01 X90.4503 Y46.0392
G01 X90.4706 Y45.9583
G01 X90.4987 Y45.8798
G01 X90.5332 Y45.8066
G01 X90.5786 Y45.7308
G01 X90.6269 Y45.6658
G01 X90.6847 Y45.6023
G01 X90.7447 Y45.5480
G01 X90.8097 Y45.4997
G01 X90.8812 Y45.4566
G01 X90.9587 Y45.4198
G01 X91.0384 Y45.3913
G01 X91.1181 Y45.3714
G01 X91.2019 Y45.3590
G01 X91.2840 Y45.3551
G01 X91.5558 Y45.3551
G01 X94.7549 Y42.1560
G01 X94.7968 Y42.1182
G01 X94.8383 Y42.0875
G01 X94.8825 Y42.0610
G01 X94.9334 Y42.0367
G01 X94.9842 Y42.0185
G01 X95.0342 Y42.0059
G01 X95.0900 Y41.9974
G01 X95.1440 Y41.9948
G01 X95.9510 Y41.9948
G01 X95.9716 Y41.9607
G01 X96.0331 Y41.8780
G01 X96.1015 Y41.8026
G01 X96.1769 Y41.7342
G01 X96.2627 Y41.6707
G01 X96.3490 Y41.6190
G01 X96.4237 Y41.5836
G01 X96.4237 Y40.1510
G01 X96.4168 Y40.1491
G01 X96.3199 Y40.1141
G01 X96.2290 Y40.0711
G01 X96.1406 Y40.0181
G01 X96.0579 Y39.9567
G01 X95.9833 Y39.8892
G01 X95.9123 Y39.8112
G01 X95.8496 Y39.7263
G01 X95.7980 Y39.6400
G01 X95.7539 Y39.5469
G01 X95.7185 Y39.4475
G01 X95.6941 Y39.3499
G01 X95.6792 Y39.2492
G01 X95.6740 Y39.1450
G01 X95.6793 Y39.0397
G01 X95.6941 Y38.9402
G01 X95.7185 Y38.8426
G01 X95.7539 Y38.7433
G01 X95.7980 Y38.6501
G01 X95.8523 Y38.5597
G01 X95.9123 Y38.4789
G01 X95.9798 Y38.4044
G01 X96.0560 Y38.3350
G01 X96.1427 Y38.2707
G01 X96.2290 Y38.2190
G01 X96.3222 Y38.1750
G01 X96.4215 Y38.1396
G01 X96.5191 Y38.1152
G01 X96.6198 Y38.1002
G01 X96.7240 Y38.0951
G01 X97.2264 Y38.0951
G01 X97.3269 Y38.1001
G01 X97.4264 Y38.1148
G01 X97.5299 Y38.1406
G01 X97.6257 Y38.1750
G01 X97.7167 Y38.2179
G01 X97.8073 Y38.2720
G01 X97.8901 Y38.3334
G01 X97.9647 Y38.4009
G01 X98.0356 Y38.4789
G01 X98.0983 Y38.5638
G01 X98.1500 Y38.6501
G01 X98.1940 Y38.7432
G01 X98.2294 Y38.8426
G01 X98.2538 Y38.9402
G01 X98.2686 Y39.0397
G01 X98.2740 Y39.1450
G01 X98.2691 Y39.2455
G01 X98.2533 Y39.3523
G01 X98.2288 Y39.4498
G01 X98.1940 Y39.5469
G01 X98.1500 Y39.6400
G01 X98.0970 Y39.7284
G01 X98.0356 Y39.8112
G01 X97.9664 Y39.8875
G01 X97.8901 Y39.9567
G01 X97.8093 Y40.0167
G01 X97.7189 Y40.0711
G01 X97.6280 Y40.1141
G01 X97.5311 Y40.1491
G01 X97.5242 Y40.1510
G01 X97.5242 Y41.5115
G01 X97.5500 Y41.5155
G01 X97.6476 Y41.5399
G01 X97.7469 Y41.5754
G01 X97.8411 Y41.6202
G01 X97.9273 Y41.6720
G01 X98.0091 Y41.7326
G01 X98.0864 Y41.8026
G01 X98.1571 Y41.8809
G01 X98.2170 Y41.9617
G01 X98.2688 Y42.0479
G01 X98.3136 Y42.1421
G01 X98.3494 Y42.2426
G01 X98.3738 Y42.3402
G01 X98.3889 Y42.4421
G01 X98.3939 Y42.5475
G01 X98.3889 Y42.6480
G01 X98.3740 Y42.7487
G01 X98.3480 Y42.8522
G01 X98.3140 Y42.9469
G01 X98.2706 Y43.0389
G01 X98.2163 Y43.1294
G01 X98.1556 Y43.2112
G01 X98.1094 Y43.2623
G01 X98.4039 Y43.5568
G01 X98.4393 Y43.5960
G01 X98.4708 Y43.6383
G01 X98.5004 Y43.6879
G01 X98.5223 Y43.7345
G01 X98.5398 Y43.7830
G01 X98.5537 Y43.8377
G01 X98.5618 Y43.8936
G01 X98.5642 Y43.9450
G01 X98.5642 Y62.5450
G01 X98.5614 Y62.6002
G01 X98.5537 Y62.6524
G01 X98.5405 Y62.7048
G01 X98.5223 Y62.7556
G01 X98.5004 Y62.8022
G01 X98.4701 Y62.8528
G01 X98.4393 Y62.8941
G01 X98.4031 Y62.9341
G01 X95.2022 Y66.1350
G01 X95.1630 Y66.1704
G01 X95.1217 Y66.2012
G01 X95.0712 Y66.2314
G01 X95.0245 Y66.2534
G01 X94.9737 Y66.2716
G01 X94.9213 Y66.2847
G01 X94.8703 Y66.2923
G01 X94.8140 Y66.2953
G01 X17.0140 Y66.2953
G01 X16.9600 Y66.2927
G01 X16.9090 Y66.2851
G01 X16.8519 Y66.2708
G01 X16.8034 Y66.2534
G01 X16.7546 Y66.2303
G01 X16.7063 Y66.2012
G01 X16.6649 Y66.1704
G01 X16.6249 Y66.1341
G01 X10.4249 Y59.9341
G01 X10.3871 Y59.8922
G01 X10.3565 Y59.8508
G01 X10.3293 Y59.8055
G01 X10.3056 Y59.7556
G01 X10.2868 Y59.7024
G01 X10.2743 Y59.6524
G01 X10.2667 Y59.6014
G01 X10.2637 Y59.5450
G01 X10.2637 Y54.4230
G01 X9.4848 Y53.6441
G01 X9.4640 Y53.6450
G01 X8.9640 Y53.6450
G01 X8.8635 Y53.6402
G01 X8.7591 Y53.6249
G01 X8.6604 Y53.6002
G01 X8.5599 Y53.5641
G01 X8.4690 Y53.5211
G01 X8.3817 Y53.4688
G01 X8.2969 Y53.4059
G01 X8.2224 Y53.3384
G01 X8.1832 Y53.2953
G01 X5.6611 Y53.2953
G01 X5.6150 Y53.3461
G01 X5.5551 Y53.4005
G01 X5.4862 Y53.4518
G01 X5.4147 Y53.4947
G01 X5.3415 Y53.5294
G01 X5.2595 Y53.5588
G01 X5.1798 Y53.5787
G01 X5.0948 Y53.5911
G01 X5.0140 Y53.5950
G01 X4.6127 Y53.5950
G01 X4.5307 Y53.5910
G01 X4.4506 Y53.5791
G01 X4.3672 Y53.5584
G01 X4.2864 Y53.5294
G01 X4.2133 Y53.4947
G01 X4.1438 Y53.4531
G01 X4.0747 Y53.4021
G01 X4.0112 Y53.3443
G01 X3.9569 Y53.2843
G01 X3.9086 Y53.2193
G01 X3.8643 Y53.1457
G01 X3.8287 Y53.0703
G01 X3.8006 Y52.9918
G01 X3.7803 Y52.9109
G01 X3.7681 Y52.8284
G01 X3.7640 Y52.7450
G01 X3.7681 Y52.6617
G01 X3.7803 Y52.5792
G01 X3.8006 Y52.4983
G01 X3.8287 Y52.4198
G01 X3.8643 Y52.3444
G01 X3.9072 Y52.2728
G01 X3.9569 Y52.2058
G01 X4.0129 Y52.1440
G01 X4.0747 Y52.0880
G01 X4.1417 Y52.0383
G01 X4.2133 Y51.9954
G01 X4.2887 Y51.9598
G01 X4.3672 Y51.9317
G01 X4.4481 Y51.9114
G01 X4.5307 Y51.8991
G01 X4.6140 Y51.8951
G01 X5.0140 Y51.8951
G01 X5.0997 Y51.8994
G01 X5.1798 Y51.9114
G01 X5.2607 Y51.9317
G01 X5.3393 Y51.9598
G01 X5.4147 Y51.9954
G01 X5.4862 Y52.0383
G01 X5.5532 Y52.0880
G01 X5.6150 Y52.1440
G01 X5.6611 Y52.1948
G00 Z3.0000
G00 X3.4551 Y53.2251
G01 F60.00
G01 Z-0.1500
G01 F100.00
G01 X3.3943 Y53.0379
G01 X3.3713 Y52.8931
G01 X3.3635 Y52.8435
G01 X3.3635 Y52.6466
G01 X3.3943 Y52.4522
G01 X3.4551 Y52.2650
G01 X3.5445 Y52.0896
G01 X3.6601 Y51.9304
G01 X3.7993 Y51.7912
G01 X3.9586 Y51.6755
G01 X4.1339 Y51.5862
G01 X4.3211 Y51.5253
G01 X4.5156 Y51.4945
G01 X5.1124 Y51.4945
G01 X5.3068 Y51.5253
G01 X5.4940 Y51.5862
G01 X5.6694 Y51.6755
G01 X5.7875 Y51.7613
G01 X5.7996 Y51.7692
G01 X5.8086 Y51.7728
G01 X5.8756 Y51.7925
G01 X5.8803 Y51.7936
G01 X5.8862 Y51.7944
G01 X7.6686 Y51.7943
G01 X7.7194 Y51.7850
G01 X7.7254 Y51.7833
G01 X7.7311 Y51.7809
G01 X7.7395 Y51.7757
G01 X7.7958 Y51.7323
G01 X7.8002 Y51.7283
G01 X7.8041 Y51.7238
G01 X7.8576 Y51.6501
G01 X8.0190 Y51.4887
G01 X8.2037 Y51.3545
G01 X8.4072 Y51.2508
G01 X8.6243 Y51.1803
G01 X8.8498 Y51.1445
G01 X9.5781 Y51.1445
G01 X9.8036 Y51.1803
G01 X10.0208 Y51.2508
G01 X10.2242 Y51.3545
G01 X10.4089 Y51.4887
G01 X10.5704 Y51.6501
G01 X10.7046 Y51.8348
G01 X10.8082 Y52.0382
G01 X10.8788 Y52.2554
G01 X10.9145 Y52.4809
G01 X10.9145 Y52.7092
G01 X10.8952 Y52.8307
G01 X10.8947 Y52.8364
G01 X10.8962 Y52.8894
G01 X10.8982 Y52.8991
G01 X10.9015 Y52.9071
G01 X10.9361 Y52.9706
G01 X10.9394 Y52.9755
G01 X10.9432 Y52.9801
G01 X11.5523 Y53.5891
G01 X11.6563 Y53.7448
G01 X11.7279 Y53.9178
G01 X11.7645 Y54.1014
G01 X11.7645 Y59.0793
G01 X11.7648 Y59.0846
G01 X11.7681 Y59.1146
G01 X11.7704 Y59.1229
G01 X11.7734 Y59.1296
G01 X11.8075 Y59.1919
G01 X11.8115 Y59.1979
G01 X11.8154 Y59.2023
G01 X17.3567 Y64.7436
G01 X17.3823 Y64.7646
G01 X17.3874 Y64.7680
G01 X17.3929 Y64.7708
G01 X17.3986 Y64.7728
G01 X17.4657 Y64.7925
G01 X17.4738 Y64.7942
G01 X17.4798 Y64.7945
G01 X94.3482 Y64.7945
G01 X94.3535 Y64.7943
G01 X94.3823 Y64.7911
G01 X94.3895 Y64.7894
G01 X94.3963 Y64.7867
G01 X94.4609 Y64.7515
G01 X94.4658 Y64.7483
G01 X94.4704 Y64.7444
G01 X95.3235 Y63.8912
G01 X95.3440 Y63.8653
G01 X95.3473 Y63.8600
G01 X95.3495 Y63.8555
G01 X95.3515 Y63.8496
G01 X95.3703 Y63.7823
G01 X95.3717 Y63.7750
G01 X95.3719 Y63.7651
G01 X95.3705 Y63.7565
G01 X95.3484 Y63.6850
G01 X95.3465 Y63.6804
G01 X95.3435 Y63.6750
G01 X95.3398 Y63.6700
G01 X95.3364 Y63.6664
G01 X95.2802 Y63.6189
G01 X95.2752 Y63.6152
G01 X95.2698 Y63.6121
G01 X95.2641 Y63.6098
G01 X95.2569 Y63.6079
G01 X95.1851 Y63.5986
G01 X95.1792 Y63.5982
G01 X95.1721 Y63.5986
G01 X95.1281 Y63.6056
G01 X94.8998 Y63.6056
G01 X94.6743 Y63.5698
G01 X94.4572 Y63.4993
G01 X94.2537 Y63.3956
G01 X94.0690 Y63.2614
G01 X93.9076 Y63.1000
G01 X93.7734 Y62.9153
G01 X93.7404 Y62.8506
G01 X93.7360 Y62.8434
G01 X93.6878 Y62.7899
G01 X93.6801 Y62.7836
G01 X93.6712 Y62.7789
G01 X93.5983 Y62.7573
G01 X93.5913 Y62.7559
G01 X93.5854 Y62.7556
G01 X90.3875 Y62.7556
G01 X90.3803 Y62.7561
G01 X90.3744 Y62.7573
G01 X90.3083 Y62.7753
G01 X90.3037 Y62.7772
G01 X90.2982 Y62.7802
G01 X90.2932 Y62.7839
G01 X90.2886 Y62.7881
G01 X90.2406 Y62.8389
G01 X90.2361 Y62.8444
G01 X90.2324 Y62.8505
G01 X90.2046 Y62.9053
G01 X90.0703 Y63.0900
G01 X89.9089 Y63.2514
G01 X89.7242 Y63.3856
G01 X89.5208 Y63.4893
G01 X89.3036 Y63.5598
G01 X89.0781 Y63.5956
G01 X88.3498 Y63.5956
G01 X88.1243 Y63.5598
G01 X87.9072 Y63.4893
G01 X87.7037 Y63.3856
G01 X87.5190 Y63.2514
G01 X87.3576 Y63.0900
G01 X87.2234 Y62.9053
G01 X87.1197 Y62.7019
G01 X87.0767 Y62.5695
G01 X87.0492 Y62.4847
G01 X87.0135 Y62.2592
G01 X87.0135 Y62.0309
G01 X87.0492 Y61.8054
G01 X87.1197 Y61.5883
G01 X87.2234 Y61.3848
G01 X87.3576 Y61.2001
G01 X87.5190 Y61.0387
G01 X87.7037 Y60.9045
G01 X87.9072 Y60.8008
G01 X88.1243 Y60.7303
G01 X88.3498 Y60.6945
G01 X89.0781 Y60.6945
G01 X89.3036 Y60.7303
G01 X89.5208 Y60.8008
G01 X89.7242 Y60.9045
G01 X89.8850 Y61.0213
G01 X89.8962 Y61.0287
G01 X89.9050 Y61.0325
G01 X89.9732 Y61.0525
G01 X89.9790 Y61.0539
G01 X89.9849 Y61.0545
G01 X93.5890 Y61.0544
G01 X93.5984 Y61.0528
G01 X93.6633 Y61.0352
G01 X93.6691 Y61.0329
G01 X93.6736 Y61.0306
G01 X93.6777 Y61.0278
G01 X93.6825 Y61.0237
G01 X93.7322 Y60.9712
G01 X93.7367 Y60.9657
G01 X93.7404 Y60.9595
G01 X93.7734 Y60.8948
G01 X93.9076 Y60.7101
G01 X94.0690 Y60.5487
G01 X94.2537 Y60.4145
G01 X94.4572 Y60.3108
G01 X94.6743 Y60.2403
G01 X94.8998 Y60.2045
G01 X95.1281 Y60.2045
G01 X95.3536 Y60.2403
G01 X95.5708 Y60.3108
G01 X95.7742 Y60.4145
G01 X95.9589 Y60.5487
G01 X96.1204 Y60.7101
G01 X96.2546 Y60.8948
G01 X96.3582 Y61.0982
G01 X96.4288 Y61.3154
G01 X96.4645 Y61.5409
G01 X96.4645 Y62.2692
G01 X96.4574 Y62.3142
G01 X96.4559 Y62.3496
G01 X96.4567 Y62.3571
G01 X96.4586 Y62.3643
G01 X96.4839 Y62.4321
G01 X96.4885 Y62.4409
G01 X96.4947 Y62.4486
G01 X96.5003 Y62.4535
G01 X96.5573 Y62.4961
G01 X96.5648 Y62.5005
G01 X96.5717 Y62.5032
G01 X96.5814 Y62.5051
G01 X96.6548 Y62.5103
G01 X96.6610 Y62.5101
G01 X96.6672 Y62.5091
G01 X96.6731 Y62.5073
G01 X96.6788 Y62.5048
G01 X96.7422 Y62.4702
G01 X96.7472 Y62.4669
G01 X96.7509 Y62.4639
G01 X97.0125 Y62.2023
G01 X97.0327 Y62.1777
G01 X97.0381 Y62.1695
G01 X97.0414 Y62.1616
G01 X97.0618 Y62.0922
G01 X97.0630 Y62.0864
G01 X97.0635 Y62.0793
G01 X97.0635 Y49.2138
G01 X97.0631 Y49.2077
G01 X97.0620 Y49.2016
G01 X97.0435 Y49.1352
G01 X97.0398 Y49.1263
G01 X97.0366 Y49.1211
G01 X97.0337 Y49.1173
G01 X97.0295 Y49.1129
G01 X96.9771 Y49.0649
G01 X96.9722 Y49.0611
G01 X96.9668 Y49.0579
G01 X96.9599 Y49.0551
G01 X96.9539 Y49.0535
G01 X96.8826 Y49.0411
G01 X96.8765 Y49.0406
G01 X96.8703 Y49.0409
G01 X96.8629 Y49.0422
G01 X96.8570 Y49.0441
G01 X96.7893 Y49.0728
G01 X96.7818 Y49.0772
G01 X96.7761 Y49.0820
G01 X96.7697 Y49.0896
G01 X96.7303 Y49.1473
G01 X96.7272 Y49.1524
G01 X96.7240 Y49.1600
G01 X96.7029 Y49.2251
G01 X96.6135 Y49.4005
G01 X96.4978 Y49.5597
G01 X96.3572 Y49.7003
G01 X96.3519 Y49.7051
G01 X96.3242 Y49.7370
G01 X96.3198 Y49.7441
G01 X96.3165 Y49.7518
G01 X96.2954 Y49.8246
G01 X96.2945 Y49.8341
G01 X96.2945 Y50.7714
G01 X96.2948 Y50.7773
G01 X96.2959 Y50.7831
G01 X96.3107 Y50.8439
G01 X96.3134 Y50.8504
G01 X96.3582 Y50.9382
G01 X96.4288 Y51.1554
G01 X96.4645 Y51.3809
G01 X96.4645 Y52.1092
G01 X96.4288 Y52.3347
G01 X96.3582 Y52.5519
G01 X96.2546 Y52.7553
G01 X96.1203 Y52.9400
G01 X95.9589 Y53.1014
G01 X95.7742 Y53.2356
G01 X95.5708 Y53.3393
G01 X95.3536 Y53.4098
G01 X95.1281 Y53.4456
G01 X94.8998 Y53.4456
G01 X94.6743 Y53.4098
G01 X94.4572 Y53.3393
G01 X94.2537 Y53.2356
G01 X94.0690 Y53.1014
G01 X93.9076 Y52.9400
G01 X93.7734 Y52.7553
G01 X93.6652 Y52.5429
G01 X93.6605 Y52.5357
G01 X93.6544 Y52.5293
G01 X93.6471 Y52.5194
G01 X93.6386 Y52.5043
G01 X93.6326 Y52.4968
G01 X93.6230 Y52.4873
G01 X93.6181 Y52.4834
G01 X92.7903 Y51.6556
G01 X92.7647 Y51.6348
G01 X92.7606 Y51.6321
G01 X92.7551 Y51.6293
G01 X92.7493 Y51.6273
G01 X92.6823 Y51.6076
G01 X92.6765 Y51.6062
G01 X92.6682 Y51.6056
G01 X92.0712 Y51.6056
G01 X92.0651 Y51.6059
G01 X92.0590 Y51.6071
G01 X91.9926 Y51.6255
G01 X91.9870 Y51.6276
G01 X91.9806 Y51.6311
G01 X91.9756 Y51.6346
G01 X91.9712 Y51.6387
G01 X91.9207 Y51.6939
G01 X91.9172 Y51.6990
G01 X91.9143 Y51.7045
G01 X91.9125 Y51.7091
G01 X91.9109 Y51.7151
G01 X91.8984 Y51.7876
G01 X91.8981 Y51.7963
G01 X91.8996 Y51.8061
G01 X91.9020 Y51.8131
G01 X91.9297 Y51.8786
G01 X91.9326 Y51.8841
G01 X91.9361 Y51.8892
G01 X91.9412 Y51.8947
G01 X91.9460 Y51.8986
G01 X92.0057 Y51.9394
G01 X92.0109 Y51.9424
G01 X92.0175 Y51.9450
G01 X92.1906 Y52.0013
G01 X92.3939 Y52.1049
G01 X92.5786 Y52.2391
G01 X92.7400 Y52.4004
G01 X92.8741 Y52.5851
G01 X92.9777 Y52.7884
G01 X92.9799 Y52.7951
G01 X92.5271 Y52.7950
G01 X92.5063 Y52.7607
G01 X92.4464 Y52.6799
G01 X92.3756 Y52.6017
G01 X92.3001 Y52.5334
G01 X92.2193 Y52.4734
G01 X92.1300 Y52.4196
G01 X92.0357 Y52.3750
G01 X91.9364 Y52.3396
G01 X91.8388 Y52.3152
G01 X91.7393 Y52.3004
G01 X91.6340 Y52.2951
G01 X91.1340 Y52.2951
G01 X91.0335 Y52.2999
G01 X90.9291 Y52.3152
G01 X90.8304 Y52.3399
G01 X90.7322 Y52.3750
G01 X90.6390 Y52.4190
G01 X90.5506 Y52.4720
G01 X90.4688 Y52.5326
G01 X90.3915 Y52.6026
G01 X90.3231 Y52.6780
G01 X90.2616 Y52.7607
G01 X90.2409 Y52.7951
G01 X89.7881 Y52.7950
G01 X89.7902 Y52.7884
G01 X89.8938 Y52.5851
G01 X90.0280 Y52.4004
G01 X90.1894 Y52.2391
G01 X90.3740 Y52.1049
G01 X90.5774 Y52.0013
G01 X90.7505 Y51.9450
G01 X90.7562 Y51.9428
G01 X90.7627 Y51.9392
G01 X90.8191 Y51.9017
G01 X90.8247 Y51.8972
G01 X90.8303 Y51.8909
G01 X90.8354 Y51.8826
G01 X90.8649 Y51.8180
G01 X90.8675 Y51.8110
G01 X90.8690 Y51.8037
G01 X90.8694 Y51.7963
G01 X90.8689 Y51.7901
G01 X90.8588 Y51.7197
G01 X90.8574 Y51.7137
G01 X90.8552 Y51.7078
G01 X90.8517 Y51.7013
G01 X90.8473 Y51.6953
G01 X90.8007 Y51.6416
G01 X90.7963 Y51.6372
G01 X90.7913 Y51.6335
G01 X90.7859 Y51.6304
G01 X90.7790 Y51.6276
G01 X90.7108 Y51.6076
G01 X90.7038 Y51.6061
G01 X90.6967 Y51.6056
G01 X84.8304 Y51.6056
G01 X84.6467 Y51.5690
G01 X84.4737 Y51.4974
G01 X84.3181 Y51.3934
G01 X82.0085 Y49.0838
G01 X82.0032 Y49.0792
G01 X81.9625 Y49.0513
G01 X81.9571 Y49.0483
G01 X81.9514 Y49.0459
G01 X81.9417 Y49.0437
G01 X81.8689 Y49.0344
G01 X81.8641 Y49.0344
G01 X81.8582 Y49.0349
G01 X81.7281 Y49.0556
G01 X81.4998 Y49.0556
G01 X81.2743 Y49.0198
G01 X81.0572 Y48.9493
G01 X80.8537 Y48.8456
G01 X80.6690 Y48.7114
G01 X80.5076 Y48.5500
G01 X80.3807 Y48.3754
G01 X80.3760 Y48.3703
G01 X80.3409 Y48.3372
G01 X80.3349 Y48.3328
G01 X80.3272 Y48.3289
G01 X80.2543 Y48.3073
G01 X80.2485 Y48.3061
G01 X80.2425 Y48.3056
G01 X79.5854 Y48.3056
G01 X79.5785 Y48.3062
G01 X79.5324 Y48.3149
G01 X79.5240 Y48.3172
G01 X79.5184 Y48.3197
G01 X79.5121 Y48.3237
G01 X79.4558 Y48.3671
G01 X79.4496 Y48.3727
G01 X79.4458 Y48.3773
G01 X79.3203 Y48.5500
G01 X79.1589 Y48.7114
G01 X78.9742 Y48.8456
G01 X78.7708 Y48.9493
G01 X78.5536 Y49.0198
G01 X78.3281 Y49.0556
G01 X78.0998 Y49.0556
G01 X77.8743 Y49.0198
G01 X77.6572 Y48.9493
G01 X77.4537 Y48.8456
G01 X77.2690 Y48.7114
G01 X77.1076 Y48.5500
G01 X76.9734 Y48.3653
G01 X76.8697 Y48.1618
G01 X76.7992 Y47.9447
G01 X76.7635 Y47.7192
G01 X76.7635 Y46.9909
G01 X76.7992 Y46.7654
G01 X76.8697 Y46.5483
G01 X76.9734 Y46.3448
G01 X77.1076 Y46.1601
G01 X77.2134 Y46.0542
G01 X77.2356 Y46.0266
G01 X77.2392 Y46.0202
G01 X77.2414 Y46.0145
G01 X77.2614 Y45.9462
G01 X77.2628 Y45.9405
G01 X77.2635 Y45.9322
G01 X77.2635 Y44.0108
G01 X77.2632 Y44.0055
G01 X77.2596 Y43.9743
G01 X77.2576 Y43.9672
G01 X77.2545 Y43.9605
G01 X77.2205 Y43.8982
G01 X77.2172 Y43.8932
G01 X77.2133 Y43.8886
G01 X75.9412 Y42.6165
G01 X75.9156 Y42.5955
G01 X75.9106 Y42.5921
G01 X75.9051 Y42.5893
G01 X75.8993 Y42.5873
G01 X75.8288 Y42.5667
G01 X75.8241 Y42.5659
G01 X75.8182 Y42.5656
G01 X75.2469 Y42.5656
G01 X75.2195 Y42.5678
G01 X75.2056 Y42.5707
G01 X75.1976 Y42.5739
G01 X75.1687 Y42.5897
G01 X75.1393 Y42.6043
G01 X75.1313 Y42.6096
G01 X75.1255 Y42.6148
G01 X75.0189 Y42.7214
G01 X74.9805 Y42.7493
G01 X74.9659 Y42.7628
G01 X74.9597 Y42.7702
G01 X74.9550 Y42.7783
G01 X74.9448 Y42.7896
G01 X74.9393 Y42.7977
G01 X74.9355 Y42.8066
G01 X74.9311 Y42.8237
G01 X74.9224 Y42.8404
G01 X74.9202 Y42.8463
G01 X74.9191 Y42.8511
G01 X74.9182 Y42.8597
G01 X74.9189 Y42.8708
G01 X74.9168 Y42.8791
G01 X74.9159 Y42.8864
G01 X74.9159 Y42.8926
G01 X74.9167 Y42.8988
G01 X74.9179 Y42.9036
G01 X74.9231 Y42.9192
G01 X74.9246 Y42.9368
G01 X74.9269 Y42.9464
G01 X74.9311 Y42.9554
G01 X74.9383 Y42.9654
G01 X74.9420 Y42.9758
G01 X74.9462 Y42.9834
G01 X74.9500 Y42.9883
G01 X74.9534 Y42.9919
G01 X74.9680 Y43.0039
G01 X74.9788 Y43.0177
G01 X74.9837 Y43.0228
G01 X75.0189 Y43.0487
G01 X75.1804 Y43.2101
G01 X75.3146 Y43.3948
G01 X75.4182 Y43.5982
G01 X75.4888 Y43.8154
G01 X75.5245 Y44.0409
G01 X75.5245 Y44.2692
G01 X75.4888 Y44.4947
G01 X75.4182 Y44.7119
G01 X75.3146 Y44.9153
G01 X75.1803 Y45.1000
G01 X75.0189 Y45.2614
G01 X74.8444 Y45.3883
G01 X74.8392 Y45.3930
G01 X74.8070 Y45.4272
G01 X74.8011 Y45.4352
G01 X74.7969 Y45.4442
G01 X74.7754 Y45.5182
G01 X74.7745 Y45.5277
G01 X74.7745 Y48.6287
G01 X74.7379 Y48.8123
G01 X74.6663 Y48.9853
G01 X74.5623 Y49.1410
G01 X74.5513 Y49.1523
G01 X74.5322 Y49.1763
G01 X74.5281 Y49.1826
G01 X74.5247 Y49.1906
G01 X74.5049 Y49.2615
G01 X74.5036 Y49.2689
G01 X74.5035 Y49.2763
G01 X74.5040 Y49.2813
G01 X74.5053 Y49.2873
G01 X74.5263 Y49.3553
G01 X74.5290 Y49.3622
G01 X74.5320 Y49.3676
G01 X74.5357 Y49.3726
G01 X74.5409 Y49.3779
G01 X74.5963 Y49.4245
G01 X74.6013 Y49.4281
G01 X74.6057 Y49.4305
G01 X74.6114 Y49.4328
G01 X74.6174 Y49.4344
G01 X74.6737 Y49.4418
G01 X74.6815 Y49.4440
G01 X74.6888 Y49.4449
G01 X74.6978 Y49.4445
G01 X74.9281 Y49.4445
G01 X75.1536 Y49.4803
G01 X75.3708 Y49.5508
G01 X75.5742 Y49.6545
G01 X75.7589 Y49.7887
G01 X75.9204 Y49.9501
G01 X75.9441 Y49.9827
G01 X75.9598 Y50.0010
G01 X75.9641 Y50.0054
G01 X75.9679 Y50.0085
G01 X75.9731 Y50.0118
G01 X76.0371 Y50.0456
G01 X76.0464 Y50.0491
G01 X76.0549 Y50.0506
G01 X76.0636 Y50.0506
G01 X76.1369 Y50.0442
G01 X76.1418 Y50.0432
G01 X76.1477 Y50.0412
G01 X76.1533 Y50.0385
G01 X76.1585 Y50.0352
G01 X76.2148 Y49.9918
G01 X76.2193 Y49.9879
G01 X76.2240 Y49.9825
G01 X76.2476 Y49.9501
G01 X76.4090 Y49.7887
G01 X76.5937 Y49.6545
G01 X76.7972 Y49.5508
G01 X77.0143 Y49.4803
G01 X77.2398 Y49.4445
G01 X77.4681 Y49.4445
G01 X77.6936 Y49.4803
G01 X77.9108 Y49.5508
G01 X78.1142 Y49.6545
G01 X78.2989 Y49.7887
G01 X78.4604 Y49.9501
G01 X78.5946 Y50.1348
G01 X78.6384 Y50.2208
G01 X78.6495 Y50.2393
G01 X78.6525 Y50.2433
G01 X78.6559 Y50.2471
G01 X78.7169 Y50.2964
G01 X78.7220 Y50.2995
G01 X78.7292 Y50.3027
G01 X78.8849 Y50.4067
G01 X80.3884 Y51.9103
G01 X80.3929 Y51.9143
G01 X80.3978 Y51.9177
G01 X80.4583 Y51.9523
G01 X80.4629 Y51.9542
G01 X80.4689 Y51.9559
G01 X80.4751 Y51.9569
G01 X80.4801 Y51.9572
G01 X80.5512 Y51.9551
G01 X80.5583 Y51.9544
G01 X80.5652 Y51.9527
G01 X80.6343 Y51.9303
G01 X80.8598 Y51.8945
G01 X81.5881 Y51.8945
G01 X81.8136 Y51.9303
G01 X82.0308 Y52.0008
G01 X82.2342 Y52.1045
G01 X82.4189 Y52.2387
G01 X82.5804 Y52.4001
G01 X82.7146 Y52.5848
G01 X82.8182 Y52.7882
G01 X82.8888 Y53.0054
G01 X82.9245 Y53.2309
G01 X82.9245 Y53.4592
G01 X82.8888 Y53.6847
G01 X82.8182 Y53.9019
G01 X82.7146 Y54.1053
G01 X82.5803 Y54.2900
G01 X82.4189 Y54.4514
G01 X82.2342 Y54.5856
G01 X82.0308 Y54.6893
G01 X81.8136 Y54.7598
G01 X81.5881 Y54.7956
G01 X80.8598 Y54.7956
G01 X80.6343 Y54.7598
G01 X80.4172 Y54.6893
G01 X80.2137 Y54.5856
G01 X80.0290 Y54.4514
G01 X79.8676 Y54.2900
G01 X79.7334 Y54.1053
G01 X79.6297 Y53.9018
G01 X79.6129 Y53.8500
G01 X79.6102 Y53.8435
G01 X79.5777 Y53.7900
G01 X79.5721 Y53.7824
G01 X78.3995 Y52.6098
G01 X78.3953 Y52.6060
G01 X78.3677 Y52.5850
G01 X78.3615 Y52.5810
G01 X78.3558 Y52.5784
G01 X78.3500 Y52.5764
G01 X78.2783 Y52.5598
G01 X78.2721 Y52.5591
G01 X78.2659 Y52.5591
G01 X78.2598 Y52.5600
G01 X78.2538 Y52.5615
G01 X78.1868 Y52.5854
G01 X78.1802 Y52.5883
G01 X78.1742 Y52.5920
G01 X78.1142 Y52.6356
G01 X77.9108 Y52.7393
G01 X77.6936 Y52.8098
G01 X77.4681 Y52.8456
G01 X77.2398 Y52.8456
G01 X77.0143 Y52.8098
G01 X76.7972 Y52.7393
G01 X76.5937 Y52.6356
G01 X76.4090 Y52.5014
G01 X76.2476 Y52.3400
G01 X76.2230 Y52.3063
G01 X76.2074 Y52.2882
G01 X76.2020 Y52.2831
G01 X76.1938 Y52.2777
G01 X76.1286 Y52.2434
G01 X76.1227 Y52.2413
G01 X76.1167 Y52.2399
G01 X76.1105 Y52.2393
G01 X76.1043 Y52.2395
G01 X76.0310 Y52.2459
G01 X76.0262 Y52.2469
G01 X76.0203 Y52.2489
G01 X76.0147 Y52.2516
G01 X76.0105 Y52.2542
G01 X75.9531 Y52.2983
G01 X75.9486 Y52.3022
G01 X75.9439 Y52.3076
G01 X75.9204 Y52.3400
G01 X75.7589 Y52.5014
G01 X75.5742 Y52.6356
G01 X75.3708 Y52.7393
G01 X75.1536 Y52.8098
G01 X74.9281 Y52.8456
G01 X74.8534 Y52.8456
G01 X74.8231 Y52.8487
G01 X74.8170 Y52.8497
G01 X74.8100 Y52.8519
G01 X74.8044 Y52.8545
G01 X74.7431 Y52.8880
G01 X74.7362 Y52.8926
G01 X74.7317 Y52.8965
G01 X73.3675 Y54.2608
G01 X73.3630 Y54.2665
G01 X73.3358 Y54.3070
G01 X73.3322 Y54.3136
G01 X73.3297 Y54.3207
G01 X73.3283 Y54.3282
G01 X73.3201 Y54.4000
G01 X73.3201 Y54.4062
G01 X73.3206 Y54.4112
G01 X73.3220 Y54.4172
G01 X73.3236 Y54.4219
G01 X73.3565 Y54.4891
G01 X73.3605 Y54.4955
G01 X73.3653 Y54.5011
G01 X73.3689 Y54.5045
G01 X73.3740 Y54.5081
G01 X73.4359 Y54.5455
G01 X73.4450 Y54.5495
G01 X73.4534 Y54.5515
G01 X73.4621 Y54.5520
G01 X73.5319 Y54.5500
G01 X73.5379 Y54.5495
G01 X73.5460 Y54.5476
G01 X73.5993 Y54.5303
G01 X73.8248 Y54.4945
G01 X74.0531 Y54.4945
G01 X74.2786 Y54.5303
G01 X74.4958 Y54.6008
G01 X74.6992 Y54.7045
G01 X74.8839 Y54.8387
G01 X75.0454 Y55.0001
G01 X75.0700 Y55.0338
G01 X75.0856 Y55.0519
G01 X75.0900 Y55.0562
G01 X75.0981 Y55.0618
G01 X75.1621 Y55.0956
G01 X75.1678 Y55.0980
G01 X75.1726 Y55.0994
G01 X75.1824 Y55.1008
G01 X75.1886 Y55.1006
G01 X75.2607 Y55.0944
G01 X75.2668 Y55.0932
G01 X75.2715 Y55.0917
G01 X75.2772 Y55.0891
G01 X75.2815 Y55.0866
G01 X75.3398 Y55.0418
G01 X75.3443 Y55.0379
G01 X75.3490 Y55.0325
G01 X75.3726 Y55.0001
G01 X75.5340 Y54.8387
G01 X75.7187 Y54.7045
G01 X75.9222 Y54.6008
G01 X76.1393 Y54.5303
G01 X76.3648 Y54.4945
G01 X76.5931 Y54.4945
G01 X76.8186 Y54.5303
G01 X77.0358 Y54.6008
G01 X77.2392 Y54.7045
G01 X77.4239 Y54.8387
G01 X77.5854 Y55.0001
G01 X77.7122 Y55.1747
G01 X77.7170 Y55.1798
G01 X77.7511 Y55.2121
G01 X77.7560 Y55.2159
G01 X77.7624 Y55.2197
G01 X77.7705 Y55.2228
G01 X77.8375 Y55.2425
G01 X77.8433 Y55.2439
G01 X77.8492 Y55.2445
G01 X78.4226 Y55.2446
G01 X78.6062 Y55.2811
G01 X78.7792 Y55.3527
G01 X78.9349 Y55.4567
G01 X79.2247 Y55.7463
G01 X79.2493 Y55.7660
G01 X79.2606 Y55.7729
G01 X79.2663 Y55.7756
G01 X79.2735 Y55.7780
G01 X79.3029 Y55.7844
G01 X79.3318 Y55.7928
G01 X79.3388 Y55.7942
G01 X79.3448 Y55.7945
G01 X79.8011 Y55.7945
G01 X79.8340 Y55.7913
G01 X79.8436 Y55.7891
G01 X79.8514 Y55.7856
G01 X79.9127 Y55.7521
G01 X79.9197 Y55.7475
G01 X79.9241 Y55.7436
G01 X80.0290 Y55.6387
G01 X80.2137 Y55.5045
G01 X80.4172 Y55.4008
G01 X80.6343 Y55.3303
G01 X80.8598 Y55.2945
G01 X81.5881 Y55.2945
G01 X81.8136 Y55.3303
G01 X82.0308 Y55.4008
G01 X82.2342 Y55.5045
G01 X82.4189 Y55.6387
G01 X82.5804 Y55.8001
G01 X82.7146 Y55.9848
G01 X82.8182 Y56.1882
G01 X82.8888 Y56.4054
G01 X82.9245 Y56.6309
G01 X82.9245 Y56.8592
G01 X82.8888 Y57.0847
G01 X82.8182 Y57.3019
G01 X82.7146 Y57.5053
G01 X82.5803 Y57.6900
G01 X82.4189 Y57.8514
G01 X82.2342 Y57.9856
G01 X82.0308 Y58.0893
G01 X81.8136 Y58.1598
G01 X81.5881 Y58.1956
G01 X80.8598 Y58.1956
G01 X80.6343 Y58.1598
G01 X80.4172 Y58.0893
G01 X80.2137 Y57.9856
G01 X80.0290 Y57.8514
G01 X79.9232 Y57.7456
G01 X79.8975 Y57.7248
G01 X79.8913 Y57.7209
G01 X79.8834 Y57.7176
G01 X79.8129 Y57.6970
G01 X79.8070 Y57.6959
G01 X79.8011 Y57.6956
G01 X78.7854 Y57.6956
G01 X78.6017 Y57.6590
G01 X78.4287 Y57.5874
G01 X78.2731 Y57.4834
G01 X77.9862 Y57.1965
G01 X77.9822 Y57.1929
G01 X77.9597 Y57.1748
G01 X77.9545 Y57.1715
G01 X77.9490 Y57.1689
G01 X77.8761 Y57.1473
G01 X77.8703 Y57.1461
G01 X77.8644 Y57.1456
G01 X77.8469 Y57.1458
G01 X77.8083 Y57.1513
G01 X77.8022 Y57.1527
G01 X77.7879 Y57.1576
G01 X77.7834 Y57.1597
G01 X77.7781 Y57.1629
G01 X77.7542 Y57.1813
G01 X77.7298 Y57.1970
G01 X77.7240 Y57.2016
G01 X77.7197 Y57.2061
G01 X77.7157 Y57.2116
G01 X77.7108 Y57.2173
G01 X77.5853 Y57.3900
G01 X77.4239 Y57.5514
G01 X77.2392 Y57.6856
G01 X77.0358 Y57.7893
G01 X76.8186 Y57.8598
G01 X76.5931 Y57.8956
G01 X76.3648 Y57.8956
G01 X76.1393 Y57.8598
G01 X75.9222 Y57.7893
G01 X75.7187 Y57.6856
G01 X75.5340 Y57.5514
G01 X75.3726 Y57.3900
G01 X75.3480 Y57.3563
G01 X75.3315 Y57.3373
G01 X75.3270 Y57.3331
G01 X75.3230 Y57.3302
G01 X75.2558 Y57.2945
G01 X75.2501 Y57.2921
G01 X75.2441 Y57.2904
G01 X75.2380 Y57.2895
G01 X75.2306 Y57.2894
G01 X75.1597 Y57.2954
G01 X75.1536 Y57.2964
G01 X75.1476 Y57.2980
G01 X75.1419 Y57.3004
G01 X75.1365 Y57.3035
G01 X75.0745 Y57.3514
G01 X75.0689 Y57.3576
G01 X75.0454 Y57.3900
G01 X74.8839 Y57.5514
G01 X74.6992 Y57.6856
G01 X74.4958 Y57.7893
G01 X74.2786 Y57.8598
G01 X74.0531 Y57.8956
G01 X73.8248 Y57.8956
G01 X73.7011 Y57.8760
G01 X73.6941 Y57.8757
G01 X73.6471 Y57.8771
G01 X73.6373 Y57.8786
G01 X73.6280 Y57.8820
G01 X73.5604 Y57.9191
G01 X73.5531 Y57.9251
G01 X71.5949 Y59.8834
G01 X71.4392 Y59.9874
G01 X71.2662 Y60.0590
G01 X71.0826 Y60.0956
G01 X62.2275 Y60.0956
G01 X62.2177 Y60.0965
G01 X62.1703 Y60.1059
G01 X62.1644 Y60.1075
G01 X62.0396 Y60.1590
G01 X61.8560 Y60.1956
G01 X59.5119 Y60.1956
G01 X59.3283 Y60.1590
G01 X59.2047 Y60.1079
G01 X59.1977 Y60.1059
G01 X59.1466 Y60.0959
G01 X59.1404 Y60.0956
G01 X58.5204 Y60.0956
G01 X58.3367 Y60.0590
G01 X58.1637 Y59.9874
G01 X58.0081 Y59.8834
G01 X56.8757 Y58.7510
G01 X56.7717 Y58.5953
G01 X56.7000 Y58.4223
G01 X56.6635 Y58.2387
G01 X56.6635 Y55.0514
G01 X56.7000 Y54.8678
G01 X56.7698 Y54.6993
G01 X56.7717 Y54.6948
G01 X56.8757 Y54.5391
G01 X58.4681 Y52.9467
G01 X58.6237 Y52.8427
G01 X58.7967 Y52.7711
G01 X58.9804 Y52.7345
G01 X60.6682 Y52.7345
G01 X60.6791 Y52.7342
G01 X60.6851 Y52.7334
G01 X60.6910 Y52.7318
G01 X60.7579 Y52.7080
G01 X60.7644 Y52.7051
G01 X60.7705 Y52.7013
G01 X60.8886 Y52.6155
G01 X61.0639 Y52.5262
G01 X61.2511 Y52.4653
G01 X61.4456 Y52.4345
G01 X62.0424 Y52.4345
G01 X62.2368 Y52.4653
G01 X62.4240 Y52.5262
G01 X62.5994 Y52.6155
G01 X62.7586 Y52.7312
G01 X62.8978 Y52.8704
G01 X63.0135 Y53.0296
G01 X63.1029 Y53.2050
G01 X63.1637 Y53.3922
G01 X63.1945 Y53.5866
G01 X63.1945 Y53.7835
G01 X63.1637 Y53.9779
G01 X63.1029 Y54.1651
G01 X63.0135 Y54.3405
G01 X62.8978 Y54.4997
G01 X62.7586 Y54.6389
G01 X62.5994 Y54.7546
G01 X62.4240 Y54.8439
G01 X62.2368 Y54.9048
G01 X62.0424 Y54.9356
G01 X61.4456 Y54.9356
G01 X61.2511 Y54.9048
G01 X61.0639 Y54.8439
G01 X60.8886 Y54.7546
G01 X60.7705 Y54.6688
G01 X60.7583 Y54.6609
G01 X60.7494 Y54.6573
G01 X60.6823 Y54.6376
G01 X60.6730 Y54.6358
G01 X59.5384 Y54.6356
G01 X59.5056 Y54.6390
G01 X59.5008 Y54.6400
G01 X59.4950 Y54.6419
G01 X59.4894 Y54.6445
G01 X59.4281 Y54.6780
G01 X59.4212 Y54.6826
G01 X59.4167 Y54.6865
G01 X58.6145 Y55.4888
G01 X58.5937 Y55.5144
G01 X58.5904 Y55.5195
G01 X58.5883 Y55.5239
G01 X58.5862 Y55.5297
G01 X58.5662 Y55.5979
G01 X58.5648 Y55.6049
G01 X58.5645 Y55.6108
G01 X58.5645 Y57.6806
G01 X58.5679 Y57.7134
G01 X58.5689 Y57.7182
G01 X58.5708 Y57.7240
G01 X58.5734 Y57.7296
G01 X58.6087 Y57.7940
G01 X58.6122 Y57.7988
G01 X58.6154 Y57.8023
G01 X58.8085 Y57.9953
G01 X58.8157 Y58.0007
G01 X58.8642 Y58.0306
G01 X58.8708 Y58.0340
G01 X58.8802 Y58.0370
G01 X58.8887 Y58.0381
G01 X58.9598 Y58.0406
G01 X58.9672 Y58.0401
G01 X58.9733 Y58.0389
G01 X58.9792 Y58.0369
G01 X58.9848 Y58.0342
G01 X59.0470 Y57.9973
G01 X59.0548 Y57.9912
G01 X59.0606 Y57.9847
G01 X59.0651 Y57.9773
G01 X59.0979 Y57.9115
G01 X59.0999 Y57.9057
G01 X59.1012 Y57.8997
G01 X59.1017 Y57.8936
G01 X59.1014 Y57.8874
G01 X59.0945 Y57.8195
G01 X59.0924 Y57.8095
G01 X59.0192 Y57.5847
G01 X58.9835 Y57.3592
G01 X58.9835 Y57.1309
G01 X59.0192 Y56.9054
G01 X59.0897 Y56.6883
G01 X59.1934 Y56.4848
G01 X59.3276 Y56.3001
G01 X59.4890 Y56.1387
G01 X59.6737 Y56.0045
G01 X59.8772 Y55.9008
G01 X60.0943 Y55.8303
G01 X60.3198 Y55.7945
G01 X61.0481 Y55.7945
G01 X61.2736 Y55.8303
G01 X61.4908 Y55.9008
G01 X61.6942 Y56.0045
G01 X61.8789 Y56.1387
G01 X61.9848 Y56.2445
G01 X62.0104 Y56.2653
G01 X62.0166 Y56.2692
G01 X62.0246 Y56.2725
G01 X62.0928 Y56.2925
G01 X62.1021 Y56.2943
G01 X64.6277 Y56.2945
G01 X64.6369 Y56.2937
G01 X64.6819 Y56.2852
G01 X64.6879 Y56.2837
G01 X64.6959 Y56.2804
G01 X64.7022 Y56.2764
G01 X64.7585 Y56.2330
G01 X64.7638 Y56.2283
G01 X64.7684 Y56.2228
G01 X64.8576 Y56.1001
G01 X65.0190 Y55.9387
G01 X65.1936 Y55.8118
G01 X65.1987 Y55.8071
G01 X65.2310 Y55.7729
G01 X65.2355 Y55.7670
G01 X65.2391 Y55.7605
G01 X65.2418 Y55.7535
G01 X65.2618 Y55.6854
G01 X65.2630 Y55.6795
G01 X65.2635 Y55.6736
G01 X65.2635 Y55.1208
G01 X65.2604 Y55.0891
G01 X65.2587 Y55.0807
G01 X65.2567 Y55.0749
G01 X65.2545 Y55.0705
G01 X65.2210 Y55.0092
G01 X65.2157 Y55.0013
G01 X65.1993 Y54.9847
G01 X65.1756 Y54.9655
G01 X65.1623 Y54.9572
G01 X65.1543 Y54.9536
G01 X65.1482 Y54.9519
G01 X65.1200 Y54.9457
G01 X65.0911 Y54.9373
G01 X65.0841 Y54.9359
G01 X65.0782 Y54.9356
G01 X64.9456 Y54.9356
G01 X64.7511 Y54.9048
G01 X64.5639 Y54.8439
G01 X64.3886 Y54.7546
G01 X64.2293 Y54.6389
G01 X64.0901 Y54.4997
G01 X63.9745 Y54.3405
G01 X63.8851 Y54.1651
G01 X63.8243 Y53.9779
G01 X63.7935 Y53.7835
G01 X63.7935 Y53.5866
G01 X63.8243 Y53.3922
G01 X63.8851 Y53.2050
G01 X63.9745 Y53.0296
G01 X64.0901 Y52.8704
G01 X64.2293 Y52.7312
G01 X64.3886 Y52.6155
G01 X64.5639 Y52.5262
G01 X64.7511 Y52.4653
G01 X64.9456 Y52.4345
G01 X65.0795 Y52.4345
G01 X65.1147 Y52.4307
G01 X65.1218 Y52.4286
G01 X65.1274 Y52.4262
G01 X65.1939 Y52.3896
G01 X65.2012 Y52.3836
G01 X65.5922 Y51.9926
G01 X65.6003 Y51.9839
G01 X65.6035 Y51.9800
G01 X65.6079 Y51.9725
G01 X65.6379 Y51.9068
G01 X65.6403 Y51.8998
G01 X65.6418 Y51.8912
G01 X65.6416 Y51.8813
G01 X65.6311 Y51.8085
G01 X65.6299 Y51.8037
G01 X65.6277 Y51.7978
G01 X65.6249 Y51.7923
G01 X65.6214 Y51.7872
G01 X65.5732 Y51.7316
G01 X65.5678 Y51.7264
G01 X65.5627 Y51.7228
G01 X65.5562 Y51.7194
G01 X65.5503 Y51.7173
G01 X65.4821 Y51.6973
G01 X65.4775 Y51.6962
G01 X65.4716 Y51.6956
G01 X63.5904 Y51.6956
G01 X63.4067 Y51.6590
G01 X63.3561 Y51.6381
G01 X63.2337 Y51.5874
G01 X63.0781 Y51.4834
G01 X61.7012 Y50.1065
G01 X61.6972 Y50.1029
G01 X61.6747 Y50.0848
G01 X61.6673 Y50.0804
G01 X61.6605 Y50.0776
G01 X61.5923 Y50.0576
G01 X61.5853 Y50.0561
G01 X61.5782 Y50.0556
G01 X61.4456 Y50.0556
G01 X61.2511 Y50.0248
G01 X61.0639 Y49.9639
G01 X60.8886 Y49.8746
G01 X60.7293 Y49.7589
G01 X60.5901 Y49.6197
G01 X60.4745 Y49.4605
G01 X60.3851 Y49.2851
G01 X60.3243 Y49.0979
G01 X60.2935 Y48.9035
G01 X60.2935 Y48.7695
G01 X60.2896 Y48.7343
G01 X60.2859 Y48.7202
G01 X60.2824 Y48.7121
G01 X60.2649 Y48.6845
G01 X60.2505 Y48.6582
G01 X60.2465 Y48.6522
G01 X60.2425 Y48.6478
G01 X58.5412 Y46.9465
G01 X58.5156 Y46.9255
G01 X58.5106 Y46.9221
G01 X58.5051 Y46.9193
G01 X58.4993 Y46.9173
G01 X58.4311 Y46.8973
G01 X58.4241 Y46.8959
G01 X58.4182 Y46.8956
G01 X54.7204 Y46.8956
G01 X54.5367 Y46.8590
G01 X54.3637 Y46.7874
G01 X54.2081 Y46.6834
G01 X50.6712 Y43.1465
G01 X50.6456 Y43.1255
G01 X50.6406 Y43.1221
G01 X50.6351 Y43.1193
G01 X50.6293 Y43.1173
G01 X50.5611 Y43.0973
G01 X50.5541 Y43.0959
G01 X50.5482 Y43.0956
G01 X45.0385 Y43.0956
G01 X45.0325 Y43.0959
G01 X44.9751 Y43.1082
G01 X44.9692 Y43.1100
G01 X44.9635 Y43.1126
G01 X44.9552 Y43.1182
G01 X44.8996 Y43.1664
G01 X44.8962 Y43.1700
G01 X44.8924 Y43.1750
G01 X44.8893 Y43.1803
G01 X44.8874 Y43.1849
G01 X44.8656 Y43.2589
G01 X44.8648 Y43.2636
G01 X44.8645 Y43.2695
G01 X44.8645 Y43.7736
G01 X44.8653 Y43.7816
G01 X44.8746 Y43.8303
G01 X44.8776 Y43.8384
G01 X44.8826 Y43.8469
G01 X44.9260 Y43.9033
G01 X44.9316 Y43.9094
G01 X44.9362 Y43.9132
G01 X45.1089 Y44.0387
G01 X45.2704 Y44.2001
G01 X45.4046 Y44.3848
G01 X45.5082 Y44.5882
G01 X45.5788 Y44.8054
G01 X45.6145 Y45.0309
G01 X45.6145 Y45.2592
G01 X45.5788 Y45.4847
G01 X45.5082 Y45.7019
G01 X45.4046 Y45.9053
G01 X45.2703 Y46.0900
G01 X45.1089 Y46.2514
G01 X44.9242 Y46.3856
G01 X44.7208 Y46.4893
G01 X44.5036 Y46.5598
G01 X44.2781 Y46.5956
G01 X43.8798 Y46.5956
G01 X43.8481 Y46.5987
G01 X43.8396 Y46.6003
G01 X43.8350 Y46.6019
G01 X43.8294 Y46.6045
G01 X43.7640 Y46.6405
G01 X43.7576 Y46.6457
G01 X43.7199 Y46.6834
G01 X43.5642 Y46.7874
G01 X43.3912 Y46.8590
G01 X43.2076 Y46.8956
G01 X39.0798 Y46.8956
G01 X39.0744 Y46.8958
G01 X39.0444 Y46.8992
G01 X39.0361 Y46.9015
G01 X39.0294 Y46.9045
G01 X38.9671 Y46.9386
G01 X38.9621 Y46.9418
G01 X38.9576 Y46.9457
G01 X38.4154 Y47.4878
G01 X38.3945 Y47.5134
G01 X38.3893 Y47.5217
G01 X38.3862 Y47.5297
G01 X38.3662 Y47.5979
G01 X38.3648 Y47.6049
G01 X38.3645 Y47.6108
G01 X38.3645 Y58.2387
G01 X38.3279 Y58.4223
G01 X38.2563 Y58.5953
G01 X38.1523 Y58.7510
G01 X36.0199 Y60.8834
G01 X36.0135 Y60.8885
G01 X35.9971 Y60.9052
G01 X35.9917 Y60.9121
G01 X35.9875 Y60.9201
G01 X35.9774 Y60.9326
G01 X35.9737 Y60.9391
G01 X35.9706 Y60.9473
G01 X35.9663 Y60.9665
G01 X35.9582 Y60.9844
G01 X35.9562 Y60.9903
G01 X35.9552 Y60.9952
G01 X35.9546 Y61.0038
G01 X35.9557 Y61.0140
G01 X35.9544 Y61.0204
G01 X35.9538 Y61.0253
G01 X35.9537 Y61.0315
G01 X35.9542 Y61.0365
G01 X35.9563 Y61.0449
G01 X35.9626 Y61.0622
G01 X35.9657 Y61.0828
G01 X35.9671 Y61.0876
G01 X35.9694 Y61.0934
G01 X35.9737 Y61.1009
G01 X35.9794 Y61.1079
G01 X35.9817 Y61.1140
G01 X35.9839 Y61.1184
G01 X35.9872 Y61.1237
G01 X35.9903 Y61.1276
G01 X35.9966 Y61.1335
G01 X36.0113 Y61.1446
G01 X36.0242 Y61.1594
G01 X36.0278 Y61.1629
G01 X36.0328 Y61.1666
G01 X36.0404 Y61.1707
G01 X36.0501 Y61.1740
G01 X36.0554 Y61.1779
G01 X36.0596 Y61.1805
G01 X36.0687 Y61.1843
G01 X36.0772 Y61.1861
G01 X36.0968 Y61.1877
G01 X36.1156 Y61.1931
G01 X36.1214 Y61.1942
G01 X36.1262 Y61.1945
G01 X37.8395 Y61.1945
G01 X37.8723 Y61.1911
G01 X37.8771 Y61.1901
G01 X37.8830 Y61.1882
G01 X37.8885 Y61.1856
G01 X37.9529 Y61.1503
G01 X37.9577 Y61.1468
G01 X37.9612 Y61.1436
G01 X41.6981 Y57.4067
G01 X41.8537 Y57.3027
G01 X41.9539 Y57.2611
G01 X41.9613 Y57.2565
G01 X41.9811 Y57.2409
G01 X41.9996 Y57.2302
G01 X42.0035 Y57.2275
G01 X42.0089 Y57.2229
G01 X42.0173 Y57.2140
G01 X42.0276 Y57.2001
G01 X42.0962 Y57.1314
G01 X42.1145 Y57.1082
G01 X42.1239 Y57.0923
G01 X42.1264 Y57.0867
G01 X42.1283 Y57.0809
G01 X42.1339 Y57.0521
G01 X42.1423 Y57.0228
G01 X42.1431 Y57.0181
G01 X42.1435 Y57.0122
G01 X42.1435 Y55.1177
G01 X42.1428 Y55.1096
G01 X42.1339 Y55.0623
G01 X42.1309 Y55.0528
G01 X42.1261 Y55.0442
G01 X42.0820 Y54.9868
G01 X42.0763 Y54.9807
G01 X42.0717 Y54.9769
G01 X41.8990 Y54.8514
G01 X41.7376 Y54.6900
G01 X41.6034 Y54.5053
G01 X41.4997 Y54.3018
G01 X41.4292 Y54.0847
G01 X41.3935 Y53.8592
G01 X41.3935 Y53.6309
G01 X41.4292 Y53.4054
G01 X41.4997 Y53.1883
G01 X41.6034 Y52.9848
G01 X41.7376 Y52.8001
G01 X41.8990 Y52.6387
G01 X42.0745 Y52.5110
G01 X42.0787 Y52.5071
G01 X42.1126 Y52.4710
G01 X42.1175 Y52.4638
G01 X42.1214 Y52.4547
G01 X42.1418 Y52.3854
G01 X42.1430 Y52.3795
G01 X42.1435 Y52.3736
G01 X42.1433 Y51.3130
G01 X42.1339 Y51.2623
G01 X42.1323 Y51.2563
G01 X42.1299 Y51.2506
G01 X42.1246 Y51.2422
G01 X42.0820 Y51.1868
G01 X42.0781 Y51.1823
G01 X42.0717 Y51.1769
G01 X41.8990 Y51.0514
G01 X41.7376 Y50.8900
G01 X41.6034 Y50.7053
G01 X41.4997 Y50.5018
G01 X41.4292 Y50.2847
G01 X41.3935 Y50.0592
G01 X41.3935 Y49.8309
G01 X41.4292 Y49.6054
G01 X41.4997 Y49.3883
G01 X41.6034 Y49.1848
G01 X41.7376 Y49.0001
G01 X41.8990 Y48.8387
G01 X42.0837 Y48.7045
G01 X42.2872 Y48.6008
G01 X42.5043 Y48.5303
G01 X42.7298 Y48.4945
G01 X43.2289 Y48.4945
G01 X43.2350 Y48.4942
G01 X43.2861 Y48.4842
G01 X43.2932 Y48.4822
G01 X43.4167 Y48.4311
G01 X43.6004 Y48.3945
G01 X50.4851 Y48.3944
G01 X50.5152 Y48.3911
G01 X50.5200 Y48.3901
G01 X50.5259 Y48.3882
G01 X50.5314 Y48.3856
G01 X50.5927 Y48.3521
G01 X50.5978 Y48.3490
G01 X50.6041 Y48.3436
G01 X50.7090 Y48.2387
G01 X50.8937 Y48.1045
G01 X51.0972 Y48.0008
G01 X51.3143 Y47.9303
G01 X51.5398 Y47.8945
G01 X52.2681 Y47.8945
G01 X52.4936 Y47.9303
G01 X52.7108 Y48.0008
G01 X52.9142 Y48.1045
G01 X53.0989 Y48.2387
G01 X53.2604 Y48.4001
G01 X53.3946 Y48.5848
G01 X53.4982 Y48.7882
G01 X53.5688 Y49.0054
G01 X53.6045 Y49.2309
G01 X53.6045 Y49.4592
G01 X53.5688 Y49.6847
G01 X53.4982 Y49.9019
G01 X53.3946 Y50.1053
G01 X53.2603 Y50.2900
G01 X53.0989 Y50.4514
G01 X52.9142 Y50.5856
G01 X52.7108 Y50.6893
G01 X52.4936 Y50.7598
G01 X52.2681 Y50.7956
G01 X51.5398 Y50.7956
G01 X51.3143 Y50.7598
G01 X51.0972 Y50.6893
G01 X50.8937 Y50.5856
G01 X50.7090 Y50.4514
G01 X50.6032 Y50.3456
G01 X50.5765 Y50.3241
G01 X50.5691 Y50.3198
G01 X50.5622 Y50.3173
G01 X50.4940 Y50.2973
G01 X50.4882 Y50.2961
G01 X50.4835 Y50.2956
G01 X44.8817 Y50.2956
G01 X44.8634 Y50.2965
G01 X44.8562 Y50.2977
G01 X44.8492 Y50.2998
G01 X44.7814 Y50.3285
G01 X44.7760 Y50.3316
G01 X44.7701 Y50.3361
G01 X44.7657 Y50.3404
G01 X44.7619 Y50.3453
G01 X44.7224 Y50.4030
G01 X44.7188 Y50.4093
G01 X44.7162 Y50.4158
G01 X44.6882 Y50.5019
G01 X44.5846 Y50.7053
G01 X44.4503 Y50.8900
G01 X44.2889 Y51.0514
G01 X44.1162 Y51.1769
G01 X44.1092 Y51.1830
G01 X44.0770 Y51.2172
G01 X44.0731 Y51.2221
G01 X44.0693 Y51.2285
G01 X44.0662 Y51.2366
G01 X44.0465 Y51.3036
G01 X44.0447 Y51.3129
G01 X44.0445 Y52.3724
G01 X44.0453 Y52.3816
G01 X44.0538 Y52.4266
G01 X44.0553 Y52.4326
G01 X44.0586 Y52.4406
G01 X44.0626 Y52.4469
G01 X44.1060 Y52.5033
G01 X44.1116 Y52.5094
G01 X44.1162 Y52.5132
G01 X44.2889 Y52.6387
G01 X44.4504 Y52.8001
G01 X44.5846 Y52.9848
G01 X44.6882 Y53.1882
G01 X44.7588 Y53.4054
G01 X44.7945 Y53.6309
G01 X44.7945 Y53.8592
G01 X44.7588 Y54.0847
G01 X44.6882 Y54.3019
G01 X44.5846 Y54.5053
G01 X44.4503 Y54.6900
G01 X44.2889 Y54.8514
G01 X44.1162 Y54.9769
G01 X44.1100 Y54.9822
G01 X44.0770 Y55.0172
G01 X44.0731 Y55.0221
G01 X44.0699 Y55.0274
G01 X44.0662 Y55.0366
G01 X44.0459 Y55.1059
G01 X44.0448 Y55.1117
G01 X44.0445 Y55.1177
G01 X44.0445 Y56.2229
G01 X44.0456 Y56.2312
G01 X44.0571 Y56.2839
G01 X44.0590 Y56.2899
G01 X44.0615 Y56.2956
G01 X44.0648 Y56.3009
G01 X44.0679 Y56.3048
G01 X44.1136 Y56.3576
G01 X44.1199 Y56.3637
G01 X44.1282 Y56.3691
G01 X44.1362 Y56.3725
G01 X44.2055 Y56.3928
G01 X44.2114 Y56.3940
G01 X44.2185 Y56.3945
G01 X49.0138 Y56.3944
G01 X49.0196 Y56.3937
G01 X49.0658 Y56.3850
G01 X49.0717 Y56.3833
G01 X49.0774 Y56.3809
G01 X49.0858 Y56.3757
G01 X49.1412 Y56.3330
G01 X49.1457 Y56.3291
G01 X49.1496 Y56.3247
G01 X49.1676 Y56.3001
G01 X49.3290 Y56.1387
G01 X49.5137 Y56.0045
G01 X49.7172 Y55.9008
G01 X49.9343 Y55.8303
G01 X50.1598 Y55.7945
G01 X50.8881 Y55.7945
G01 X51.1136 Y55.8303
G01 X51.3308 Y55.9008
G01 X51.5342 Y56.0045
G01 X51.7189 Y56.1387
G01 X51.8804 Y56.3001
G01 X52.0146 Y56.4848
G01 X52.1182 Y56.6882
G01 X52.1888 Y56.9054
G01 X52.2245 Y57.1309
G01 X52.2245 Y57.3592
G01 X52.1888 Y57.5847
G01 X52.1182 Y57.8019
G01 X52.0146 Y58.0053
G01 X51.8803 Y58.1900
G01 X51.7189 Y58.3514
G01 X51.5342 Y58.4856
G01 X51.3308 Y58.5893
G01 X51.1136 Y58.6598
G01 X50.8881 Y58.6956
G01 X50.1598 Y58.6956
G01 X49.9343 Y58.6598
G01 X49.7172 Y58.5893
G01 X49.5137 Y58.4856
G01 X49.3290 Y58.3514
G01 X49.3201 Y58.3429
G01 X49.2985 Y58.3255
G01 X49.2934 Y58.3221
G01 X49.2880 Y58.3193
G01 X49.2822 Y58.3173
G01 X49.2140 Y58.2973
G01 X49.2047 Y58.2957
G01 X45.2273 Y58.2956
G01 X45.2206 Y58.2960
G01 X45.1861 Y58.3007
G01 X45.1765 Y58.3033
G01 X45.1677 Y58.3076
G01 X45.1063 Y58.3459
G01 X45.1023 Y58.3490
G01 X45.0979 Y58.3533
G01 X45.0947 Y58.3571
G01 X45.0913 Y58.3623
G01 X45.0597 Y58.4287
G01 X45.0575 Y58.4342
G01 X45.0557 Y58.4412
G01 X45.0488 Y58.4847
G01 X44.9782 Y58.7019
G01 X44.8746 Y58.9053
G01 X44.7403 Y59.0900
G01 X44.5789 Y59.2514
G01 X44.3942 Y59.3856
G01 X44.1908 Y59.4893
G01 X43.9736 Y59.5598
G01 X43.7481 Y59.5956
G01 X43.0198 Y59.5956
G01 X42.7943 Y59.5598
G01 X42.5772 Y59.4893
G01 X42.5075 Y59.4538
G01 X42.4910 Y59.4466
G01 X42.4816 Y59.4440
G01 X42.4058 Y59.4384
G01 X42.3996 Y59.4385
G01 X42.3922 Y59.4396
G01 X42.3863 Y59.4414
G01 X42.3806 Y59.4439
G01 X42.3182 Y59.4779
G01 X42.3131 Y59.4811
G01 X42.3068 Y59.4864
G01 X38.9099 Y62.8834
G01 X38.7542 Y62.9874
G01 X38.6299 Y63.0388
G01 X38.5812 Y63.0590
G01 X38.3976 Y63.0956
G01 X18.0104 Y63.0956
G01 X17.8267 Y63.0590
G01 X17.6537 Y62.9874
G01 X17.4981 Y62.8834
G01 X16.3657 Y61.7510
G01 X16.2617 Y61.5953
G01 X16.1900 Y61.4223
G01 X16.1535 Y61.2387
G01 X16.1535 Y57.4995
G01 X16.1500 Y57.4667
G01 X16.1490 Y57.4619
G01 X16.1471 Y57.4561
G01 X16.1445 Y57.4505
G01 X16.1098 Y57.3871
G01 X16.1065 Y57.3822
G01 X16.1025 Y57.3778
G01 X15.4251 Y56.7004
G01 X15.4203 Y56.6964
G01 X15.4161 Y56.6936
G01 X15.3593 Y56.6610
G01 X15.3537 Y56.6582
G01 X15.3454 Y56.6556
G01 X15.3355 Y56.6544
G01 X15.2632 Y56.6564
G01 X15.2573 Y56.6569
G01 X15.2492 Y56.6588
G01 X15.1536 Y56.6898
G01 X14.9281 Y56.7256
G01 X14.6998 Y56.7256
G01 X14.4743 Y56.6898
G01 X14.2572 Y56.6193
G01 X14.0537 Y56.5156
G01 X13.8690 Y56.3814
G01 X13.7076 Y56.2200
G01 X13.5734 Y56.0353
G01 X13.4697 Y55.8318
G01 X13.3992 Y55.6147
G01 X13.3635 Y55.3892
G01 X13.3635 Y54.6609
G01 X13.3992 Y54.4354
G01 X13.4697 Y54.2183
G01 X13.5734 Y54.0148
G01 X13.7076 Y53.8301
G01 X13.8690 Y53.6687
G01 X14.0537 Y53.5345
G01 X14.2572 Y53.4308
G01 X14.4743 Y53.3603
G01 X14.6998 Y53.3245
G01 X14.9281 Y53.3245
G01 X15.1536 Y53.3603
G01 X15.3708 Y53.4308
G01 X15.5742 Y53.5345
G01 X15.7589 Y53.6687
G01 X15.9204 Y53.8301
G01 X16.0546 Y54.0148
G01 X16.1582 Y54.2182
G01 X16.2288 Y54.4354
G01 X16.2645 Y54.6609
G01 X16.2645 Y54.7806
G01 X16.2676 Y54.8110
G01 X16.2686 Y54.8170
G01 X16.2704 Y54.8229
G01 X16.2728 Y54.8285
G01 X16.3069 Y54.8909
G01 X16.3108 Y54.8969
G01 X16.3154 Y54.9023
G01 X17.8423 Y56.4291
G01 X17.9463 Y56.5848
G01 X18.0179 Y56.7578
G01 X18.0545 Y56.9414
G01 X18.0545 Y60.6793
G01 X18.0548 Y60.6846
G01 X18.0581 Y60.7146
G01 X18.0600 Y60.7217
G01 X18.0628 Y60.7285
G01 X18.0975 Y60.7919
G01 X18.1008 Y60.7969
G01 X18.1046 Y60.8015
G01 X18.4477 Y61.1445
G01 X18.4743 Y61.1660
G01 X18.4806 Y61.1697
G01 X18.4875 Y61.1725
G01 X18.5568 Y61.1928
G01 X18.5626 Y61.1940
G01 X18.5686 Y61.1945
G01 X19.5406 Y61.1945
G01 X19.5693 Y61.1921
G01 X19.5766 Y61.1905
G01 X19.5848 Y61.1873
G01 X19.6484 Y61.1556
G01 X19.6547 Y61.1516
G01 X19.6603 Y61.1468
G01 X19.6636 Y61.1431
G01 X19.6673 Y61.1380
G01 X19.7049 Y61.0748
G01 X19.7074 Y61.0691
G01 X19.7090 Y61.0644
G01 X19.7100 Y61.0596
G01 X19.7106 Y61.0534
G01 X19.7083 Y60.9798
G01 X19.7075 Y60.9727
G01 X19.7057 Y60.9658
G01 X19.6632 Y60.8373
G01 X19.6535 Y60.7425
G01 X19.6535 Y58.3476
G01 X19.6632 Y58.2528
G01 X19.7148 Y58.0970
G01 X19.8008 Y57.9576
G01 X19.9165 Y57.8418
G01 X20.0559 Y57.7559
G01 X20.2117 Y57.7042
G01 X20.3065 Y57.6945
G01 X22.7014 Y57.6945
G01 X22.7962 Y57.7042
G01 X22.9520 Y57.7559
G01 X23.0914 Y57.8418
G01 X23.2072 Y57.9576
G01 X23.2932 Y58.0970
G01 X23.3448 Y58.2528
G01 X23.3545 Y58.3476
G01 X23.3545 Y58.4205
G01 X23.3548 Y58.4265
G01 X23.3671 Y58.4839
G01 X23.3690 Y58.4899
G01 X23.3710 Y58.4944
G01 X23.3741 Y58.4998
G01 X23.3771 Y58.5038
G01 X23.4236 Y58.5576
G01 X23.4280 Y58.5620
G01 X23.4339 Y58.5666
G01 X23.4404 Y58.5702
G01 X23.4462 Y58.5725
G01 X23.5178 Y58.5934
G01 X23.5237 Y58.5943
G01 X23.5285 Y58.5945
G01 X26.9182 Y58.5945
G01 X26.9235 Y58.5943
G01 X26.9523 Y58.5911
G01 X26.9583 Y58.5898
G01 X26.9641 Y58.5877
G01 X27.0309 Y58.5515
G01 X27.0358 Y58.5483
G01 X27.0404 Y58.5444
G01 X27.5747 Y58.0101
G01 X27.5798 Y58.0038
G01 X27.6076 Y57.9629
G01 X27.6113 Y57.9550
G01 X27.6138 Y57.9454
G01 X27.6229 Y57.8749
G01 X27.6233 Y57.8678
G01 X27.6227 Y57.8607
G01 X27.6035 Y57.7392
G01 X27.6035 Y57.5109
G01 X27.6392 Y57.2854
G01 X27.7097 Y57.0683
G01 X27.8134 Y56.8648
G01 X27.9476 Y56.6801
G01 X28.1090 Y56.5187
G01 X28.1416 Y56.4950
G01 X28.1599 Y56.4793
G01 X28.1643 Y56.4749
G01 X28.1674 Y56.4711
G01 X28.1708 Y56.4659
G01 X28.2045 Y56.4019
G01 X28.2077 Y56.3938
G01 X28.2093 Y56.3865
G01 X28.2097 Y56.3766
G01 X28.2033 Y56.3033
G01 X28.2021 Y56.2972
G01 X28.2001 Y56.2913
G01 X28.1975 Y56.2857
G01 X28.1941 Y56.2805
G01 X28.1507 Y56.2242
G01 X28.1468 Y56.2197
G01 X28.1414 Y56.2150
G01 X28.1090 Y56.1914
G01 X27.9476 Y56.0300
G01 X27.8134 Y55.8453
G01 X27.7097 Y55.6418
G01 X27.6392 Y55.4247
G01 X27.6035 Y55.1992
G01 X27.6035 Y54.9709
G01 X27.6392 Y54.7454
G01 X27.7097 Y54.5283
G01 X27.8134 Y54.3248
G01 X27.9476 Y54.1401
G01 X28.1090 Y53.9787
G01 X28.1421 Y53.9546
G01 X28.1603 Y53.9389
G01 X28.1647 Y53.9346
G01 X28.1686 Y53.9298
G01 X28.1712 Y53.9256
G01 X28.2050 Y53.8616
G01 X28.2085 Y53.8523
G01 X28.2097 Y53.8462
G01 X28.2101 Y53.8413
G01 X28.2100 Y53.8351
G01 X28.2037 Y53.7630
G01 X28.2028 Y53.7581
G01 X28.2010 Y53.7522
G01 X28.1990 Y53.7476
G01 X28.1960 Y53.7423
G01 X28.1511 Y53.6839
G01 X28.1472 Y53.6794
G01 X28.1419 Y53.6747
G01 X28.1094 Y53.6510
G01 X27.9480 Y53.4897
G01 X27.8138 Y53.3050
G01 X27.7102 Y53.1017
G01 X27.7081 Y53.0950
G01 X28.1609 Y53.0950
G01 X28.1816 Y53.1294
G01 X28.2415 Y53.2102
G01 X28.3124 Y53.2884
G01 X28.3879 Y53.3567
G01 X28.4686 Y53.4167
G01 X28.5579 Y53.4705
G01 X28.6522 Y53.5151
G01 X28.7515 Y53.5505
G01 X28.8491 Y53.5749
G01 X28.9486 Y53.5897
G01 X29.0540 Y53.5950
G01 X29.5540 Y53.5950
G01 X29.6544 Y53.5902
G01 X29.7588 Y53.5749
G01 X29.8575 Y53.5502
G01 X29.9558 Y53.5151
G01 X30.0489 Y53.4711
G01 X30.1373 Y53.4181
G01 X30.2191 Y53.3575
G01 X30.2964 Y53.2875
G01 X30.3648 Y53.2121
G01 X30.4263 Y53.1294
G01 X30.4471 Y53.0950
G01 X30.8999 Y53.0951
G01 X30.8977 Y53.1017
G01 X30.7941 Y53.3050
G01 X30.6600 Y53.4897
G01 X30.4986 Y53.6511
G01 X30.4648 Y53.6757
G01 X30.4458 Y53.6922
G01 X30.4416 Y53.6967
G01 X30.4380 Y53.7017
G01 X30.4030 Y53.7679
G01 X30.3998 Y53.7760
G01 X30.3983 Y53.7832
G01 X30.3979 Y53.7932
G01 X30.4042 Y53.8665
G01 X30.4054 Y53.8726
G01 X30.4074 Y53.8784
G01 X30.4101 Y53.8840
G01 X30.4127 Y53.8883
G01 X30.4568 Y53.9456
G01 X30.4607 Y53.9501
G01 X30.4661 Y53.9548
G01 X30.4989 Y53.9787
G01 X30.6604 Y54.1401
G01 X30.6778 Y54.1640
G01 X30.6848 Y54.1711
G01 X30.7427 Y54.2164
G01 X30.7504 Y54.2204
G01 X30.8042 Y54.2427
G01 X30.9599 Y54.3467
G01 X31.0325 Y54.4193
G01 X31.0370 Y54.4233
G01 X31.0825 Y54.4540
G01 X31.0870 Y54.4563
G01 X31.0917 Y54.4581
G01 X31.0966 Y54.4594
G01 X31.1015 Y54.4602
G01 X31.1722 Y54.4683
G01 X31.1784 Y54.4685
G01 X31.1858 Y54.4676
G01 X31.1918 Y54.4661
G01 X31.1976 Y54.4639
G01 X31.2625 Y54.4320
G01 X31.2678 Y54.4288
G01 X31.2727 Y54.4249
G01 X31.2762 Y54.4214
G01 X31.2801 Y54.4166
G01 X31.3183 Y54.3536
G01 X31.3221 Y54.3459
G01 X31.3247 Y54.3363
G01 X31.3254 Y54.3276
G01 X31.3234 Y54.2566
G01 X31.3225 Y54.2483
G01 X31.3210 Y54.2425
G01 X31.2697 Y54.0846
G01 X31.2634 Y54.0450
G01 X31.6779 Y54.0450
G01 X31.6800 Y54.0522
G01 X31.7149 Y54.1491
G01 X31.7580 Y54.2400
G01 X31.8109 Y54.3284
G01 X31.8723 Y54.4112
G01 X31.9398 Y54.4857
G01 X32.0188 Y54.5575
G01 X32.1006 Y54.6181
G01 X32.1869 Y54.6699
G01 X32.2833 Y54.7156
G01 X32.3792 Y54.7498
G01 X32.4779 Y54.7746
G01 X32.5798 Y54.7899
G01 X32.6340 Y54.7927
G01 X32.6340 Y55.1951
G01 X32.5699 Y55.1951
G01 X32.3444 Y55.1593
G01 X32.1830 Y55.1070
G01 X32.1771 Y55.1059
G01 X32.1274 Y55.1000
G01 X32.1186 Y55.1001
G01 X32.1100 Y55.1018
G01 X32.0398 Y55.1278
G01 X32.0331 Y55.1311
G01 X32.0279 Y55.1346
G01 X32.0233 Y55.1387
G01 X32.0191 Y55.1433
G01 X31.9765 Y55.2002
G01 X31.9725 Y55.2065
G01 X31.9699 Y55.2121
G01 X31.9677 Y55.2192
G01 X31.9667 Y55.2266
G01 X31.9616 Y55.2975
G01 X31.9616 Y55.3025
G01 X31.9623 Y55.3087
G01 X31.9642 Y55.3159
G01 X31.9671 Y55.3227
G01 X32.0012 Y55.3852
G01 X32.0050 Y55.3912
G01 X32.0097 Y55.3965
G01 X33.2567 Y56.6436
G01 X33.2607 Y56.6472
G01 X33.2843 Y56.6660
G01 X33.2906 Y56.6697
G01 X33.2975 Y56.6725
G01 X33.3657 Y56.6925
G01 X33.3738 Y56.6942
G01 X33.3798 Y56.6945
G01 X33.5881 Y56.6945
G01 X33.8136 Y56.7303
G01 X34.0308 Y56.8008
G01 X34.2342 Y56.9045
G01 X34.4189 Y57.0387
G01 X34.5804 Y57.2001
G01 X34.7146 Y57.3848
G01 X34.8182 Y57.5882
G01 X34.8888 Y57.8054
G01 X34.9245 Y58.0309
G01 X34.9245 Y58.2592
G01 X34.8888 Y58.4847
G01 X34.8182 Y58.7019
G01 X34.7146 Y58.9053
G01 X34.7044 Y58.9193
G01 X34.7007 Y58.9256
G01 X34.6760 Y58.9863
G01 X34.6743 Y58.9921
G01 X34.6735 Y58.9968
G01 X34.6732 Y59.0016
G01 X34.6734 Y59.0076
G01 X34.6845 Y59.0841
G01 X34.6860 Y59.0888
G01 X34.6884 Y59.0945
G01 X34.6937 Y59.1029
G01 X34.7419 Y59.1585
G01 X34.7493 Y59.1652
G01 X34.7567 Y59.1697
G01 X34.7636 Y59.1725
G01 X34.8318 Y59.1925
G01 X34.8376 Y59.1939
G01 X34.8459 Y59.1945
G01 X34.9495 Y59.1945
G01 X34.9847 Y59.1907
G01 X34.9988 Y59.1870
G01 X35.0069 Y59.1835
G01 X35.0345 Y59.1660
G01 X35.0619 Y59.1509
G01 X35.0695 Y59.1452
G01 X36.4134 Y57.8013
G01 X36.4342 Y57.7757
G01 X36.4375 Y57.7706
G01 X36.4397 Y57.7662
G01 X36.4418 Y57.7604
G01 X36.4614 Y57.6934
G01 X36.4631 Y57.6852
G01 X36.4635 Y57.6793
G01 X36.4635 Y47.0514
G01 X36.5000 Y46.8678
G01 X36.5717 Y46.6948
G01 X36.6757 Y46.5391
G01 X38.0081 Y45.2067
G01 X38.1637 Y45.1027
G01 X38.3367 Y45.0311
G01 X38.5204 Y44.9945
G01 X39.7251 Y44.9945
G01 X39.7337 Y44.9938
G01 X39.8037 Y44.9746
G01 X39.8094 Y44.9725
G01 X39.8158 Y44.9691
G01 X39.8207 Y44.9655
G01 X39.8251 Y44.9614
G01 X39.8748 Y44.9072
G01 X39.8785 Y44.9022
G01 X39.8815 Y44.8968
G01 X39.8838 Y44.8910
G01 X39.8854 Y44.8850
G01 X39.8977 Y44.8137
G01 X39.8983 Y44.8051
G01 X39.8975 Y44.7976
G01 X39.8948 Y44.7881
G01 X39.8671 Y44.7226
G01 X39.8644 Y44.7170
G01 X39.8602 Y44.7109
G01 X39.8560 Y44.7063
G01 X39.8503 Y44.7015
G01 X39.7906 Y44.6607
G01 X39.7854 Y44.6577
G01 X39.7789 Y44.6551
G01 X39.6072 Y44.5993
G01 X39.4037 Y44.4956
G01 X39.2190 Y44.3614
G01 X39.1132 Y44.2556
G01 X39.0875 Y44.2348
G01 X39.0813 Y44.2309
G01 X39.0734 Y44.2276
G01 X39.0029 Y44.2070
G01 X38.9970 Y44.2059
G01 X38.9911 Y44.2056
G01 X37.3204 Y44.2056
G01 X37.1367 Y44.1690
G01 X36.9637 Y44.0974
G01 X36.8081 Y43.9934
G01 X34.8657 Y42.0510
G01 X34.7617 Y41.8953
G01 X34.6900 Y41.7223
G01 X34.6535 Y41.5387
G01 X34.6532 Y41.4712
G01 X34.6434 Y41.4198
G01 X34.6422 Y41.4149
G01 X34.6390 Y41.4067
G01 X34.6350 Y41.4003
G01 X34.5885 Y41.3416
G01 X34.5841 Y41.3372
G01 X34.5792 Y41.3334
G01 X34.5739 Y41.3302
G01 X34.5670 Y41.3273
G01 X34.4997 Y41.3044
G01 X34.4925 Y41.3027
G01 X34.4838 Y41.3021
G01 X34.4740 Y41.3033
G01 X34.4025 Y41.3210
G01 X34.3979 Y41.3227
G01 X34.3923 Y41.3254
G01 X34.3871 Y41.3288
G01 X34.3833 Y41.3320
G01 X34.3326 Y41.3854
G01 X34.3281 Y41.3909
G01 X34.3244 Y41.3970
G01 X34.2846 Y41.4753
G01 X34.1503 Y41.6600
G01 X33.9889 Y41.8214
G01 X33.9548 Y41.8463
G01 X33.9367 Y41.8620
G01 X33.9309 Y41.8683
G01 X33.9262 Y41.8756
G01 X33.8930 Y41.9385
G01 X33.8895 Y41.9478
G01 X33.8879 Y41.9576
G01 X33.8880 Y41.9650
G01 X33.8944 Y42.0383
G01 X33.8958 Y42.0444
G01 X33.8979 Y42.0502
G01 X33.9001 Y42.0547
G01 X33.9034 Y42.0599
G01 X33.9468 Y42.1162
G01 X33.9507 Y42.1207
G01 X33.9561 Y42.1254
G01 X33.9886 Y42.1491
G01 X34.1500 Y42.3104
G01 X34.2841 Y42.4951
G01 X34.3877 Y42.6984
G01 X34.4583 Y42.9155
G01 X34.4645 Y42.9551
G01 X34.0500 Y42.9550
G01 X34.0481 Y42.9481
G01 X34.0131 Y42.8510
G01 X33.9700 Y42.7601
G01 X33.9170 Y42.6717
G01 X33.8556 Y42.5889
G01 X33.7881 Y42.5144
G01 X33.7082 Y42.4419
G01 X33.6273 Y42.3820
G01 X33.5389 Y42.3290
G01 X33.4458 Y42.2850
G01 X33.3511 Y42.2510
G01 X33.2464 Y42.2248
G01 X33.1469 Y42.2101
G01 X33.0440 Y42.2051
G01 X32.5440 Y42.2051
G01 X32.4411 Y42.2101
G01 X32.3367 Y42.2258
G01 X32.2393 Y42.2502
G01 X32.1433 Y42.2845
G01 X32.0490 Y42.3290
G01 X31.9586 Y42.3834
G01 X31.8779 Y42.4434
G01 X31.8033 Y42.5109
G01 X31.7339 Y42.5871
G01 X31.6709 Y42.6717
G01 X31.6180 Y42.7601
G01 X31.5739 Y42.8533
G01 X31.5400 Y42.9479
G01 X31.5379 Y42.9551
G01 X31.1234 Y42.9550
G01 X31.1297 Y42.9155
G01 X31.2002 Y42.6984
G01 X31.3038 Y42.4951
G01 X31.4380 Y42.3104
G01 X31.5994 Y42.1491
G01 X31.6332 Y42.1244
G01 X31.6512 Y42.1087
G01 X31.6563 Y42.1034
G01 X31.6618 Y42.0951
G01 X31.6955 Y42.0311
G01 X31.6988 Y42.0217
G01 X31.7001 Y42.0119
G01 X31.7000 Y42.0057
G01 X31.6936 Y41.9324
G01 X31.6925 Y41.9275
G01 X31.6906 Y41.9217
G01 X31.6879 Y41.9161
G01 X31.6845 Y41.9108
G01 X31.6411 Y41.8545
G01 X31.6364 Y41.8492
G01 X31.6309 Y41.8446
G01 X31.5990 Y41.8214
G01 X31.4932 Y41.7156
G01 X31.4695 Y41.6963
G01 X31.4634 Y41.6921
G01 X31.4591 Y41.6898
G01 X31.4534 Y41.6876
G01 X31.3852 Y41.6676
G01 X31.3794 Y41.6662
G01 X31.3711 Y41.6656
G01 X31.2957 Y41.6657
G01 X31.2644 Y41.6692
G01 X31.2515 Y41.6724
G01 X31.2456 Y41.6744
G01 X31.2389 Y41.6778
G01 X31.2135 Y41.6941
G01 X31.1871 Y41.7086
G01 X31.1812 Y41.7126
