(G-CODE GENERATED BY FLATCAM v8.994 - www.flatcam.org - Version Date: 2020/11/7)

(Name: Overdrive-B_Cu.gbr_iso_combined_cnc)
(Type: G-code from Geometry)
(Units: MM)

(Created on Friday, 15 May 2026 at 23:51)

(This preprocessor is the default preprocessor used by FlatCAM.)
(It is made to work with MACH3 compatible motion controllers.)

(TOOL DIAMETER: 0.1 mm)
(Feedrate_XY: 70.0 mm/min)
(Feedrate_Z: 60.0 mm/min)
(Feedrate rapids 300.0 mm/min)

(Z_Cut: -0.15 mm)
(Z_Move: 3.0 mm)
(Z Start: None mm)
(Z End: 15.0 mm)
(X,Y End: 0.0000, 0.0000 mm)
(Steps per circle: 64)
(Preprocessor Geometry: Default_no_M6)

(X range:    0.5506 ...   99.6495  mm)
(Y range:    0.5506 ...   64.6495  mm)

(Spindle Speed: 0.0 RPM)
G21
G90
G94

G01 F70.00

M5
G00 Z15.0000
G00 X0.0000 Y0.0000
T1
(MSG, Change to Tool Dia = 0.1000)
M0
G00 Z15.0000
        
M03
G01 F70.00
G00 X5.7283 Y3.4644
G01 F60.00
G01 Z-0.1500
G01 F70.00
G01 X5.8807 Y3.2218
G01 X6.0593 Y2.9979
G01 X6.2619 Y2.7953
G01 X6.4858 Y2.6167
G01 X6.7284 Y2.4643
G01 X6.9865 Y2.3400
G01 X7.2569 Y2.2454
G01 X7.5362 Y2.1816
G01 X7.8208 Y2.1495
G01 X8.1073 Y2.1496
G01 X8.3919 Y2.1816
G01 X8.6712 Y2.2454
G01 X8.9416 Y2.3400
G01 X9.1997 Y2.4643
G01 X9.4423 Y2.6167
G01 X9.6662 Y2.7953
G01 X9.8688 Y2.9979
G01 X10.0474 Y3.2218
G01 X10.1998 Y3.4644
G01 X10.3241 Y3.7225
G01 X10.4187 Y3.9929
G01 X10.4825 Y4.2722
G01 X10.5146 Y4.5568
G01 X10.5146 Y4.8433
G01 X10.4825 Y5.1279
G01 X10.4187 Y5.4072
G01 X10.3241 Y5.6776
G01 X10.1998 Y5.9357
G01 X10.0474 Y6.1783
G01 X9.8688 Y6.4022
G01 X9.6662 Y6.6048
G01 X9.4423 Y6.7834
G01 X9.1997 Y6.9358
G01 X8.9416 Y7.0601
G01 X8.6712 Y7.1547
G01 X8.3919 Y7.2185
G01 X8.1073 Y7.2506
G01 X7.8208 Y7.2506
G01 X7.5362 Y7.2185
G01 X7.2569 Y7.1547
G01 X6.9865 Y7.0601
G01 X6.7284 Y6.9358
G01 X6.4858 Y6.7834
G01 X6.2619 Y6.6048
G01 X6.0593 Y6.4022
G01 X5.8807 Y6.1783
G01 X5.7283 Y5.9357
G01 X5.6040 Y5.6776
G01 X5.5094 Y5.4072
G01 X5.4456 Y5.1279
G01 X5.4136 Y4.8433
G01 X5.4136 Y4.5568
G01 X5.4456 Y4.2722
G01 X5.5094 Y3.9929
G01 X5.6040 Y3.7225
G01 X5.7283 Y3.4644
G00 Z3.0000
G00 X5.8242 Y4.4918
G01 F60.00
G01 Z-0.1500
G01 F70.00
G01 X5.8554 Y4.2806
G01 X5.9066 Y4.0759
G01 X5.9777 Y3.8773
G01 X6.0679 Y3.6865
G01 X6.1764 Y3.5056
G01 X6.3021 Y3.3361
G01 X6.4438 Y3.1798
G01 X6.6001 Y3.0381
G01 X6.7696 Y2.9124
G01 X6.9505 Y2.8039
G01 X7.1413 Y2.7137
G01 X7.3399 Y2.6426
G01 X7.5446 Y2.5914
G01 X7.7533 Y2.5604
G01 X7.9641 Y2.5501
G01 X8.1748 Y2.5604
G01 X8.3835 Y2.5914
G01 X8.5882 Y2.6426
G01 X8.7868 Y2.7137
G01 X8.9776 Y2.8039
G01 X9.1585 Y2.9124
G01 X9.3280 Y3.0381
G01 X9.4843 Y3.1798
G01 X9.6260 Y3.3361
G01 X9.7518 Y3.5057
G01 X9.8602 Y3.6865
G01 X9.9504 Y3.8773
G01 X10.0215 Y4.0759
G01 X10.0727 Y4.2806
G01 X10.1037 Y4.4893
G01 X10.1141 Y4.7000
G01 X10.1037 Y4.9108
G01 X10.0727 Y5.1195
G01 X10.0215 Y5.3241
G01 X9.9504 Y5.5228
G01 X9.8602 Y5.7136
G01 X9.7517 Y5.8945
G01 X9.6260 Y6.0640
G01 X9.4843 Y6.2203
G01 X9.3280 Y6.3620
G01 X9.1584 Y6.4878
G01 X8.9776 Y6.5962
G01 X8.7868 Y6.6864
G01 X8.5881 Y6.7575
G01 X8.3835 Y6.8087
G01 X8.1748 Y6.8397
G01 X7.9641 Y6.8500
G01 X7.7533 Y6.8397
G01 X7.5446 Y6.8087
G01 X7.3399 Y6.7575
G01 X7.1413 Y6.6864
G01 X6.9505 Y6.5962
G01 X6.7696 Y6.4877
G01 X6.6001 Y6.3620
G01 X6.4438 Y6.2203
G01 X6.3021 Y6.0640
G01 X6.1765 Y5.8946
G01 X6.0679 Y5.7136
G01 X5.9777 Y5.5228
G01 X5.9066 Y5.3239
G01 X5.8554 Y5.1195
G01 X5.8244 Y4.9108
G01 X5.8141 Y4.7000
G01 X5.8242 Y4.4918
G00 Z3.0000
G00 X4.5174 Y10.2020
G01 F60.00
G01 Z-0.1500
G01 F70.00
G01 X4.6033 Y10.0626
G01 X4.7191 Y9.9468
G01 X4.8585 Y9.8609
G01 X5.0143 Y9.8092
G01 X5.1091 Y9.7995
G01 X7.5040 Y9.7995
G01 X7.5988 Y9.8092
G01 X7.7546 Y9.8609
G01 X7.8940 Y9.9468
G01 X8.0098 Y10.0626
G01 X8.0957 Y10.2020
G01 X8.1474 Y10.3578
G01 X8.1571 Y10.4526
G01 X8.1573 Y10.5303
G01 X8.1582 Y10.5362
G01 X8.1694 Y10.5877
G01 X8.1715 Y10.5949
G01 X8.1747 Y10.6016
G01 X8.1797 Y10.6088
G01 X8.2279 Y10.6644
G01 X8.2325 Y10.6687
G01 X8.2375 Y10.6723
G01 X8.2430 Y10.6752
G01 X8.2487 Y10.6775
G01 X8.3181 Y10.6978
G01 X8.3239 Y10.6990
G01 X8.3311 Y10.6995
G01 X10.2583 Y10.6995
G01 X10.2636 Y10.6993
G01 X10.2924 Y10.6961
G01 X10.2996 Y10.6944
G01 X10.3064 Y10.6917
G01 X10.3709 Y10.6565
G01 X10.3769 Y10.6525
G01 X10.3813 Y10.6486
G01 X12.4403 Y8.5896
G01 X12.4438 Y8.5856
G01 X12.4627 Y8.5621
G01 X12.4664 Y8.5557
G01 X12.4695 Y8.5477
G01 X12.4895 Y8.4795
G01 X12.4907 Y8.4737
G01 X12.4912 Y8.4666
G01 X12.4912 Y7.0727
G01 X12.4906 Y7.0646
G01 X12.4811 Y7.0148
G01 X12.4776 Y7.0056
G01 X12.4731 Y6.9982
G01 X12.4297 Y6.9418
G01 X12.4241 Y6.9357
G01 X12.4195 Y6.9319
G01 X12.2468 Y6.8064
G01 X12.0853 Y6.6450
G01 X11.9511 Y6.4603
G01 X11.8475 Y6.2568
G01 X11.7769 Y6.0397
G01 X11.7412 Y5.8142
G01 X11.7412 Y5.5859
G01 X11.7769 Y5.3604
G01 X11.8475 Y5.1433
G01 X11.9511 Y4.9398
G01 X12.0853 Y4.7551
G01 X12.2468 Y4.5937
G01 X12.4315 Y4.4595
G01 X12.6349 Y4.3558
G01 X12.8521 Y4.2853
G01 X13.0776 Y4.2495
G01 X13.8059 Y4.2495
G01 X14.0314 Y4.2853
G01 X14.2485 Y4.3558
G01 X14.4520 Y4.4595
G01 X14.6367 Y4.5937
G01 X14.7981 Y4.7551
G01 X14.9323 Y4.9398
G01 X15.0360 Y5.1432
G01 X15.1065 Y5.3604
G01 X15.1422 Y5.5859
G01 X15.1422 Y5.8142
G01 X15.1065 Y6.0397
G01 X15.0360 Y6.2569
G01 X14.9323 Y6.4603
G01 X14.7981 Y6.6450
G01 X14.6367 Y6.8064
G01 X14.4640 Y6.9319
G01 X14.4570 Y6.9380
G01 X14.4247 Y6.9722
G01 X14.4209 Y6.9771
G01 X14.4171 Y6.9835
G01 X14.4139 Y6.9916
G01 X14.3943 Y7.0586
G01 X14.3929 Y7.0644
G01 X14.3922 Y7.0727
G01 X14.3922 Y9.0260
G01 X14.3557 Y9.2096
G01 X14.2840 Y9.3826
G01 X14.1800 Y9.5383
G01 X11.3300 Y12.3884
G01 X11.1743 Y12.4924
G01 X11.0013 Y12.5640
G01 X10.8177 Y12.6006
G01 X8.3311 Y12.6006
G01 X8.3216 Y12.6015
G01 X8.2665 Y12.6135
G01 X8.2572 Y12.6170
G01 X8.2487 Y12.6224
G01 X8.1940 Y12.6697
G01 X8.1896 Y12.6741
G01 X8.1864 Y12.6779
G01 X8.1831 Y12.6831
G01 X8.1804 Y12.6887
G01 X8.1591 Y12.7605
G01 X8.1574 Y12.7686
G01 X8.1571 Y12.7745
G01 X8.1571 Y12.8475
G01 X8.1474 Y12.9423
G01 X8.0957 Y13.0981
G01 X8.0098 Y13.2375
G01 X7.8940 Y13.3533
G01 X7.7546 Y13.4392
G01 X7.5988 Y13.4909
G01 X7.5040 Y13.5006
G01 X5.1091 Y13.5006
G01 X5.0143 Y13.4909
G01 X4.8585 Y13.4392
G01 X4.7191 Y13.3533
G01 X4.6033 Y13.2375
G01 X4.5174 Y13.0981
G01 X4.4657 Y12.9423
G01 X4.4561 Y12.8475
G01 X4.4561 Y10.4526
G01 X4.4657 Y10.3578
G01 X4.5174 Y10.2020
G00 Z3.0000
G00 X5.0440 Y13.0781
G01 F60.00
G01 Z-0.1500
G01 F70.00
G01 X5.0130 Y13.0634
G01 X4.9899 Y13.0495
G01 X4.9662 Y13.0320
G01 X4.9427 Y13.0104
G01 X4.9246 Y12.9904
G01 X4.9071 Y12.9667
G01 X4.8920 Y12.9415
G01 X4.8804 Y12.9171
G01 X4.8695 Y12.8871
G01 X4.8619 Y12.8562
G01 X4.8580 Y12.8295
G01 X4.8566 Y12.8013
G01 X4.8566 Y10.4976
G01 X4.8580 Y10.4706
G01 X4.8629 Y10.4391
G01 X4.8695 Y10.4130
G01 X4.8785 Y10.3875
G01 X4.8909 Y10.3608
G01 X4.9071 Y10.3334
G01 X4.9246 Y10.3097
G01 X4.9444 Y10.2879
G01 X4.9653 Y10.2689
G01 X4.9899 Y10.2506
G01 X5.0130 Y10.2367
G01 X5.0440 Y10.2220
G01 X5.0695 Y10.2130
G01 X5.0980 Y10.2058
G01 X5.1271 Y10.2015
G01 X5.1553 Y10.2001
G01 X7.4565 Y10.2001
G01 X7.4860 Y10.2015
G01 X7.5127 Y10.2054
G01 X7.5460 Y10.2137
G01 X7.5714 Y10.2229
G01 X7.5958 Y10.2344
G01 X7.6232 Y10.2506
G01 X7.6487 Y10.2698
G01 X7.6687 Y10.2879
G01 X7.6869 Y10.3079
G01 X7.7060 Y10.3334
G01 X7.7211 Y10.3586
G01 X7.7327 Y10.3830
G01 X7.7440 Y10.4141
G01 X7.7508 Y10.4415
G01 X7.7548 Y10.4682
G01 X7.7565 Y10.4988
G01 X7.7566 Y11.0998
G01 X10.4961 Y11.0998
G01 X12.8915 Y8.7045
G01 X12.8915 Y6.7060
G01 X12.8846 Y6.7041
G01 X12.7899 Y6.6701
G01 X12.6968 Y6.6261
G01 X12.6084 Y6.5731
G01 X12.5238 Y6.5101
G01 X12.4476 Y6.4407
G01 X12.3801 Y6.3662
G01 X12.3201 Y6.2854
G01 X12.2657 Y6.1950
G01 X12.2208 Y6.0996
G01 X12.1863 Y6.0025
G01 X12.1619 Y5.9049
G01 X12.1471 Y5.8054
G01 X12.1417 Y5.7000
G01 X12.1468 Y5.5971
G01 X12.1619 Y5.4952
G01 X12.1877 Y5.3929
G01 X12.2216 Y5.2983
G01 X12.2646 Y5.2073
G01 X12.3187 Y5.1167
G01 X12.3801 Y5.0339
G01 X12.4510 Y4.9559
G01 X12.5256 Y4.8884
G01 X12.6064 Y4.8284
G01 X12.6968 Y4.7740
G01 X12.7899 Y4.7300
G01 X12.8893 Y4.6946
G01 X12.9869 Y4.6702
G01 X13.0864 Y4.6554
G01 X13.1893 Y4.6501
G01 X13.6917 Y4.6501
G01 X13.7922 Y4.6549
G01 X13.8966 Y4.6702
G01 X13.9965 Y4.6953
G01 X14.0958 Y4.7310
G01 X14.1867 Y4.7740
G01 X14.2751 Y4.8270
G01 X14.3597 Y4.8900
G01 X14.4342 Y4.9576
G01 X14.5026 Y5.0330
G01 X14.5648 Y5.1167
G01 X14.6177 Y5.2051
G01 X14.6618 Y5.2982
G01 X14.6965 Y5.3953
G01 X14.7216 Y5.4952
G01 X14.7367 Y5.5971
G01 X14.7417 Y5.7000
G01 X14.7364 Y5.8054
G01 X14.7216 Y5.9049
G01 X14.6972 Y6.0025
G01 X14.6618 Y6.1019
G01 X14.6177 Y6.1950
G01 X14.5661 Y6.2813
G01 X14.5034 Y6.3662
G01 X14.4324 Y6.4442
G01 X14.3578 Y6.5117
G01 X14.2751 Y6.5731
G01 X14.1867 Y6.6261
G01 X14.0958 Y6.6691
G01 X13.9989 Y6.7041
G01 X13.9920 Y6.7060
G01 X13.9920 Y8.9336
G01 X13.9893 Y8.9863
G01 X13.9809 Y9.0421
G01 X13.9683 Y9.0921
G01 X13.9510 Y9.1407
G01 X13.9281 Y9.1896
G01 X13.8978 Y9.2401
G01 X13.8671 Y9.2814
G01 X13.8308 Y9.3215
G01 X11.1131 Y12.0391
G01 X11.0741 Y12.0746
G01 X11.0298 Y12.1076
G01 X10.9856 Y12.1341
G01 X10.9323 Y12.1593
G01 X10.8838 Y12.1766
G01 X10.8314 Y12.1897
G01 X10.7780 Y12.1977
G01 X10.7265 Y12.2002
G01 X7.7566 Y12.2003
G01 X7.7565 Y12.8013
G01 X7.7548 Y12.8319
G01 X7.7508 Y12.8586
G01 X7.7440 Y12.8860
G01 X7.7327 Y12.9171
G01 X7.7211 Y12.9415
G01 X7.7073 Y12.9646
G01 X7.6885 Y12.9904
G01 X7.6669 Y13.0139
G01 X7.6469 Y13.0320
G01 X7.6252 Y13.0481
G01 X7.5980 Y13.0646
G01 X7.5714 Y13.0772
G01 X7.5460 Y13.0864
G01 X7.5139 Y13.0945
G01 X7.4860 Y13.0986
G01 X7.4565 Y13.1000
G01 X5.1566 Y13.1000
G01 X5.1271 Y13.0986
G01 X5.0980 Y13.0943
G01 X5.0695 Y13.0871
G01 X5.0440 Y13.0781
G00 Z3.0000
G00 X5.0664 Y15.6401
G01 F60.00
G01 Z-0.1500
G01 F70.00
G01 X5.2006 Y15.4554
G01 X5.3619 Y15.2941
G01 X5.5466 Y15.1599
G01 X5.7499 Y15.0563
G01 X5.7566 Y15.0541
G01 X5.7566 Y15.5069
G01 X5.7222 Y15.5277
G01 X5.6395 Y15.5892
G01 X5.5641 Y15.6576
G01 X5.4941 Y15.7349
G01 X5.4335 Y15.8167
G01 X5.3805 Y15.9051
G01 X5.3365 Y15.9982
G01 X5.3025 Y16.0929
G01 X5.3005 Y16.1001
G01 X4.8860 Y16.1000
G01 X4.8923 Y16.0605
G01 X4.9628 Y15.8434
G01 X5.0664 Y15.6401
G00 Z3.0000
G00 X7.0665 Y15.1599
G01 F60.00
G01 Z-0.1500
G01 F70.00
G01 X7.2512 Y15.2941
G01 X7.4125 Y15.4554
G01 X7.5467 Y15.6401
G01 X7.6503 Y15.8434
G01 X7.7208 Y16.0605
G01 X7.7271 Y16.1001
G01 X7.3126 Y16.1000
G01 X7.3106 Y16.0931
G01 X7.2766 Y15.9982
G01 X7.2326 Y15.9051
G01 X7.1796 Y15.8167
G01 X7.1190 Y15.7349
G01 X7.0490 Y15.6576
G01 X6.9736 Y15.5892
G01 X6.8909 Y15.5277
G01 X6.8566 Y15.5069
G01 X6.8566 Y15.0541
G01 X6.8632 Y15.0563
G01 X7.0665 Y15.1599
G00 Z3.0000
G00 X7.5467 Y17.6600
G01 F60.00
G01 Z-0.1500
G01 F70.00
G01 X7.4125 Y17.8447
G01 X7.2512 Y18.0060
G01 X7.0665 Y18.1402
G01 X6.8632 Y18.2438
G01 X6.8566 Y18.2460
G01 X6.8566 Y17.7932
G01 X6.8909 Y17.7724
G01 X6.9736 Y17.7109
G01 X7.0490 Y17.6425
G01 X7.1190 Y17.5652
G01 X7.1796 Y17.4834
G01 X7.2326 Y17.3950
G01 X7.2766 Y17.3019
G01 X7.3106 Y17.2072
G01 X7.3126 Y17.2000
G01 X7.7271 Y17.2000
G01 X7.7208 Y17.2396
G01 X7.6503 Y17.4567
G01 X7.5467 Y17.6600
G00 Z3.0000
G00 X5.5466 Y18.1402
G01 F60.00
G01 Z-0.1500
G01 F70.00
G01 X5.3619 Y18.0060
G01 X5.2006 Y17.8447
G01 X5.0664 Y17.6600
G01 X4.9628 Y17.4567
G01 X4.8923 Y17.2396
G01 X4.8860 Y17.2000
G01 X5.3005 Y17.2000
G01 X5.3025 Y17.2072
G01 X5.3365 Y17.3019
G01 X5.3805 Y17.3950
G01 X5.4335 Y17.4834
G01 X5.4941 Y17.5652
G01 X5.5641 Y17.6425
G01 X5.6395 Y17.7109
G01 X5.7222 Y17.7724
G01 X5.7566 Y17.7932
G01 X5.7566 Y18.2460
G01 X5.7499 Y18.2438
G01 X5.5466 Y18.1402
G00 Z3.0000
G00 X4.5731 Y21.9005
G01 F60.00
G01 Z-0.1500
G01 F70.00
G01 X4.6180 Y21.8051
G01 X4.6710 Y21.7167
G01 X4.7324 Y21.6339
G01 X4.8016 Y21.5576
G01 X4.8779 Y21.4884
G01 X4.9607 Y21.4270
G01 X5.0491 Y21.3740
G01 X5.1411 Y21.3305
G01 X5.2416 Y21.2946
G01 X5.3392 Y21.2702
G01 X5.4411 Y21.2551
G01 X5.5441 Y21.2501
G01 X6.0465 Y21.2501
G01 X6.1470 Y21.2551
G01 X6.2489 Y21.2702
G01 X6.3488 Y21.2953
G01 X6.4436 Y21.3291
G01 X6.5412 Y21.3752
G01 X6.6274 Y21.4270
G01 X6.7082 Y21.4869
G01 X6.7882 Y21.5594
G01 X6.8557 Y21.6339
G01 X6.9171 Y21.7167
G01 X6.9701 Y21.8051
G01 X7.0131 Y21.8960
G01 X7.0488 Y21.9953
G01 X7.0739 Y22.0952
G01 X7.0890 Y22.1971
G01 X7.0941 Y22.3000
G01 X7.0891 Y22.4017
G01 X7.0739 Y22.5049
G01 X7.0492 Y22.6037
G01 X7.0146 Y22.7007
G01 X7.0000 Y22.7318
G01 X7.0316 Y22.7743
G01 X7.0593 Y22.8207
G01 X7.0824 Y22.8695
G01 X7.0998 Y22.9180
G01 X7.1141 Y22.9751
G01 X7.1217 Y23.0261
G01 X7.1243 Y23.0800
G01 X7.1243 Y28.2941
G01 X7.1312 Y28.2960
G01 X7.2281 Y28.3310
G01 X7.3190 Y28.3740
G01 X7.4074 Y28.4270
G01 X7.4902 Y28.4884
G01 X7.5647 Y28.5559
G01 X7.6372 Y28.6359
G01 X7.6971 Y28.7167
G01 X7.7501 Y28.8051
G01 X7.7941 Y28.8982
G01 X7.8281 Y28.9929
G01 X7.8543 Y29.0976
G01 X7.8690 Y29.1971
G01 X7.8741 Y29.3000
G01 X7.8687 Y29.4054
G01 X7.8539 Y29.5049
G01 X7.8288 Y29.6048
G01 X7.7941 Y29.7019
G01 X7.7512 Y29.7928
G01 X7.6957 Y29.8854
G01 X7.6357 Y29.9662
G01 X7.5665 Y30.0425
G01 X7.4902 Y30.1117
G01 X7.4094 Y30.1717
G01 X7.3168 Y30.2272
G01 X7.2259 Y30.2701
G01 X7.1288 Y30.3048
G01 X7.0289 Y30.3299
G01 X6.9245 Y30.3452
G01 X6.8241 Y30.3500
G01 X6.3228 Y30.3500
G01 X6.2211 Y30.3450
G01 X6.1192 Y30.3299
G01 X6.0193 Y30.3048
G01 X5.9234 Y30.2706
G01 X5.8291 Y30.2261
G01 X5.7407 Y30.1731
G01 X5.6579 Y30.1117
G01 X5.5799 Y30.0407
G01 X5.5124 Y29.9662
G01 X5.4524 Y29.8854
G01 X5.3992 Y29.7972
G01 X5.3540 Y29.7019
G01 X5.3193 Y29.6048
G01 X5.2942 Y29.5049
G01 X5.2791 Y29.4030
G01 X5.2741 Y29.3000
G01 X5.2791 Y29.1971
G01 X5.2942 Y29.0952
G01 X5.3193 Y28.9953
G01 X5.3540 Y28.8983
G01 X5.3980 Y28.8051
G01 X5.4510 Y28.7167
G01 X5.5124 Y28.6339
G01 X5.5816 Y28.5576
G01 X5.6579 Y28.4884
G01 X5.7407 Y28.4270
G01 X5.8291 Y28.3740
G01 X5.9222 Y28.3300
G01 X6.0171 Y28.2960
G01 X6.0238 Y28.2941
G01 X6.0238 Y23.3500
G01 X5.5441 Y23.3500
G01 X5.4436 Y23.3452
G01 X5.3392 Y23.3299
G01 X5.2416 Y23.3055
G01 X5.1422 Y23.2701
G01 X5.0469 Y23.2249
G01 X4.9607 Y23.1731
G01 X4.8799 Y23.1132
G01 X4.8016 Y23.0425
G01 X4.7324 Y22.9662
G01 X4.6724 Y22.8854
G01 X4.6180 Y22.7950
G01 X4.5740 Y22.7019
G01 X4.5400 Y22.6072
G01 X4.5142 Y22.5049
G01 X4.4989 Y22.4005
G01 X4.4941 Y22.3000
G01 X4.4991 Y22.1971
G01 X4.5148 Y22.0928
G01 X4.5393 Y21.9953
G01 X4.5731 Y21.9005
G00 Z3.0000
G00 X4.1998 Y22.8568
G01 F60.00
G01 Z-0.1500
G01 F70.00
G01 X4.1293 Y22.6397
G01 X4.0936 Y22.4142
G01 X4.0936 Y22.1859
G01 X4.1293 Y21.9604
G01 X4.1998 Y21.7433
G01 X4.3035 Y21.5398
G01 X4.4377 Y21.3551
G01 X4.5991 Y21.1937
G01 X4.7838 Y21.0595
G01 X4.9873 Y20.9558
G01 X5.2044 Y20.8853
G01 X5.4299 Y20.8495
G01 X6.1582 Y20.8495
G01 X6.3837 Y20.8853
G01 X6.6009 Y20.9558
G01 X6.8043 Y21.0595
G01 X6.9890 Y21.1937
G01 X7.1504 Y21.3551
G01 X7.2846 Y21.5398
G01 X7.3883 Y21.7432
G01 X7.4588 Y21.9604
G01 X7.4946 Y22.1859
G01 X7.4946 Y22.4142
G01 X7.4585 Y22.6417
G01 X7.4558 Y22.6543
G01 X7.4552 Y22.6639
G01 X7.4637 Y22.7417
G01 X7.4661 Y22.7497
G01 X7.4880 Y22.8028
G01 X7.5246 Y22.9864
G01 X7.5246 Y27.9274
G01 X7.5249 Y27.9332
G01 X7.5341 Y27.9829
G01 X7.5358 Y27.9888
G01 X7.5382 Y27.9945
G01 X7.5434 Y28.0029
G01 X7.5861 Y28.0583
G01 X7.5900 Y28.0628
G01 X7.5963 Y28.0682
G01 X7.7690 Y28.1937
G01 X7.9304 Y28.3551
G01 X8.0646 Y28.5398
G01 X8.1683 Y28.7432
G01 X8.2388 Y28.9604
G01 X8.2746 Y29.1859
G01 X8.2746 Y29.4142
G01 X8.2388 Y29.6397
G01 X8.1683 Y29.8569
G01 X8.0646 Y30.0603
G01 X7.9304 Y30.2450
G01 X7.7690 Y30.4064
G01 X7.5843 Y30.5406
G01 X7.3809 Y30.6443
G01 X7.1637 Y30.7148
G01 X6.9382 Y30.7506
G01 X6.2099 Y30.7506
G01 X5.9844 Y30.7148
G01 X5.7672 Y30.6443
G01 X5.5638 Y30.5406
G01 X5.3791 Y30.4064
G01 X5.2177 Y30.2450
G01 X5.0835 Y30.0603
G01 X4.9798 Y29.8568
G01 X4.9093 Y29.6397
G01 X4.8736 Y29.4142
G01 X4.8736 Y29.1859
G01 X4.9093 Y28.9604
G01 X4.9798 Y28.7433
G01 X5.0835 Y28.5398
G01 X5.2177 Y28.3551
G01 X5.3791 Y28.1937
G01 X5.5518 Y28.0682
G01 X5.5588 Y28.0621
G01 X5.5911 Y28.0279
G01 X5.5956 Y28.0220
G01 X5.5987 Y28.0166
G01 X5.6018 Y28.0085
G01 X5.6215 Y27.9415
G01 X5.6232 Y27.9334
G01 X5.6236 Y27.9274
G01 X5.6236 Y23.9245
G01 X5.6232 Y23.9186
G01 X5.6109 Y23.8612
G01 X5.6086 Y23.8541
G01 X5.6053 Y23.8474
G01 X5.6001 Y23.8403
G01 X5.5536 Y23.7866
G01 X5.5462 Y23.7799
G01 X5.5388 Y23.7754
G01 X5.5307 Y23.7723
G01 X5.4590 Y23.7515
G01 X5.4507 Y23.7506
G01 X5.4299 Y23.7506
G01 X5.2044 Y23.7148
G01 X4.9872 Y23.6443
G01 X4.7838 Y23.5406
G01 X4.5991 Y23.4064
G01 X4.4377 Y23.2450
G01 X4.3035 Y23.0603
G01 X4.1998 Y22.8568
G00 Z3.0000
G00 X10.3531 Y28.9005
G01 F60.00
G01 Z-0.1500
G01 F70.00
G01 X10.3980 Y28.8051
G01 X10.4524 Y28.7147
G01 X10.5124 Y28.6339
G01 X10.5799 Y28.5594
G01 X10.6579 Y28.4884
G01 X10.7428 Y28.4257
G01 X10.8291 Y28.3740
G01 X10.9200 Y28.3310
G01 X11.0193 Y28.2952
G01 X11.1192 Y28.2702
G01 X11.2211 Y28.2551
G01 X11.3241 Y28.2501
G01 X11.8253 Y28.2501
G01 X11.9270 Y28.2551
G01 X12.0265 Y28.2698
G01 X12.1288 Y28.2953
G01 X12.2281 Y28.3310
G01 X12.3190 Y28.3740
G01 X12.4053 Y28.4257
G01 X12.4892 Y28.4876
G01 X12.5665 Y28.5576
G01 X12.6341 Y28.6321
G01 X12.6984 Y28.7188
G01 X12.7501 Y28.8051
G01 X12.7941 Y28.8982
G01 X12.8289 Y28.9953
G01 X12.8536 Y29.0940
G01 X12.8692 Y29.1996
G01 X12.8741 Y29.3000
G01 X12.8689 Y29.4042
G01 X12.8539 Y29.5049
G01 X12.8292 Y29.6037
G01 X12.7946 Y29.7007
G01 X12.7813 Y29.7291
G01 X17.4131 Y34.3610
G01 X17.4494 Y34.4010
G01 X17.4816 Y34.4443
G01 X17.5093 Y34.4907
G01 X17.5324 Y34.5395
G01 X17.5506 Y34.5903
G01 X17.5637 Y34.6427
G01 X17.5717 Y34.6961
G01 X17.5742 Y34.7476
G01 X17.5743 Y35.5571
G01 X17.6084 Y35.5777
G01 X17.6892 Y35.6376
G01 X17.7656 Y35.7067
G01 X17.8357 Y35.7839
G01 X17.8964 Y35.8657
G01 X17.9501 Y35.9551
G01 X17.9941 Y36.0482
G01 X18.0289 Y36.1453
G01 X18.0541 Y36.2464
G01 X18.0690 Y36.3471
G01 X18.0740 Y36.4488
G01 X18.0740 Y36.9513
G01 X18.0690 Y37.0530
G01 X18.0543 Y37.1525
G01 X18.0288 Y37.2548
G01 X17.9941 Y37.3519
G01 X17.9501 Y37.4450
G01 X17.8971 Y37.5334
G01 X17.8365 Y37.6152
G01 X17.7665 Y37.6925
G01 X17.6911 Y37.7609
G01 X17.6084 Y37.8224
G01 X17.5743 Y37.8430
G01 X17.5743 Y37.8713
G01 X17.5715 Y37.9252
G01 X17.5637 Y37.9774
G01 X17.5502 Y38.0309
G01 X17.5324 Y38.0806
G01 X17.5093 Y38.1294
G01 X17.4816 Y38.1757
G01 X17.4494 Y38.2191
G01 X17.4131 Y38.2591
G01 X16.1231 Y39.5492
G01 X16.1241 Y39.5700
G01 X16.1241 Y40.0700
G01 X16.1191 Y40.1717
G01 X16.1039 Y40.2749
G01 X16.0795 Y40.3725
G01 X16.0436 Y40.4730
G01 X16.0001 Y40.5650
G01 X15.9471 Y40.6534
G01 X15.8857 Y40.7362
G01 X15.8165 Y40.8125
G01 X15.7402 Y40.8817
G01 X15.6574 Y40.9431
G01 X15.5690 Y40.9961
G01 X15.4759 Y41.0401
G01 X15.3765 Y41.0755
G01 X15.2789 Y41.0999
G01 X15.1770 Y41.1150
G01 X15.0741 Y41.1200
G01 X14.9736 Y41.1152
G01 X14.8668 Y41.0993
G01 X14.7693 Y41.0748
G01 X14.6722 Y41.0401
G01 X14.5791 Y40.9961
G01 X14.4928 Y40.9444
G01 X14.4061 Y40.8801
G01 X14.3316 Y40.8125
G01 X14.2632 Y40.7371
G01 X14.1997 Y40.6513
G01 X14.1480 Y40.5650
G01 X14.1050 Y40.4741
G01 X14.0693 Y40.3748
G01 X14.0438 Y40.2725
G01 X14.0291 Y40.1730
G01 X14.0241 Y40.0713
G01 X14.0241 Y39.5700
G01 X14.0291 Y39.4671
G01 X14.0440 Y39.3664
G01 X14.0693 Y39.2653
G01 X14.1040 Y39.1683
G01 X14.1480 Y39.0751
G01 X14.2010 Y38.9867
G01 X14.2624 Y38.9039
G01 X14.3316 Y38.8276
G01 X14.4079 Y38.7584
G01 X14.4897 Y38.6977
G01 X14.5791 Y38.6440
G01 X14.6745 Y38.5991
G01 X14.7693 Y38.5652
G01 X14.8668 Y38.5408
G01 X14.9724 Y38.5250
G01 X15.0741 Y38.5201
G01 X15.1745 Y38.5249
G01 X15.2777 Y38.5400
G01 X15.3800 Y38.5656
G01 X15.4747 Y38.5995
G01 X15.5031 Y38.6128
G01 X16.3559 Y37.7600
G01 X16.2816 Y37.6925
G01 X16.2140 Y37.6180
G01 X16.1510 Y37.5334
G01 X16.0980 Y37.4450
G01 X16.0550 Y37.3541
G01 X16.0193 Y37.2548
G01 X15.9942 Y37.1549
G01 X15.9789 Y37.0505
G01 X15.9741 Y36.9500
G01 X15.9741 Y36.4476
G01 X15.9794 Y36.3447
G01 X15.9942 Y36.2452
G01 X16.0186 Y36.1476
G01 X16.0540 Y36.0483
G01 X16.0986 Y35.9540
G01 X16.1524 Y35.8647
G01 X16.2124 Y35.7839
G01 X16.2807 Y35.7085
G01 X16.3589 Y35.6376
G01 X16.4397 Y35.5777
G01 X16.4738 Y35.5571
G01 X16.4738 Y34.9780
G01 X11.8449 Y30.3491
G01 X11.8241 Y30.3500
G01 X11.3228 Y30.3500
G01 X11.2211 Y30.3450
G01 X11.1168 Y30.3293
G01 X11.0193 Y30.3048
G01 X10.9245 Y30.2710
G01 X10.8291 Y30.2261
G01 X10.7387 Y30.1717
G01 X10.6579 Y30.1117
G01 X10.5816 Y30.0425
G01 X10.5124 Y29.9662
G01 X10.4524 Y29.8854
G01 X10.3980 Y29.7950
G01 X10.3540 Y29.7019
G01 X10.3200 Y29.6072
G01 X10.2942 Y29.5049
G01 X10.2789 Y29.4005
G01 X10.2741 Y29.3000
G01 X10.2791 Y29.1971
G01 X10.2948 Y29.0928
G01 X10.3193 Y28.9953
G01 X10.3531 Y28.9005
G00 Z3.0000
G00 X18.3298 Y28.8068
G01 F60.00
G01 Z-0.1500
G01 F70.00
G01 X18.2593 Y28.5897
G01 X18.2236 Y28.3642
G01 X18.2236 Y27.6359
G01 X18.2593 Y27.4104
G01 X18.3298 Y27.1933
G01 X18.4335 Y26.9898
G01 X18.5677 Y26.8051
G01 X18.7291 Y26.6437
G01 X18.9138 Y26.5095
G01 X19.1173 Y26.4058
G01 X19.3344 Y26.3353
G01 X19.5599 Y26.2995
G01 X19.7882 Y26.2995
G01 X20.0137 Y26.3353
G01 X20.2309 Y26.4058
G01 X20.4343 Y26.5095
G01 X20.6190 Y26.6437
G01 X20.7804 Y26.8051
G01 X20.9146 Y26.9898
G01 X21.0183 Y27.1932
G01 X21.0888 Y27.4104
G01 X21.1246 Y27.6359
G01 X21.1246 Y28.0356
G01 X21.1280 Y28.0684
G01 X21.1293 Y28.0744
G01 X21.1319 Y28.0813
G01 X21.1676 Y28.1469
G01 X21.1708 Y28.1519
G01 X21.1747 Y28.1565
G01 X21.5168 Y28.4986
G01 X21.5424 Y28.5196
G01 X21.5507 Y28.5247
G01 X21.5587 Y28.5278
G01 X21.6269 Y28.5478
G01 X21.6339 Y28.5492
G01 X21.6398 Y28.5495
G01 X23.5712 Y28.5495
G01 X23.6029 Y28.5464
G01 X23.6125 Y28.5444
G01 X23.6204 Y28.5412
G01 X23.6828 Y28.5071
G01 X23.6888 Y28.5033
G01 X23.6942 Y28.4986
G01 X23.7991 Y28.3937
G01 X23.9838 Y28.2595
G01 X24.1873 Y28.1558
G01 X24.4044 Y28.0853
G01 X24.6299 Y28.0495
G01 X25.3582 Y28.0495
G01 X25.5837 Y28.0853
G01 X25.8009 Y28.1558
G01 X26.0043 Y28.2595
G01 X26.1890 Y28.3937
G01 X26.3504 Y28.5551
G01 X26.4846 Y28.7398
G01 X26.5883 Y28.9432
G01 X26.6588 Y29.1604
G01 X26.6946 Y29.3859
G01 X26.6946 Y29.6142
G01 X26.6588 Y29.8397
G01 X26.5883 Y30.0569
G01 X26.4846 Y30.2603
G01 X26.3504 Y30.4450
G01 X26.1890 Y30.6064
G01 X26.0043 Y30.7406
G01 X25.8009 Y30.8443
G01 X25.5837 Y30.9148
G01 X25.3582 Y30.9506
G01 X24.6299 Y30.9506
G01 X24.4044 Y30.9148
G01 X24.1872 Y30.8443
G01 X23.9838 Y30.7406
G01 X23.7991 Y30.6064
G01 X23.6932 Y30.5006
G01 X23.6656 Y30.4784
G01 X23.6603 Y30.4754
G01 X23.6535 Y30.4726
G01 X23.5852 Y30.4526
G01 X23.5783 Y30.4511
G01 X23.5712 Y30.4506
G01 X21.0804 Y30.4506
G01 X20.8968 Y30.4140
G01 X20.7238 Y30.3424
G01 X20.5681 Y30.2384
G01 X20.0591 Y29.7293
G01 X20.0537 Y29.7249
G01 X20.0150 Y29.6984
G01 X20.0075 Y29.6941
G01 X20.0017 Y29.6919
G01 X19.9944 Y29.6902
G01 X19.9239 Y29.6811
G01 X19.9168 Y29.6807
G01 X19.9097 Y29.6813
G01 X19.7882 Y29.7006
G01 X19.5599 Y29.7006
G01 X19.3344 Y29.6648
G01 X19.1172 Y29.5943
G01 X18.9138 Y29.4906
G01 X18.7291 Y29.3564
G01 X18.5677 Y29.1950
G01 X18.4335 Y29.0103
G01 X18.3298 Y28.8068
G00 Z3.0000
G00 X18.7031 Y27.3505
G01 F60.00
G01 Z-0.1500
G01 F70.00
G01 X18.7480 Y27.2551
G01 X18.8010 Y27.1667
G01 X18.8624 Y27.0839
G01 X18.9316 Y27.0076
G01 X19.0079 Y26.9384
G01 X19.0907 Y26.8770
G01 X19.1791 Y26.8240
G01 X19.2745 Y26.7791
G01 X19.3716 Y26.7446
G01 X19.4692 Y26.7202
G01 X19.5687 Y26.7054
G01 X19.6741 Y26.7001
G01 X19.7745 Y26.7049
G01 X19.8789 Y26.7202
G01 X19.9788 Y26.7453
G01 X20.0758 Y26.7800
G01 X20.1712 Y26.8252
G01 X20.2574 Y26.8770
G01 X20.3402 Y26.9384
G01 X20.4165 Y27.0076
G01 X20.4841 Y27.0821
G01 X20.5484 Y27.1688
G01 X20.6001 Y27.2551
G01 X20.6446 Y27.3494
G01 X20.6789 Y27.4453
G01 X20.7033 Y27.5428
G01 X20.7191 Y27.6484
G01 X20.7241 Y27.7500
G01 X20.7241 Y28.2500
G01 X20.7231 Y28.2709
G01 X21.4020 Y28.9498
G01 X23.8511 Y28.9498
G01 X23.8717 Y28.9157
G01 X23.9332 Y28.8330
G01 X24.0016 Y28.7576
G01 X24.0789 Y28.6876
G01 X24.1607 Y28.6270
G01 X24.2491 Y28.5740
G01 X24.3422 Y28.5300
G01 X24.4405 Y28.4949
G01 X24.5392 Y28.4702
G01 X24.6436 Y28.4549
G01 X24.7441 Y28.4501
G01 X25.2441 Y28.4501
G01 X25.3470 Y28.4551
G01 X25.4465 Y28.4698
G01 X25.5500 Y28.4956
G01 X25.6458 Y28.5300
G01 X25.7390 Y28.5740
G01 X25.8274 Y28.6270
G01 X25.9102 Y28.6884
G01 X25.9865 Y28.7576
G01 X26.0557 Y28.8339
G01 X26.1171 Y28.9167
G01 X26.1701 Y29.0051
G01 X26.2141 Y29.0982
G01 X26.2489 Y29.1953
G01 X26.2739 Y29.2952
G01 X26.2890 Y29.3971
G01 X26.2941 Y29.5000
G01 X26.2890 Y29.6030
G01 X26.2739 Y29.7049
G01 X26.2485 Y29.8060
G01 X26.2141 Y29.9018
G01 X26.1712 Y29.9928
G01 X26.1171 Y30.0834
G01 X26.0557 Y30.1662
G01 X25.9882 Y30.2407
G01 X25.9082 Y30.3132
G01 X25.8274 Y30.3731
G01 X25.7390 Y30.4261
G01 X25.6459 Y30.4701
G01 X25.5512 Y30.5041
G01 X25.4465 Y30.5303
G01 X25.3470 Y30.5450
G01 X25.2465 Y30.5500
G01 X24.7441 Y30.5500
G01 X24.6411 Y30.5450
G01 X24.5368 Y30.5293
G01 X24.4393 Y30.5048
G01 X24.3445 Y30.4710
G01 X24.2469 Y30.4249
G01 X24.1607 Y30.3731
G01 X24.0770 Y30.3109
G01 X24.0016 Y30.2425
G01 X23.9332 Y30.1671
G01 X23.8717 Y30.0844
G01 X23.8511 Y30.0503
G01 X21.1741 Y30.0503
G01 X21.1201 Y30.0477
G01 X21.0691 Y30.0401
G01 X21.0132 Y30.0262
G01 X20.9635 Y30.0084
G01 X20.9147 Y29.9853
G01 X20.8684 Y29.9576
G01 X20.8231 Y29.9238
G01 X20.7850 Y29.8891
G01 X20.1031 Y29.2073
G01 X20.0747 Y29.2206
G01 X19.9777 Y29.2552
G01 X19.8789 Y29.2799
G01 X19.7782 Y29.2949
G01 X19.6741 Y29.3000
G01 X19.5736 Y29.2952
G01 X19.4680 Y29.2796
G01 X19.3693 Y29.2548
G01 X19.2745 Y29.2210
G01 X19.1769 Y29.1749
G01 X19.0907 Y29.1231
G01 X19.0079 Y29.0617
G01 X18.9316 Y28.9925
G01 X18.8632 Y28.9171
G01 X18.7997 Y28.8313
G01 X18.7480 Y28.7450
G01 X18.7040 Y28.6519
G01 X18.6686 Y28.5525
G01 X18.6442 Y28.4549
G01 X18.6291 Y28.3530
G01 X18.6241 Y28.2500
G01 X18.6241 Y27.7500
G01 X18.6290 Y27.6484
G01 X18.6448 Y27.5428
G01 X18.6693 Y27.4453
G01 X18.7031 Y27.3505
G00 Z3.0000
G00 X18.7031 Y32.3505
G01 F60.00
G01 Z-0.1500
G01 F70.00
G01 X18.7492 Y32.2529
G01 X18.8010 Y32.1667
G01 X18.8640 Y32.0821
G01 X18.9316 Y32.0076
G01 X19.0079 Y31.9384
G01 X19.0907 Y31.8770
G01 X19.1813 Y31.8229
G01 X19.2722 Y31.7800
G01 X19.3693 Y31.7452
G01 X19.4692 Y31.7202
G01 X19.5711 Y31.7051
G01 X19.6741 Y31.7001
G01 X19.7770 Y31.7051
G01 X19.8789 Y31.7202
G01 X19.9800 Y31.7456
G01 X20.0781 Y31.7810
G01 X20.1690 Y31.8240
G01 X20.2553 Y31.8757
G01 X20.3402 Y31.9384
G01 X20.4165 Y32.0076
G01 X20.4872 Y32.0859
G01 X20.5471 Y32.1667
G01 X20.5989 Y32.2529
G01 X20.6441 Y32.3482
G01 X20.6781 Y32.4431
G01 X20.6800 Y32.4498
G01 X21.1741 Y32.4498
G01 X21.2292 Y32.4526
G01 X21.2838 Y32.4609
G01 X21.3338 Y32.4735
G01 X21.3823 Y32.4908
G01 X21.4334 Y32.5148
G01 X21.4818 Y32.5439
G01 X21.5231 Y32.5747
G01 X21.5631 Y32.6110
G01 X22.4931 Y33.5410
G01 X22.5294 Y33.5810
G01 X22.5602 Y33.6223
G01 X22.5904 Y33.6729
G01 X22.6124 Y33.7195
G01 X22.6306 Y33.7703
G01 X22.6441 Y33.8251
G01 X22.6517 Y33.8761
G01 X22.6542 Y33.9276
G01 X22.6543 Y35.5571
G01 X22.6884 Y35.5777
G01 X22.7692 Y35.6376
G01 X22.8474 Y35.7085
G01 X22.9157 Y35.7839
G01 X22.9757 Y35.8647
G01 X23.0295 Y35.9540
G01 X23.0741 Y36.0482
G01 X23.1095 Y36.1476
G01 X23.1339 Y36.2452
G01 X23.1487 Y36.3447
G01 X23.1540 Y36.4488
G01 X23.1541 Y36.9500
G01 X23.1492 Y37.0505
G01 X23.1339 Y37.1549
G01 X23.1085 Y37.2560
G01 X23.0741 Y37.3519
G01 X23.0312 Y37.4428
G01 X22.9757 Y37.5354
G01 X22.9157 Y37.6162
G01 X22.8465 Y37.6925
G01 X22.7702 Y37.7617
G01 X22.6894 Y37.8217
G01 X22.5990 Y37.8761
G01 X22.5036 Y37.9210
G01 X22.4065 Y37.9555
G01 X22.3089 Y37.9799
G01 X22.2094 Y37.9947
G01 X22.1041 Y38.0000
G01 X22.0011 Y37.9950
G01 X21.8992 Y37.9799
G01 X21.7969 Y37.9541
G01 X21.7000 Y37.9191
G01 X21.6091 Y37.8761
G01 X21.5228 Y37.8244
G01 X21.4379 Y37.7617
G01 X21.3616 Y37.6925
G01 X21.2909 Y37.6142
G01 X21.2310 Y37.5334
G01 X21.1792 Y37.4472
G01 X21.1340 Y37.3519
G01 X21.0993 Y37.2548
G01 X21.0742 Y37.1549
G01 X21.0594 Y37.0554
G01 X21.0541 Y36.9500
G01 X21.0541 Y36.4500
G01 X21.0589 Y36.3496
G01 X21.0742 Y36.2452
G01 X21.0989 Y36.1464
G01 X21.1340 Y36.0483
G01 X21.1780 Y35.9551
G01 X21.2310 Y35.8667
G01 X21.2916 Y35.7849
G01 X21.3616 Y35.7076
G01 X21.4370 Y35.6392
G01 X21.5197 Y35.5777
G01 X21.5538 Y35.5571
G01 X21.5538 Y34.1580
G01 X20.9461 Y33.5503
G01 X20.6800 Y33.5503
G01 X20.6781 Y33.5572
G01 X20.6441 Y33.6518
G01 X20.5989 Y33.7472
G01 X20.5471 Y33.8334
G01 X20.4872 Y33.9142
G01 X20.4165 Y33.9925
G01 X20.3382 Y34.0632
G01 X20.2574 Y34.1231
G01 X20.1712 Y34.1749
G01 X20.0759 Y34.2201
G01 X19.9788 Y34.2548
G01 X19.8789 Y34.2799
G01 X19.7770 Y34.2950
G01 X19.6741 Y34.3000
G01 X19.5687 Y34.2947
G01 X19.4692 Y34.2799
G01 X19.3716 Y34.2555
G01 X19.2745 Y34.2210
G01 X19.1791 Y34.1761
G01 X19.0917 Y34.1238
G01 X19.0079 Y34.0617
G01 X18.9316 Y33.9925
G01 X18.8624 Y33.9162
G01 X18.8010 Y33.8334
G01 X18.7480 Y33.7450
G01 X18.7040 Y33.6519
G01 X18.6693 Y33.5548
G01 X18.6445 Y33.4561
G01 X18.6291 Y33.3530
G01 X18.6241 Y33.2513
G01 X18.6241 Y32.7500
G01 X18.6289 Y32.6496
G01 X18.6448 Y32.5428
G01 X18.6693 Y32.4453
G01 X18.7031 Y32.3505
G00 Z3.0000
G00 X26.0600 Y33.8772
G01 F60.00
G01 Z-0.1500
G01 F70.00
G01 X26.0338 Y33.7725
G01 X26.0191 Y33.6730
G01 X26.0141 Y33.5725
G01 X26.0141 Y33.0700
G01 X26.0189 Y32.9696
G01 X26.0342 Y32.8652
G01 X26.0593 Y32.7653
G01 X26.0940 Y32.6683
G01 X26.1369 Y32.5773
G01 X26.1910 Y32.4867
G01 X26.2540 Y32.4021
G01 X26.3216 Y32.3276
G01 X26.3961 Y32.2600
G01 X26.4807 Y32.1970
G01 X26.5691 Y32.1440
G01 X26.6645 Y32.0991
G01 X26.7593 Y32.0652
G01 X26.8568 Y32.0408
G01 X26.9611 Y32.0251
G01 X27.0641 Y32.0201
G01 X27.1670 Y32.0251
G01 X27.2689 Y32.0402
G01 X27.3688 Y32.0653
G01 X27.4658 Y32.1000
G01 X27.5590 Y32.1440
G01 X27.6474 Y32.1970
G01 X27.7311 Y32.2592
G01 X27.8065 Y32.3276
G01 X27.8757 Y32.4039
G01 X27.9371 Y32.4867
G01 X27.9906 Y32.5762
G01 X28.0341 Y32.6682
G01 X28.0692 Y32.7665
G01 X28.0943 Y32.8676
G01 X28.1090 Y32.9671
G01 X28.1126 Y33.0398
G01 X32.1111 Y33.0398
G01 X32.1317 Y33.0057
G01 X32.1932 Y32.9230
G01 X32.2616 Y32.8476
G01 X32.3370 Y32.7792
G01 X32.4207 Y32.7170
G01 X32.5069 Y32.6652
G01 X32.6045 Y32.6191
G01 X32.6993 Y32.5852
G01 X32.7968 Y32.5608
G01 X32.9011 Y32.5451
G01 X33.0041 Y32.5401
G01 X33.5041 Y32.5401
G01 X33.6094 Y32.5454
G01 X33.7089 Y32.5602
G01 X33.8065 Y32.5846
G01 X33.9058 Y32.6200
G01 X34.0001 Y32.6646
G01 X34.0894 Y32.7184
G01 X34.1702 Y32.7784
G01 X34.2456 Y32.8467
G01 X34.3165 Y32.9249
G01 X34.3764 Y33.0057
G01 X34.3970 Y33.0398
G01 X34.7541 Y33.0398
G01 X34.8080 Y33.0424
G01 X34.8614 Y33.0504
G01 X34.9138 Y33.0635
G01 X34.9646 Y33.0817
G01 X35.0123 Y33.1042
G01 X35.0618 Y33.1339
G01 X35.1031 Y33.1647
G01 X35.1431 Y33.2010
G01 X36.4540 Y34.5118
G01 X36.4909 Y34.5529
G01 X36.5216 Y34.5943
G01 X36.5481 Y34.6385
G01 X36.5724 Y34.6895
G01 X36.5909 Y34.7415
G01 X36.6037 Y34.7927
G01 X36.6114 Y34.8437
G01 X36.6143 Y34.9000
G01 X36.6143 Y39.1721
G01 X38.1020 Y40.6598
G01 X39.7311 Y40.6598
G01 X39.7517 Y40.6257
G01 X39.8116 Y40.5449
G01 X39.8807 Y40.4685
G01 X39.9579 Y40.3984
G01 X40.0397 Y40.3377
G01 X40.1291 Y40.2840
G01 X40.2222 Y40.2400
G01 X40.3193 Y40.2053
G01 X40.4180 Y40.1805
G01 X40.5211 Y40.1651
G01 X40.6228 Y40.1601
G01 X41.1241 Y40.1601
G01 X41.2245 Y40.1649
G01 X41.3289 Y40.1802
G01 X41.4265 Y40.2046
G01 X41.5281 Y40.2410
G01 X41.6190 Y40.2840
G01 X41.7074 Y40.3370
G01 X41.7902 Y40.3984
G01 X41.8682 Y40.4694
G01 X41.9357 Y40.5439
G01 X41.9957 Y40.6247
G01 X42.0489 Y40.7129
G01 X42.0941 Y40.8082
G01 X42.1281 Y40.9029
G01 X42.1539 Y41.0052
G01 X42.1690 Y41.1071
G01 X42.1741 Y41.2100
G01 X42.1690 Y41.3130
G01 X42.1539 Y41.4149
G01 X42.1288 Y41.5148
G01 X42.0941 Y41.6119
G01 X42.0506 Y41.7039
G01 X41.9957 Y41.7954
G01 X41.9357 Y41.8762
G01 X41.8682 Y41.9507
G01 X41.7902 Y42.0217
G01 X41.7053 Y42.0844
G01 X41.6190 Y42.1361
G01 X41.5281 Y42.1791
G01 X41.4288 Y42.2148
G01 X41.3289 Y42.2399
G01 X41.2294 Y42.2547
G01 X41.1241 Y42.2600
G01 X40.6241 Y42.2600
G01 X40.5211 Y42.2550
G01 X40.4168 Y42.2393
G01 X40.3193 Y42.2148
G01 X40.2245 Y42.1810
G01 X40.1269 Y42.1349
G01 X40.0407 Y42.0831
G01 X39.9570 Y42.0209
G01 X39.8816 Y41.9525
G01 X39.8132 Y41.8771
G01 X39.7517 Y41.7944
G01 X39.7311 Y41.7603
G01 X37.8741 Y41.7603
G01 X37.8201 Y41.7577
G01 X37.7691 Y41.7501
G01 X37.7143 Y41.7366
G01 X37.6635 Y41.7184
G01 X37.6125 Y41.6941
G01 X37.5683 Y41.6676
G01 X37.5269 Y41.6369
G01 X37.4858 Y41.6000
G01 X35.6750 Y39.7891
G01 X35.6387 Y39.7491
G01 X35.6065 Y39.7058
G01 X35.5788 Y39.6594
G01 X35.5557 Y39.6106
G01 X35.5375 Y39.5598
G01 X35.5244 Y39.5074
G01 X35.5165 Y39.4540
G01 X35.5138 Y39.4013
G01 X35.5138 Y35.1280
G01 X34.5261 Y34.1403
G01 X34.3970 Y34.1403
G01 X34.3764 Y34.1744
G01 X34.3165 Y34.2552
G01 X34.2456 Y34.3334
G01 X34.1702 Y34.4017
G01 X34.0894 Y34.4617
G01 X33.9990 Y34.5161
G01 X33.9059 Y34.5601
G01 X33.8088 Y34.5948
G01 X33.7089 Y34.6199
G01 X33.6057 Y34.6351
G01 X33.5041 Y34.6400
G01 X33.0016 Y34.6400
G01 X32.9011 Y34.6350
G01 X32.8016 Y34.6203
G01 X32.6981 Y34.5945
G01 X32.6023 Y34.5601
G01 X32.5091 Y34.5161
G01 X32.4207 Y34.4631
G01 X32.3389 Y34.4025
G01 X32.2616 Y34.3325
G01 X32.1932 Y34.2571
G01 X32.1317 Y34.1744
G01 X32.1111 Y34.1403
G01 X27.9450 Y34.1403
G01 X27.9357 Y34.1554
G01 X27.8757 Y34.2362
G01 X27.8047 Y34.3142
G01 X27.7302 Y34.3817
G01 X27.6494 Y34.4417
G01 X27.5590 Y34.4961
G01 X27.4636 Y34.5410
G01 X27.3688 Y34.5748
G01 X27.2713 Y34.5993
G01 X27.1670 Y34.6150
G01 X27.0628 Y34.6200
G01 X26.9611 Y34.6150
G01 X26.8616 Y34.6003
G01 X26.7593 Y34.5748
G01 X26.6623 Y34.5401
G01 X26.5713 Y34.4972
G01 X26.4787 Y34.4417
G01 X26.3979 Y34.3817
G01 X26.3216 Y34.3125
G01 X26.2524 Y34.2362
G01 X26.1924 Y34.1554
G01 X26.1369 Y34.0628
G01 X26.0940 Y33.9719
G01 X26.0600 Y33.8772
G00 Z3.0000
G00 X33.5581 Y30.0500
G01 F60.00
G01 Z-0.1500
G01 F70.00
G01 X34.0109 Y30.0500
G01 X34.0317 Y30.0844
G01 X34.0932 Y30.1671
G01 X34.1616 Y30.2425
G01 X34.2389 Y30.3125
G01 X34.3207 Y30.3731
G01 X34.4091 Y30.4261
G01 X34.5022 Y30.4701
G01 X34.5969 Y30.5041
G01 X34.6041 Y30.5061
G01 X34.6041 Y30.9206
G01 X34.5645 Y30.9143
G01 X34.3474 Y30.8438
G01 X34.1441 Y30.7402
G01 X33.9594 Y30.6060
G01 X33.7981 Y30.4447
G01 X33.6639 Y30.2600
G01 X33.5603 Y30.0567
G01 X33.5581 Y30.0500
G00 Z3.0000
G00 X36.6442 Y30.2600
G01 F60.00
G01 Z-0.1500
G01 F70.00
G01 X36.5100 Y30.4447
G01 X36.3487 Y30.6060
G01 X36.1640 Y30.7402
G01 X35.9607 Y30.8438
G01 X35.7436 Y30.9143
G01 X35.7041 Y30.9206
G01 X35.7041 Y30.5061
G01 X35.7112 Y30.5041
G01 X35.8059 Y30.4701
G01 X35.8990 Y30.4261
G01 X35.9874 Y30.3731
G01 X36.0692 Y30.3125
G01 X36.1465 Y30.2425
G01 X36.2149 Y30.1671
G01 X36.2764 Y30.0844
G01 X36.2972 Y30.0500
G01 X36.7500 Y30.0501
G01 X36.7478 Y30.0567
G01 X36.6442 Y30.2600
G00 Z3.0000
G00 X39.7756 Y23.4500
G01 F60.00
G01 Z-0.1500
G01 F70.00
G01 X40.2284 Y23.4500
G01 X40.2492 Y23.4844
G01 X40.3107 Y23.5671
G01 X40.3791 Y23.6425
G01 X40.4564 Y23.7125
G01 X40.5382 Y23.7731
G01 X40.6266 Y23.8261
G01 X40.7197 Y23.8701
G01 X40.8144 Y23.9041
G01 X40.8216 Y23.9061
G01 X40.8216 Y24.3206
G01 X40.7820 Y24.3143
G01 X40.5649 Y24.2438
G01 X40.3616 Y24.1402
G01 X40.1769 Y24.0060
G01 X40.0156 Y23.8447
G01 X39.8814 Y23.6600
G01 X39.7778 Y23.4567
G01 X39.7756 Y23.4500
G00 Z3.0000
G00 X39.8814 Y22.1401
G01 F60.00
G01 Z-0.1500
G01 F70.00
G01 X40.0156 Y21.9554
G01 X40.1769 Y21.7941
G01 X40.3616 Y21.6599
G01 X40.5649 Y21.5563
G01 X40.7820 Y21.4858
G01 X40.8216 Y21.4795
G01 X40.8216 Y21.8940
G01 X40.8146 Y21.8960
G01 X40.7197 Y21.9300
G01 X40.6266 Y21.9740
G01 X40.5382 Y22.0270
G01 X40.4564 Y22.0876
G01 X40.3791 Y22.1576
G01 X40.3107 Y22.2330
G01 X40.2492 Y22.3157
G01 X40.2284 Y22.3501
G01 X39.7756 Y22.3500
G01 X39.7778 Y22.3434
G01 X39.8814 Y22.1401
G00 Z3.0000
G00 X42.0211 Y21.9291
G01 F60.00
G01 Z-0.1500
G01 F70.00
G01 X41.9287 Y21.8960
G01 X41.9216 Y21.8940
G01 X41.9216 Y21.4795
G01 X41.9611 Y21.4858
G01 X42.1782 Y21.5563
G01 X42.3815 Y21.6599
G01 X42.5662 Y21.7941
G01 X42.7275 Y21.9554
G01 X42.8617 Y22.1401
G01 X42.9653 Y22.3434
G01 X42.9675 Y22.3501
G01 X42.5147 Y22.3500
G01 X42.4939 Y22.3157
G01 X42.4324 Y22.2330
G01 X42.3640 Y22.1576
G01 X42.2886 Y22.0892
G01 X42.2049 Y22.0270
G01 X42.1187 Y21.9752
G01 X42.0211 Y21.9291
G00 Z3.0000
G00 X42.8617 Y23.6600
G01 F60.00
G01 Z-0.1500
G01 F70.00
G01 X42.7275 Y23.8447
G01 X42.5662 Y24.0060
G01 X42.3815 Y24.1402
G01 X42.1782 Y24.2438
G01 X41.9611 Y24.3143
G01 X41.9216 Y24.3206
G01 X41.9216 Y23.9061
G01 X41.9287 Y23.9041
G01 X42.0234 Y23.8701
G01 X42.1165 Y23.8261
G01 X42.2049 Y23.7731
G01 X42.2867 Y23.7125
G01 X42.3640 Y23.6425
G01 X42.4324 Y23.5671
G01 X42.4939 Y23.4844
G01 X42.5147 Y23.4500
G01 X42.9675 Y23.4501
G01 X42.9653 Y23.4567
G01 X42.8617 Y23.6600
G00 Z3.0000
G00 X44.5231 Y24.4505
G01 F60.00
G01 Z-0.1500
G01 F70.00
G01 X44.5680 Y24.3551
G01 X44.6224 Y24.2647
G01 X44.6824 Y24.1839
G01 X44.7499 Y24.1094
G01 X44.8279 Y24.0384
G01 X44.9128 Y23.9757
G01 X44.9991 Y23.9240
G01 X45.0900 Y23.8810
G01 X45.1893 Y23.8452
G01 X45.2892 Y23.8202
G01 X45.3936 Y23.8049
G01 X45.4941 Y23.8001
G01 X45.5945 Y23.8049
G01 X45.6989 Y23.8202
G01 X45.7988 Y23.8453
G01 X45.8958 Y23.8800
G01 X45.9912 Y23.9252
G01 X46.0774 Y23.9770
G01 X46.1582 Y24.0369
G01 X46.2356 Y24.1067
G01 X46.3057 Y24.1839
G01 X46.3671 Y24.2667
G01 X46.4201 Y24.3551
G01 X46.4641 Y24.4482
G01 X46.4989 Y24.5453
G01 X46.5239 Y24.6452
G01 X46.5390 Y24.7471
G01 X46.5441 Y24.8500
G01 X46.5440 Y25.3513
G01 X46.5390 Y25.4530
G01 X46.5233 Y25.5573
G01 X46.4988 Y25.6548
G01 X46.4650 Y25.7496
G01 X46.4201 Y25.8450
G01 X46.3657 Y25.9354
G01 X46.3057 Y26.0162
G01 X46.2374 Y26.0916
G01 X46.1602 Y26.1617
G01 X46.0774 Y26.2231
G01 X45.9890 Y26.2761
G01 X45.8959 Y26.3201
G01 X45.7988 Y26.3549
G01 X45.6989 Y26.3799
G01 X45.5970 Y26.3950
G01 X45.4941 Y26.4000
G01 X45.3911 Y26.3950
G01 X45.2892 Y26.3799
G01 X45.1893 Y26.3548
G01 X45.0922 Y26.3201
G01 X44.9991 Y26.2761
G01 X44.9107 Y26.2231
G01 X44.8279 Y26.1617
G01 X44.7525 Y26.0934
G01 X44.6824 Y26.0162
G01 X44.6224 Y25.9354
G01 X44.5669 Y25.8428
G01 X44.5240 Y25.7519
G01 X44.4893 Y25.6548
G01 X44.4642 Y25.5549
G01 X44.4494 Y25.4554
G01 X44.4441 Y25.3500
G01 X44.4441 Y24.8500
G01 X44.4490 Y24.7484
G01 X44.4648 Y24.6428
G01 X44.4893 Y24.5453
G01 X44.5231 Y24.4505
G00 Z3.0000
G00 X44.1498 Y25.9068
G01 F60.00
G01 Z-0.1500
G01 F70.00
G01 X44.0793 Y25.6897
G01 X44.0436 Y25.4642
G01 X44.0436 Y24.7359
G01 X44.0793 Y24.5104
G01 X44.1498 Y24.2933
G01 X44.2535 Y24.0898
G01 X44.3877 Y23.9051
G01 X44.5491 Y23.7437
G01 X44.7338 Y23.6095
G01 X44.9373 Y23.5058
G01 X45.1544 Y23.4353
G01 X45.3799 Y23.3995
G01 X45.6082 Y23.3995
G01 X45.8337 Y23.4353
G01 X46.0509 Y23.5058
G01 X46.2543 Y23.6095
G01 X46.4390 Y23.7437
G01 X46.6004 Y23.9051
G01 X46.7249 Y24.0763
G01 X46.7296 Y24.0819
G01 X46.7351 Y24.0867
G01 X46.7921 Y24.1293
G01 X46.7984 Y24.1331
G01 X46.8041 Y24.1356
G01 X46.8101 Y24.1373
G01 X46.8162 Y24.1383
G01 X46.8884 Y24.1435
G01 X46.8946 Y24.1434
G01 X46.9007 Y24.1425
G01 X46.9055 Y24.1413
G01 X46.9113 Y24.1391
G01 X46.9760 Y24.1039
G01 X46.9820 Y24.1001
G01 X46.9874 Y24.0954
G01 X47.0891 Y23.9937
G01 X47.2738 Y23.8595
G01 X47.4773 Y23.7558
G01 X47.6944 Y23.6853
G01 X47.9199 Y23.6495
G01 X48.1482 Y23.6495
G01 X48.3737 Y23.6853
G01 X48.5909 Y23.7558
G01 X48.7943 Y23.8595
G01 X48.9790 Y23.9937
G01 X49.1404 Y24.1551
G01 X49.1653 Y24.1893
G01 X49.1818 Y24.2082
G01 X49.1864 Y24.2124
G01 X49.1904 Y24.2153
G01 X49.2575 Y24.2510
G01 X49.2632 Y24.2534
G01 X49.2692 Y24.2551
G01 X49.2753 Y24.2561
G01 X49.2828 Y24.2562
G01 X49.3561 Y24.2498
G01 X49.3622 Y24.2486
G01 X49.3669 Y24.2471
G01 X49.3726 Y24.2445
G01 X49.3769 Y24.2420
G01 X49.4388 Y24.1941
G01 X49.4444 Y24.1879
G01 X49.4681 Y24.1554
G01 X49.6294 Y23.9941
G01 X49.8141 Y23.8599
G01 X50.0174 Y23.7563
G01 X50.0241 Y23.7541
G01 X50.0241 Y24.2069
G01 X49.9897 Y24.2277
G01 X49.9089 Y24.2876
G01 X49.8307 Y24.3585
G01 X49.7624 Y24.4339
G01 X49.7024 Y24.5147
G01 X49.6486 Y24.6040
G01 X49.6040 Y24.6983
G01 X49.5686 Y24.7976
G01 X49.5442 Y24.8952
G01 X49.5294 Y24.9947
G01 X49.5241 Y25.1000
G01 X49.5294 Y25.2054
G01 X49.5442 Y25.3049
G01 X49.5686 Y25.4025
G01 X49.6040 Y25.5019
G01 X49.6486 Y25.5961
G01 X49.7024 Y25.6854
G01 X49.7624 Y25.7662
G01 X49.8307 Y25.8416
G01 X49.9089 Y25.9125
G01 X49.9897 Y25.9724
G01 X50.0241 Y25.9932
G01 X50.0241 Y26.4460
G01 X50.0174 Y26.4438
G01 X49.8141 Y26.3402
G01 X49.6294 Y26.2060
G01 X49.4681 Y26.0447
G01 X49.4443 Y26.0120
G01 X49.4286 Y25.9937
G01 X49.4242 Y25.9893
G01 X49.4204 Y25.9862
G01 X49.4152 Y25.9828
G01 X49.3512 Y25.9491
G01 X49.3431 Y25.9459
G01 X49.3346 Y25.9442
G01 X49.3247 Y25.9440
G01 X49.2526 Y25.9503
G01 X49.2465 Y25.9515
G01 X49.2407 Y25.9535
G01 X49.2351 Y25.9561
G01 X49.2298 Y25.9595
G01 X49.1735 Y26.0029
G01 X49.1690 Y26.0068
G01 X49.1643 Y26.0122
G01 X49.1404 Y26.0450
G01 X48.9790 Y26.2064
G01 X48.7943 Y26.3406
G01 X48.5909 Y26.4443
G01 X48.3737 Y26.5148
G01 X48.1482 Y26.5506
G01 X47.9199 Y26.5506
G01 X47.6944 Y26.5148
G01 X47.4772 Y26.4443
G01 X47.2738 Y26.3406
G01 X47.0891 Y26.2064
G01 X46.9872 Y26.1045
G01 X46.9803 Y26.0985
G01 X46.9741 Y26.0946
G01 X46.9090 Y26.0604
G01 X46.9031 Y26.0583
G01 X46.8971 Y26.0569
G01 X46.8909 Y26.0563
G01 X46.8847 Y26.0564
G01 X46.8139 Y26.0625
G01 X46.8065 Y26.0639
G01 X46.8007 Y26.0658
G01 X46.7951 Y26.0685
G01 X46.7898 Y26.0719
G01 X46.7308 Y26.1175
G01 X46.7274 Y26.1209
G01 X46.7236 Y26.1255
G01 X46.6004 Y26.2950
G01 X46.4390 Y26.4564
G01 X46.2543 Y26.5906
G01 X46.0509 Y26.6943
G01 X45.8337 Y26.7648
G01 X45.6082 Y26.8006
G01 X45.3799 Y26.8006
G01 X45.1544 Y26.7648
G01 X44.9372 Y26.6943
G01 X44.7338 Y26.5906
G01 X44.5491 Y26.4564
G01 X44.3877 Y26.2950
G01 X44.2535 Y26.1103
G01 X44.1498 Y25.9068
G00 Z3.0000
G00 X47.0631 Y24.7005
G01 F60.00
G01 Z-0.1500
G01 F70.00
G01 X47.1080 Y24.6051
G01 X47.1610 Y24.5167
G01 X47.2224 Y24.4339
G01 X47.2916 Y24.3576
G01 X47.3679 Y24.2884
G01 X47.4507 Y24.2270
G01 X47.5391 Y24.1740
G01 X47.6322 Y24.1300
G01 X47.7293 Y24.0952
G01 X47.8292 Y24.0702
G01 X47.9311 Y24.0551
G01 X48.0341 Y24.0501
G01 X48.1370 Y24.0551
G01 X48.2389 Y24.0702
G01 X48.3388 Y24.0953
G01 X48.4358 Y24.1300
G01 X48.5290 Y24.1740
G01 X48.6174 Y24.2270
G01 X48.7002 Y24.2884
G01 X48.7765 Y24.3576
G01 X48.8457 Y24.4339
G01 X48.9071 Y24.5167
G01 X48.9601 Y24.6051
G01 X49.0041 Y24.6982
G01 X49.0389 Y24.7953
G01 X49.0639 Y24.8952
G01 X49.0790 Y24.9971
G01 X49.0841 Y25.1000
G01 X49.0790 Y25.2030
G01 X49.0639 Y25.3049
G01 X49.0388 Y25.4048
G01 X49.0041 Y25.5019
G01 X48.9601 Y25.5950
G01 X48.9071 Y25.6834
G01 X48.8457 Y25.7662
G01 X48.7765 Y25.8425
G01 X48.7002 Y25.9117
G01 X48.6174 Y25.9731
G01 X48.5290 Y26.0261
G01 X48.4359 Y26.0701
G01 X48.3388 Y26.1049
G01 X48.2389 Y26.1299
G01 X48.1370 Y26.1450
G01 X48.0341 Y26.1500
G01 X47.9311 Y26.1450
G01 X47.8292 Y26.1299
G01 X47.7293 Y26.1048
G01 X47.6322 Y26.0701
G01 X47.5391 Y26.0261
G01 X47.4507 Y25.9731
G01 X47.3679 Y25.9117
G01 X47.2916 Y25.8425
G01 X47.2224 Y25.7662
G01 X47.1610 Y25.6834
G01 X47.1080 Y25.5950
G01 X47.0640 Y25.5019
G01 X47.0293 Y25.4048
G01 X47.0042 Y25.3049
G01 X46.9891 Y25.2030
G01 X46.9841 Y25.1000
G01 X46.9891 Y24.9971
G01 X47.0042 Y24.8952
G01 X47.0293 Y24.7953
G01 X47.0631 Y24.7005
G00 Z3.0000
G00 X51.3340 Y23.8599
G01 F60.00
G01 Z-0.1500
G01 F70.00
G01 X51.5187 Y23.9941
G01 X51.6801 Y24.1554
G01 X51.7047 Y24.1893
G01 X51.7212 Y24.2082
G01 X51.7287 Y24.2146
G01 X51.7340 Y24.2179
G01 X51.7969 Y24.2510
G01 X51.8026 Y24.2534
G01 X51.8086 Y24.2551
G01 X51.8160 Y24.2561
G01 X51.8222 Y24.2562
G01 X51.8942 Y24.2500
G01 X51.9004 Y24.2489
G01 X51.9063 Y24.2471
G01 X51.9109 Y24.2451
G01 X51.9162 Y24.2420
G01 X51.9782 Y24.1941
G01 X51.9838 Y24.1879
G01 X52.0077 Y24.1551
G01 X52.1691 Y23.9937
G01 X52.3538 Y23.8595
G01 X52.5573 Y23.7558
G01 X52.7744 Y23.6853
G01 X52.9999 Y23.6495
G01 X53.2282 Y23.6495
G01 X53.4537 Y23.6853
G01 X53.6709 Y23.7558
G01 X53.8743 Y23.8595
G01 X54.0590 Y23.9937
G01 X54.1622 Y24.0969
G01 X54.1668 Y24.1009
G01 X54.1719 Y24.1043
G01 X54.2369 Y24.1387
G01 X54.2426 Y24.1411
G01 X54.2486 Y24.1428
G01 X54.2547 Y24.1437
G01 X54.2622 Y24.1438
G01 X54.3342 Y24.1376
G01 X54.3404 Y24.1365
G01 X54.3451 Y24.1351
G01 X54.3508 Y24.1327
G01 X54.3562 Y24.1297
G01 X54.4146 Y24.0848
G01 X54.4199 Y24.0801
G01 X54.4245 Y24.0746
G01 X54.5477 Y23.9051
G01 X54.7091 Y23.7437
G01 X54.8938 Y23.6095
G01 X55.0973 Y23.5058
G01 X55.3144 Y23.4353
G01 X55.5399 Y23.3995
G01 X55.7682 Y23.3995
G01 X55.9937 Y23.4353
G01 X56.2109 Y23.5058
G01 X56.4143 Y23.6095
G01 X56.5990 Y23.7437
G01 X56.7604 Y23.9051
G01 X56.7850 Y23.9388
G01 X56.8007 Y23.9569
G01 X56.8061 Y23.9620
G01 X56.8143 Y23.9674
G01 X56.8783 Y24.0011
G01 X56.8841 Y24.0034
G01 X56.8901 Y24.0049
G01 X56.8963 Y24.0057
G01 X56.9025 Y24.0057
G01 X56.9770 Y23.9992
G01 X56.9819 Y23.9982
G01 X56.9878 Y23.9962
G01 X56.9923 Y23.9941
G01 X56.9976 Y23.9909
G01 X57.0549 Y23.9468
G01 X57.0594 Y23.9429
G01 X57.0641 Y23.9375
G01 X57.0877 Y23.9051
G01 X57.2491 Y23.7437
G01 X57.4338 Y23.6095
G01 X57.6373 Y23.5058
G01 X57.8544 Y23.4353
G01 X58.0799 Y23.3995
G01 X58.3082 Y23.3995
G01 X58.5337 Y23.4353
G01 X58.7509 Y23.5058
G01 X58.9543 Y23.6095
G01 X59.1390 Y23.7437
G01 X59.3004 Y23.9051
G01 X59.3250 Y23.9388
G01 X59.3407 Y23.9569
G01 X59.3461 Y23.9620
G01 X59.3543 Y23.9674
G01 X59.4183 Y24.0011
G01 X59.4241 Y24.0034
G01 X59.4301 Y24.0049
G01 X59.4350 Y24.0056
G01 X59.4412 Y24.0058
G01 X59.5170 Y23.9992
G01 X59.5219 Y23.9982
G01 X59.5278 Y23.9962
G01 X59.5334 Y23.9935
G01 X59.5376 Y23.9909
G01 X59.5949 Y23.9468
G01 X59.5994 Y23.9429
G01 X59.6041 Y23.9375
G01 X59.6277 Y23.9051
G01 X59.7891 Y23.7437
G01 X59.9738 Y23.6095
G01 X60.1773 Y23.5058
G01 X60.3944 Y23.4353
G01 X60.6199 Y23.3995
G01 X60.8482 Y23.3995
G01 X61.0737 Y23.4353
G01 X61.2909 Y23.5058
G01 X61.4943 Y23.6095
G01 X61.6790 Y23.7437
G01 X61.8404 Y23.9051
G01 X61.8653 Y23.9393
G01 X61.8810 Y23.9573
G01 X61.8864 Y23.9624
G01 X61.8946 Y23.9679
G01 X61.9586 Y24.0016
G01 X61.9644 Y24.0038
G01 X61.9704 Y24.0054
G01 X61.9753 Y24.0061
G01 X61.9815 Y24.0062
G01 X62.0573 Y23.9996
G01 X62.0622 Y23.9986
G01 X62.0681 Y23.9966
G01 X62.0769 Y23.9920
G01 X62.1352 Y23.9472
G01 X62.1397 Y23.9433
G01 X62.1444 Y23.9379
G01 X62.1681 Y23.9054
G01 X62.3294 Y23.7441
G01 X62.5141 Y23.6099
G01 X62.7174 Y23.5063
G01 X62.7241 Y23.5041
G01 X62.7241 Y23.9569
G01 X62.6897 Y23.9777
G01 X62.6089 Y24.0376
G01 X62.5307 Y24.1085
G01 X62.4624 Y24.1839
G01 X62.4024 Y24.2647
G01 X62.3486 Y24.3540
G01 X62.3040 Y24.4483
G01 X62.2686 Y24.5476
G01 X62.2442 Y24.6452
G01 X62.2294 Y24.7447
G01 X62.2241 Y24.8500
G01 X62.2241 Y25.3500
G01 X62.2289 Y25.4505
G01 X62.2442 Y25.5549
G01 X62.2689 Y25.6537
G01 X62.3040 Y25.7519
G01 X62.3480 Y25.8450
G01 X62.4010 Y25.9334
G01 X62.4616 Y26.0152
G01 X62.5316 Y26.0925
G01 X62.6070 Y26.1609
G01 X62.6897 Y26.2224
G01 X62.7241 Y26.2432
G01 X62.7241 Y26.6960
G01 X62.7174 Y26.6938
G01 X62.5141 Y26.5902
G01 X62.3294 Y26.4560
G01 X62.1681 Y26.2947
G01 X62.1434 Y26.2608
G01 X62.1277 Y26.2428
G01 X62.1224 Y26.2377
G01 X62.1142 Y26.2323
G01 X62.0501 Y26.1985
G01 X62.0443 Y26.1963
G01 X62.0383 Y26.1947
G01 X62.0322 Y26.1940
G01 X62.0259 Y26.1939
G01 X61.9514 Y26.2005
G01 X61.9453 Y26.2018
G01 X61.9407 Y26.2035
G01 X61.9361 Y26.2056
G01 X61.9308 Y26.2088
G01 X61.8735 Y26.2529
G01 X61.8690 Y26.2568
G01 X61.8643 Y26.2622
G01 X61.8404 Y26.2950
G01 X61.6790 Y26.4564
G01 X61.4943 Y26.5906
G01 X61.2909 Y26.6943
G01 X61.0737 Y26.7648
G01 X60.8482 Y26.8006
G01 X60.6199 Y26.8006
G01 X60.3944 Y26.7648
G01 X60.1772 Y26.6943
G01 X59.9738 Y26.5906
G01 X59.7891 Y26.4564
G01 X59.6277 Y26.2950
G01 X59.6031 Y26.2613
G01 X59.5874 Y26.2432
G01 X59.5821 Y26.2381
G01 X59.5738 Y26.2327
G01 X59.5098 Y26.1990
G01 X59.5052 Y26.1971
G01 X59.4992 Y26.1954
G01 X59.4931 Y26.1945
G01 X59.4881 Y26.1943
G01 X59.4111 Y26.2009
G01 X59.4050 Y26.2023
G01 X59.4003 Y26.2039
G01 X59.3958 Y26.2060
G01 X59.3905 Y26.2092
G01 X59.3332 Y26.2533
G01 X59.3287 Y26.2572
G01 X59.3240 Y26.2626
G01 X59.3004 Y26.2950
G01 X59.1390 Y26.4564
G01 X58.9543 Y26.5906
G01 X58.7509 Y26.6943
G01 X58.5337 Y26.7648
G01 X58.3082 Y26.8006
G01 X58.0799 Y26.8006
G01 X57.8544 Y26.7648
G01 X57.6372 Y26.6943
G01 X57.4338 Y26.5906
G01 X57.2491 Y26.4564
G01 X57.0877 Y26.2950
G01 X57.0631 Y26.2613
G01 X57.0474 Y26.2432
G01 X57.0421 Y26.2381
G01 X57.0338 Y26.2327
G01 X56.9698 Y26.1990
G01 X56.9652 Y26.1971
G01 X56.9592 Y26.1954
G01 X56.9543 Y26.1946
G01 X56.9481 Y26.1943
G01 X56.8711 Y26.2009
G01 X56.8650 Y26.2023
G01 X56.8603 Y26.2039
G01 X56.8558 Y26.2060
G01 X56.8505 Y26.2092
G01 X56.7932 Y26.2533
G01 X56.7887 Y26.2572
G01 X56.7840 Y26.2626
G01 X56.7604 Y26.2950
G01 X56.5990 Y26.4564
G01 X56.4143 Y26.5906
G01 X56.2109 Y26.6943
G01 X55.9937 Y26.7648
G01 X55.7682 Y26.8006
G01 X55.5399 Y26.8006
G01 X55.3144 Y26.7648
G01 X55.0972 Y26.6943
G01 X54.8938 Y26.5906
G01 X54.7091 Y26.4564
G01 X54.5477 Y26.2950
G01 X54.4245 Y26.1255
G01 X54.4193 Y26.1191
G01 X54.4130 Y26.1134
G01 X54.3560 Y26.0708
G01 X54.3474 Y26.0659
G01 X54.3380 Y26.0628
G01 X54.3306 Y26.0617
G01 X54.2597 Y26.0566
G01 X54.2535 Y26.0567
G01 X54.2474 Y26.0576
G01 X54.2402 Y26.0596
G01 X54.2345 Y26.0621
G01 X54.1711 Y26.0968
G01 X54.1652 Y26.1008
G01 X54.1607 Y26.1047
G01 X54.0590 Y26.2064
G01 X53.8743 Y26.3406
G01 X53.6709 Y26.4443
G01 X53.4537 Y26.5148
G01 X53.2282 Y26.5506
G01 X52.9999 Y26.5506
G01 X52.7744 Y26.5148
G01 X52.5572 Y26.4443
G01 X52.3538 Y26.3406
G01 X52.1691 Y26.2064
G01 X52.0077 Y26.0450
G01 X51.9828 Y26.0108
G01 X51.9671 Y25.9928
G01 X51.9618 Y25.9877
G01 X51.9535 Y25.9823
G01 X51.8895 Y25.9485
G01 X51.8849 Y25.9467
G01 X51.8789 Y25.9450
G01 X51.8691 Y25.9439
G01 X51.7920 Y25.9503
G01 X51.7859 Y25.9515
G01 X51.7812 Y25.9530
G01 X51.7755 Y25.9556
G01 X51.7713 Y25.9581
G01 X51.7129 Y26.0029
G01 X51.7084 Y26.0068
G01 X51.7037 Y26.0122
G01 X51.6800 Y26.0447
G01 X51.5187 Y26.2060
G01 X51.3340 Y26.3402
G01 X51.1307 Y26.4438
G01 X51.1241 Y26.4460
G01 X51.1241 Y25.9932
G01 X51.1584 Y25.9724
G01 X51.2392 Y25.9125
G01 X51.3156 Y25.8434
G01 X51.3857 Y25.7662
G01 X51.4478 Y25.6824
G01 X51.5012 Y25.5928
G01 X51.5441 Y25.5019
G01 X51.5781 Y25.4072
G01 X51.6039 Y25.3049
G01 X51.6191 Y25.2017
G01 X51.6241 Y25.1000
G01 X51.6192 Y24.9996
G01 X51.6039 Y24.8952
G01 X51.5781 Y24.7929
G01 X51.5441 Y24.6982
G01 X51.5006 Y24.6062
G01 X51.4457 Y24.5147
G01 X51.3857 Y24.4339
G01 X51.3174 Y24.3585
G01 X51.2392 Y24.2876
G01 X51.1584 Y24.2277
G01 X51.1241 Y24.2069
G01 X51.1241 Y23.7541
G01 X51.1307 Y23.7563
G01 X51.3340 Y23.8599
G00 Z3.0000
G00 X52.1431 Y24.7005
G01 F60.00
G01 Z-0.1500
G01 F70.00
G01 X52.1880 Y24.6051
G01 X52.2410 Y24.5167
G01 X52.3024 Y24.4339
G01 X52.3716 Y24.3576
G01 X52.4479 Y24.2884
G01 X52.5307 Y24.2270
G01 X52.6191 Y24.1740
G01 X52.7122 Y24.1300
G01 X52.8093 Y24.0952
G01 X52.9092 Y24.0702
G01 X53.0111 Y24.0551
G01 X53.1141 Y24.0501
G01 X53.2170 Y24.0551
G01 X53.3189 Y24.0702
G01 X53.4188 Y24.0953
G01 X53.5158 Y24.1300
G01 X53.6090 Y24.1740
G01 X53.6974 Y24.2270
G01 X53.7802 Y24.2884
G01 X53.8565 Y24.3576
G01 X53.9257 Y24.4339
G01 X53.9871 Y24.5167
G01 X54.0401 Y24.6051
G01 X54.0841 Y24.6982
G01 X54.1189 Y24.7953
G01 X54.1439 Y24.8952
G01 X54.1590 Y24.9971
G01 X54.1641 Y25.1000
G01 X54.1590 Y25.2030
G01 X54.1439 Y25.3049
G01 X54.1188 Y25.4048
G01 X54.0841 Y25.5019
G01 X54.0401 Y25.5950
G01 X53.9871 Y25.6834
G01 X53.9257 Y25.7662
G01 X53.8565 Y25.8425
G01 X53.7802 Y25.9117
G01 X53.6974 Y25.9731
G01 X53.6090 Y26.0261
G01 X53.5159 Y26.0701
G01 X53.4188 Y26.1049
G01 X53.3189 Y26.1299
G01 X53.2170 Y26.1450
G01 X53.1141 Y26.1500
G01 X53.0111 Y26.1450
G01 X52.9092 Y26.1299
G01 X52.8093 Y26.1048
G01 X52.7122 Y26.0701
G01 X52.6191 Y26.0261
G01 X52.5307 Y25.9731
G01 X52.4479 Y25.9117
G01 X52.3716 Y25.8425
G01 X52.3024 Y25.7662
G01 X52.2410 Y25.6834
G01 X52.1880 Y25.5950
G01 X52.1440 Y25.5019
G01 X52.1093 Y25.4048
G01 X52.0842 Y25.3049
G01 X52.0691 Y25.2030
G01 X52.0641 Y25.1000
G01 X52.0691 Y24.9971
G01 X52.0842 Y24.8952
G01 X52.1093 Y24.7953
G01 X52.1431 Y24.7005
G00 Z3.0000
G00 X54.6831 Y24.4505
G01 F60.00
G01 Z-0.1500
G01 F70.00
G01 X54.7280 Y24.3551
G01 X54.7824 Y24.2647
G01 X54.8424 Y24.1839
G01 X54.9099 Y24.1094
G01 X54.9879 Y24.0384
G01 X55.0728 Y23.9757
G01 X55.1591 Y23.9240
G01 X55.2500 Y23.8810
G01 X55.3493 Y23.8452
G01 X55.4492 Y23.8202
G01 X55.5536 Y23.8049
G01 X55.6541 Y23.8001
G01 X55.7545 Y23.8049
G01 X55.8589 Y23.8202
G01 X55.9588 Y23.8453
G01 X56.0558 Y23.8800
G01 X56.1512 Y23.9252
G01 X56.2374 Y23.9770
G01 X56.3182 Y24.0369
G01 X56.3956 Y24.1067
G01 X56.4657 Y24.1839
G01 X56.5271 Y24.2667
G01 X56.5801 Y24.3551
G01 X56.6241 Y24.4482
G01 X56.6589 Y24.5453
G01 X56.6839 Y24.6452
G01 X56.6990 Y24.7471
G01 X56.7041 Y24.8500
G01 X56.7040 Y25.3513
G01 X56.6990 Y25.4530
G01 X56.6833 Y25.5573
G01 X56.6588 Y25.6548
G01 X56.6250 Y25.7496
G01 X56.5801 Y25.8450
G01 X56.5257 Y25.9354
G01 X56.4657 Y26.0162
G01 X56.3974 Y26.0916
G01 X56.3202 Y26.1617
G01 X56.2374 Y26.2231
G01 X56.1490 Y26.2761
G01 X56.0559 Y26.3201
G01 X55.9588 Y26.3549
G01 X55.8589 Y26.3799
G01 X55.7570 Y26.3950
G01 X55.6541 Y26.4000
G01 X55.5511 Y26.3950
G01 X55.4492 Y26.3799
G01 X55.3493 Y26.3548
G01 X55.2522 Y26.3201
G01 X55.1591 Y26.2761
G01 X55.0707 Y26.2231
G01 X54.9879 Y26.1617
G01 X54.9125 Y26.0934
G01 X54.8424 Y26.0162
G01 X54.7824 Y25.9354
G01 X54.7269 Y25.8428
G01 X54.6840 Y25.7519
G01 X54.6493 Y25.6548
G01 X54.6242 Y25.5549
G01 X54.6094 Y25.4554
G01 X54.6041 Y25.3500
G01 X54.6041 Y24.8500
G01 X54.6090 Y24.7484
G01 X54.6248 Y24.6428
G01 X54.6493 Y24.5453
G01 X54.6831 Y24.4505
G00 Z3.0000
G00 X57.2231 Y24.4505
G01 F60.00
G01 Z-0.1500
G01 F70.00
G01 X57.2680 Y24.3551
G01 X57.3224 Y24.2647
G01 X57.3824 Y24.1839
G01 X57.4499 Y24.1094
G01 X57.5279 Y24.0384
G01 X57.6128 Y23.9757
G01 X57.6991 Y23.9240
G01 X57.7900 Y23.8810
G01 X57.8893 Y23.8452
G01 X57.9892 Y23.8202
G01 X58.0936 Y23.8049
G01 X58.1941 Y23.8001
G01 X58.2945 Y23.8049
G01 X58.3989 Y23.8202
G01 X58.4988 Y23.8453
G01 X58.5958 Y23.8800
G01 X58.6912 Y23.9252
G01 X58.7774 Y23.9770
G01 X58.8582 Y24.0369
G01 X58.9356 Y24.1067
G01 X59.0057 Y24.1839
G01 X59.0671 Y24.2667
G01 X59.1201 Y24.3551
G01 X59.1641 Y24.4482
G01 X59.1989 Y24.5453
G01 X59.2239 Y24.6452
G01 X59.2390 Y24.7471
G01 X59.2441 Y24.8500
G01 X59.2440 Y25.3513
G01 X59.2390 Y25.4530
G01 X59.2233 Y25.5573
G01 X59.1988 Y25.6548
G01 X59.1650 Y25.7496
G01 X59.1201 Y25.8450
G01 X59.0657 Y25.9354
G01 X59.0057 Y26.0162
G01 X58.9374 Y26.0916
G01 X58.8602 Y26.1617
G01 X58.7774 Y26.2231
G01 X58.6890 Y26.2761
G01 X58.5959 Y26.3201
G01 X58.4988 Y26.3549
G01 X58.3989 Y26.3799
G01 X58.2970 Y26.3950
G01 X58.1941 Y26.4000
G01 X58.0911 Y26.3950
G01 X57.9892 Y26.3799
G01 X57.8893 Y26.3548
G01 X57.7922 Y26.3201
G01 X57.6991 Y26.2761
G01 X57.6107 Y26.2231
G01 X57.5279 Y26.1617
G01 X57.4525 Y26.0934
G01 X57.3824 Y26.0162
G01 X57.3224 Y25.9354
G01 X57.2669 Y25.8428
G01 X57.2240 Y25.7519
G01 X57.1893 Y25.6548
G01 X57.1642 Y25.5549
G01 X57.1494 Y25.4554
G01 X57.1441 Y25.3500
G01 X57.1441 Y24.8500
G01 X57.1490 Y24.7484
G01 X57.1648 Y24.6428
G01 X57.1893 Y24.5453
G01 X57.2231 Y24.4505
G00 Z3.0000
G00 X59.7631 Y24.4505
G01 F60.00
G01 Z-0.1500
G01 F70.00
G01 X59.8080 Y24.3551
G01 X59.8624 Y24.2647
G01 X59.9224 Y24.1839
G01 X59.9899 Y24.1094
G01 X60.0679 Y24.0384
G01 X60.1528 Y23.9757
G01 X60.2391 Y23.9240
G01 X60.3300 Y23.8810
G01 X60.4293 Y23.8452
G01 X60.5292 Y23.8202
G01 X60.6336 Y23.8049
G01 X60.7341 Y23.8001
G01 X60.8345 Y23.8049
G01 X60.9389 Y23.8202
G01 X61.0388 Y23.8453
G01 X61.1358 Y23.8800
G01 X61.2312 Y23.9252
G01 X61.3174 Y23.9770
G01 X61.3982 Y24.0369
G01 X61.4756 Y24.1067
G01 X61.5457 Y24.1839
G01 X61.6071 Y24.2667
G01 X61.6601 Y24.3551
G01 X61.7041 Y24.4482
G01 X61.7389 Y24.5453
G01 X61.7639 Y24.6452
G01 X61.7790 Y24.7471
G01 X61.7841 Y24.8500
G01 X61.7840 Y25.3513
G01 X61.7790 Y25.4530
G01 X61.7633 Y25.5573
G01 X61.7388 Y25.6548
G01 X61.7050 Y25.7496
G01 X61.6601 Y25.8450
G01 X61.6057 Y25.9354
G01 X61.5457 Y26.0162
G01 X61.4774 Y26.0916
G01 X61.4002 Y26.1617
G01 X61.3174 Y26.2231
G01 X61.2290 Y26.2761
G01 X61.1359 Y26.3201
G01 X61.0388 Y26.3549
G01 X60.9389 Y26.3799
G01 X60.8370 Y26.3950
G01 X60.7341 Y26.4000
G01 X60.6311 Y26.3950
G01 X60.5292 Y26.3799
G01 X60.4293 Y26.3548
G01 X60.3322 Y26.3201
G01 X60.2391 Y26.2761
G01 X60.1507 Y26.2231
G01 X60.0679 Y26.1617
G01 X59.9925 Y26.0934
G01 X59.9224 Y26.0162
G01 X59.8624 Y25.9354
G01 X59.8069 Y25.8428
G01 X59.7640 Y25.7519
G01 X59.7293 Y25.6548
G01 X59.7042 Y25.5549
G01 X59.6894 Y25.4554
G01 X59.6841 Y25.3500
G01 X59.6841 Y24.8500
G01 X59.6890 Y24.7484
G01 X59.7048 Y24.6428
G01 X59.7293 Y24.5453
G01 X59.7631 Y24.4505
G00 Z3.0000
G00 X64.8431 Y24.4505
G01 F60.00
G01 Z-0.1500
G01 F70.00
G01 X64.8880 Y24.3551
G01 X64.9424 Y24.2647
G01 X65.0024 Y24.1839
G01 X65.0699 Y24.1094
G01 X65.1479 Y24.0384
G01 X65.2328 Y23.9757
G01 X65.3191 Y23.9240
G01 X65.4100 Y23.8810
G01 X65.5093 Y23.8452
G01 X65.6092 Y23.8202
G01 X65.7136 Y23.8049
G01 X65.8141 Y23.8001
G01 X65.9145 Y23.8049
G01 X66.0189 Y23.8202
G01 X66.1188 Y23.8453
G01 X66.2158 Y23.8800
G01 X66.3112 Y23.9252
G01 X66.3974 Y23.9770
G01 X66.4782 Y24.0369
G01 X66.5556 Y24.1067
G01 X66.6257 Y24.1839
G01 X66.6871 Y24.2667
G01 X66.7401 Y24.3551
G01 X66.7841 Y24.4482
G01 X66.8189 Y24.5453
G01 X66.8439 Y24.6452
G01 X66.8590 Y24.7471
G01 X66.8641 Y24.8500
G01 X66.8640 Y25.3513
G01 X66.8590 Y25.4530
G01 X66.8433 Y25.5573
G01 X66.8188 Y25.6548
G01 X66.7850 Y25.7496
G01 X66.7401 Y25.8450
G01 X66.6857 Y25.9354
G01 X66.6257 Y26.0162
G01 X66.5574 Y26.0916
G01 X66.4802 Y26.1617
G01 X66.3974 Y26.2231
G01 X66.3090 Y26.2761
G01 X66.2159 Y26.3201
G01 X66.1188 Y26.3549
G01 X66.0189 Y26.3799
G01 X65.9170 Y26.3950
G01 X65.8141 Y26.4000
G01 X65.7111 Y26.3950
G01 X65.6092 Y26.3799
G01 X65.5093 Y26.3548
G01 X65.4122 Y26.3201
G01 X65.3191 Y26.2761
G01 X65.2307 Y26.2231
G01 X65.1479 Y26.1617
G01 X65.0725 Y26.0934
G01 X65.0024 Y26.0162
G01 X64.9424 Y25.9354
G01 X64.8869 Y25.8428
G01 X64.8440 Y25.7519
G01 X64.8093 Y25.6548
G01 X64.7842 Y25.5549
G01 X64.7694 Y25.4554
G01 X64.7641 Y25.3500
G01 X64.7641 Y24.8500
G01 X64.7690 Y24.7484
G01 X64.7848 Y24.6428
G01 X64.8093 Y24.5453
G01 X64.8431 Y24.4505
G00 Z3.0000
G00 X67.3831 Y24.4505
G01 F60.00
G01 Z-0.1500
G01 F70.00
G01 X67.4280 Y24.3551
G01 X67.4824 Y24.2647
G01 X67.5424 Y24.1839
G01 X67.6099 Y24.1094
G01 X67.6879 Y24.0384
G01 X67.7728 Y23.9757
G01 X67.8591 Y23.9240
G01 X67.9500 Y23.8810
G01 X68.0493 Y23.8452
G01 X68.1492 Y23.8202
G01 X68.2536 Y23.8049
G01 X68.3541 Y23.8001
G01 X68.4545 Y23.8049
G01 X68.5589 Y23.8202
G01 X68.6588 Y23.8453
G01 X68.7558 Y23.8800
G01 X68.8512 Y23.9252
G01 X68.9374 Y23.9770
G01 X69.0182 Y24.0369
G01 X69.0956 Y24.1067
G01 X69.1657 Y24.1839
G01 X69.2271 Y24.2667
G01 X69.2801 Y24.3551
G01 X69.3241 Y24.4482
G01 X69.3589 Y24.5453
G01 X69.3839 Y24.6452
G01 X69.3990 Y24.7471
G01 X69.4041 Y24.8500
G01 X69.4040 Y25.3513
G01 X69.3990 Y25.4530
G01 X69.3833 Y25.5573
G01 X69.3588 Y25.6548
G01 X69.3250 Y25.7496
G01 X69.2801 Y25.8450
G01 X69.2257 Y25.9354
G01 X69.1657 Y26.0162
G01 X69.0974 Y26.0916
G01 X69.0202 Y26.1617
G01 X68.9374 Y26.2231
G01 X68.8490 Y26.2761
G01 X68.7559 Y26.3201
G01 X68.6588 Y26.3549
G01 X68.5589 Y26.3799
G01 X68.4570 Y26.3950
G01 X68.3541 Y26.4000
G01 X68.2511 Y26.3950
G01 X68.1492 Y26.3799
G01 X68.0493 Y26.3548
G01 X67.9522 Y26.3201
G01 X67.8591 Y26.2761
G01 X67.7707 Y26.2231
G01 X67.6879 Y26.1617
G01 X67.6125 Y26.0934
G01 X67.5424 Y26.0162
G01 X67.4824 Y25.9354
G01 X67.4269 Y25.8428
G01 X67.3840 Y25.7519
G01 X67.3493 Y25.6548
G01 X67.3242 Y25.5549
G01 X67.3094 Y25.4554
G01 X67.3041 Y25.3500
G01 X67.3041 Y24.8500
G01 X67.3090 Y24.7484
G01 X67.3248 Y24.6428
G01 X67.3493 Y24.5453
G01 X67.3831 Y24.4505
G00 Z3.0000
G00 X72.4631 Y24.4505
G01 F60.00
G01 Z-0.1500
G01 F70.00
G01 X72.5080 Y24.3551
G01 X72.5624 Y24.2647
G01 X72.6224 Y24.1839
G01 X72.6899 Y24.1094
G01 X72.7679 Y24.0384
G01 X72.8528 Y23.9757
G01 X72.9391 Y23.9240
G01 X73.0300 Y23.8810
G01 X73.1293 Y23.8452
G01 X73.2292 Y23.8202
G01 X73.3336 Y23.8049
G01 X73.4341 Y23.8001
G01 X73.5345 Y23.8049
G01 X73.6389 Y23.8202
G01 X73.7388 Y23.8453
G01 X73.8358 Y23.8800
G01 X73.9312 Y23.9252
G01 X74.0174 Y23.9770
G01 X74.0982 Y24.0369
G01 X74.1756 Y24.1067
G01 X74.2457 Y24.1839
G01 X74.3071 Y24.2667
G01 X74.3601 Y24.3551
G01 X74.4041 Y24.4482
G01 X74.4389 Y24.5453
G01 X74.4639 Y24.6452
G01 X74.4790 Y24.7471
G01 X74.4841 Y24.8500
G01 X74.4840 Y25.3513
G01 X74.4790 Y25.4530
G01 X74.4633 Y25.5573
G01 X74.4388 Y25.6548
G01 X74.4050 Y25.7496
G01 X74.3601 Y25.8450
G01 X74.3057 Y25.9354
G01 X74.2457 Y26.0162
G01 X74.1774 Y26.0916
G01 X74.1002 Y26.1617
G01 X74.0174 Y26.2231
G01 X73.9290 Y26.2761
G01 X73.8359 Y26.3201
G01 X73.7388 Y26.3549
G01 X73.6389 Y26.3799
G01 X73.5370 Y26.3950
G01 X73.4341 Y26.4000
G01 X73.3311 Y26.3950
G01 X73.2292 Y26.3799
G01 X73.1293 Y26.3548
G01 X73.0322 Y26.3201
G01 X72.9391 Y26.2761
G01 X72.8507 Y26.2231
G01 X72.7679 Y26.1617
G01 X72.6925 Y26.0934
G01 X72.6224 Y26.0162
G01 X72.5624 Y25.9354
G01 X72.5069 Y25.8428
G01 X72.4640 Y25.7519
G01 X72.4293 Y25.6548
G01 X72.4042 Y25.5549
G01 X72.3894 Y25.4554
G01 X72.3841 Y25.3500
G01 X72.3841 Y24.8500
G01 X72.3890 Y24.7484
G01 X72.4048 Y24.6428
G01 X72.4293 Y24.5453
G01 X72.4631 Y24.4505
G00 Z3.0000
G00 X75.0031 Y24.4505
G01 F60.00
G01 Z-0.1500
G01 F70.00
G01 X75.0480 Y24.3551
G01 X75.1024 Y24.2647
G01 X75.1624 Y24.1839
G01 X75.2299 Y24.1094
G01 X75.3079 Y24.0384
G01 X75.3928 Y23.9757
G01 X75.4791 Y23.9240
G01 X75.5700 Y23.8810
G01 X75.6693 Y23.8452
G01 X75.7692 Y23.8202
G01 X75.8736 Y23.8049
G01 X75.9741 Y23.8001
G01 X76.0745 Y23.8049
G01 X76.1789 Y23.8202
G01 X76.2788 Y23.8453
G01 X76.3758 Y23.8800
G01 X76.4712 Y23.9252
G01 X76.5574 Y23.9770
G01 X76.6382 Y24.0369
G01 X76.7156 Y24.1067
G01 X76.7857 Y24.1839
G01 X76.8471 Y24.2667
G01 X76.9001 Y24.3551
G01 X76.9441 Y24.4482
G01 X76.9789 Y24.5453
G01 X77.0039 Y24.6452
G01 X77.0190 Y24.7471
G01 X77.0241 Y24.8500
G01 X77.0240 Y25.3513
G01 X77.0190 Y25.4530
G01 X77.0033 Y25.5573
G01 X76.9788 Y25.6548
G01 X76.9450 Y25.7496
G01 X76.9001 Y25.8450
G01 X76.8457 Y25.9354
G01 X76.7857 Y26.0162
G01 X76.7174 Y26.0916
G01 X76.6402 Y26.1617
G01 X76.5574 Y26.2231
G01 X76.4690 Y26.2761
G01 X76.3759 Y26.3201
G01 X76.2788 Y26.3549
G01 X76.1789 Y26.3799
G01 X76.0770 Y26.3950
G01 X75.9741 Y26.4000
G01 X75.8711 Y26.3950
G01 X75.7692 Y26.3799
G01 X75.6693 Y26.3548
G01 X75.5722 Y26.3201
G01 X75.4791 Y26.2761
G01 X75.3907 Y26.2231
G01 X75.3079 Y26.1617
G01 X75.2325 Y26.0934
G01 X75.1624 Y26.0162
G01 X75.1024 Y25.9354
G01 X75.0469 Y25.8428
G01 X75.0040 Y25.7519
G01 X74.9693 Y25.6548
G01 X74.9442 Y25.5549
G01 X74.9294 Y25.4554
G01 X74.9241 Y25.3500
G01 X74.9241 Y24.8500
G01 X74.9290 Y24.7484
G01 X74.9448 Y24.6428
G01 X74.9693 Y24.5453
G01 X75.0031 Y24.4505
G00 Z3.0000
G00 X77.5431 Y24.4505
G01 F60.00
G01 Z-0.1500
G01 F70.00
G01 X77.5880 Y24.3551
G01 X77.6424 Y24.2647
G01 X77.7024 Y24.1839
G01 X77.7699 Y24.1094
G01 X77.8479 Y24.0384
G01 X77.9328 Y23.9757
G01 X78.0191 Y23.9240
G01 X78.1100 Y23.8810
G01 X78.2093 Y23.8452
G01 X78.3092 Y23.8202
G01 X78.4136 Y23.8049
G01 X78.5141 Y23.8001
G01 X78.6145 Y23.8049
G01 X78.7189 Y23.8202
G01 X78.8188 Y23.8453
G01 X78.9158 Y23.8800
G01 X79.0112 Y23.9252
G01 X79.0974 Y23.9770
G01 X79.1782 Y24.0369
G01 X79.2556 Y24.1067
G01 X79.3257 Y24.1839
G01 X79.3871 Y24.2667
G01 X79.4401 Y24.3551
G01 X79.4841 Y24.4482
G01 X79.5189 Y24.5453
G01 X79.5439 Y24.6452
G01 X79.5590 Y24.7471
G01 X79.5641 Y24.8500
G01 X79.5640 Y25.3513
G01 X79.5590 Y25.4530
G01 X79.5433 Y25.5573
G01 X79.5188 Y25.6548
G01 X79.4850 Y25.7496
G01 X79.4401 Y25.8450
G01 X79.3857 Y25.9354
G01 X79.3257 Y26.0162
G01 X79.2574 Y26.0916
G01 X79.1802 Y26.1617
G01 X79.0974 Y26.2231
G01 X79.0090 Y26.2761
G01 X78.9159 Y26.3201
G01 X78.8188 Y26.3549
G01 X78.7189 Y26.3799
G01 X78.6170 Y26.3950
G01 X78.5141 Y26.4000
G01 X78.4111 Y26.3950
G01 X78.3092 Y26.3799
G01 X78.2093 Y26.3548
G01 X78.1122 Y26.3201
G01 X78.0191 Y26.2761
G01 X77.9307 Y26.2231
G01 X77.8479 Y26.1617
G01 X77.7725 Y26.0934
G01 X77.7024 Y26.0162
G01 X77.6424 Y25.9354
G01 X77.5869 Y25.8428
G01 X77.5440 Y25.7519
G01 X77.5093 Y25.6548
G01 X77.4842 Y25.5549
G01 X77.4694 Y25.4554
G01 X77.4641 Y25.3500
G01 X77.4641 Y24.8500
G01 X77.4690 Y24.7484
G01 X77.4848 Y24.6428
G01 X77.5093 Y24.5453
G01 X77.5431 Y24.4505
G00 Z3.0000
G00 X80.0831 Y24.4505
G01 F60.00
G01 Z-0.1500
G01 F70.00
G01 X80.1280 Y24.3551
G01 X80.1824 Y24.2647
G01 X80.2424 Y24.1839
G01 X80.3099 Y24.1094
G01 X80.3879 Y24.0384
G01 X80.4728 Y23.9757
G01 X80.5591 Y23.9240
G01 X80.6500 Y23.8810
G01 X80.7493 Y23.8452
G01 X80.8492 Y23.8202
G01 X80.9536 Y23.8049
G01 X81.0541 Y23.8001
G01 X81.1545 Y23.8049
G01 X81.2589 Y23.8202
G01 X81.3588 Y23.8453
G01 X81.4558 Y23.8800
G01 X81.5512 Y23.9252
G01 X81.6374 Y23.9770
G01 X81.7182 Y24.0369
G01 X81.7956 Y24.1067
G01 X81.8657 Y24.1839
G01 X81.9271 Y24.2667
G01 X81.9801 Y24.3551
G01 X82.0241 Y24.4482
G01 X82.0589 Y24.5453
G01 X82.0839 Y24.6452
G01 X82.0990 Y24.7471
G01 X82.1041 Y24.8500
G01 X82.1040 Y25.3513
G01 X82.0990 Y25.4530
G01 X82.0833 Y25.5573
G01 X82.0588 Y25.6548
G01 X82.0250 Y25.7496
G01 X81.9801 Y25.8450
G01 X81.9257 Y25.9354
G01 X81.8657 Y26.0162
G01 X81.7974 Y26.0916
G01 X81.7202 Y26.1617
G01 X81.6374 Y26.2231
G01 X81.5490 Y26.2761
G01 X81.4559 Y26.3201
G01 X81.3588 Y26.3549
G01 X81.2589 Y26.3799
G01 X81.1570 Y26.3950
G01 X81.0541 Y26.4000
G01 X80.9511 Y26.3950
G01 X80.8492 Y26.3799
G01 X80.7493 Y26.3548
G01 X80.6522 Y26.3201
G01 X80.5591 Y26.2761
G01 X80.4707 Y26.2231
G01 X80.3879 Y26.1617
G01 X80.3125 Y26.0934
G01 X80.2424 Y26.0162
G01 X80.1824 Y25.9354
G01 X80.1269 Y25.8428
G01 X80.0840 Y25.7519
G01 X80.0493 Y25.6548
G01 X80.0242 Y25.5549
G01 X80.0094 Y25.4554
G01 X80.0041 Y25.3500
G01 X80.0041 Y24.8500
G01 X80.0090 Y24.7484
G01 X80.0248 Y24.6428
G01 X80.0493 Y24.5453
G01 X80.0831 Y24.4505
G00 Z3.0000
G00 X82.6231 Y24.4505
G01 F60.00
G01 Z-0.1500
G01 F70.00
G01 X82.6680 Y24.3551
G01 X82.7224 Y24.2647
G01 X82.7824 Y24.1839
G01 X82.8499 Y24.1094
G01 X82.9279 Y24.0384
G01 X83.0128 Y23.9757
G01 X83.0991 Y23.9240
G01 X83.1900 Y23.8810
G01 X83.2893 Y23.8452
G01 X83.3892 Y23.8202
G01 X83.4936 Y23.8049
G01 X83.5941 Y23.8001
G01 X83.6945 Y23.8049
G01 X83.7989 Y23.8202
G01 X83.8988 Y23.8453
G01 X83.9958 Y23.8800
G01 X84.0912 Y23.9252
G01 X84.1774 Y23.9770
G01 X84.2582 Y24.0369
G01 X84.3356 Y24.1067
G01 X84.4057 Y24.1839
G01 X84.4671 Y24.2667
G01 X84.5201 Y24.3551
G01 X84.5641 Y24.4482
G01 X84.5989 Y24.5453
G01 X84.6239 Y24.6452
G01 X84.6390 Y24.7471
G01 X84.6441 Y24.8500
G01 X84.6440 Y25.3513
G01 X84.6390 Y25.4530
G01 X84.6233 Y25.5573
G01 X84.5988 Y25.6548
G01 X84.5650 Y25.7496
G01 X84.5201 Y25.8450
G01 X84.4657 Y25.9354
G01 X84.4057 Y26.0162
G01 X84.3374 Y26.0916
G01 X84.2602 Y26.1617
G01 X84.1774 Y26.2231
G01 X84.0890 Y26.2761
G01 X83.9959 Y26.3201
G01 X83.8988 Y26.3549
G01 X83.7989 Y26.3799
G01 X83.6970 Y26.3950
G01 X83.5941 Y26.4000
G01 X83.4911 Y26.3950
G01 X83.3892 Y26.3799
G01 X83.2893 Y26.3548
G01 X83.1922 Y26.3201
G01 X83.0991 Y26.2761
G01 X83.0107 Y26.2231
G01 X82.9279 Y26.1617
G01 X82.8525 Y26.0934
G01 X82.7824 Y26.0162
G01 X82.7224 Y25.9354
G01 X82.6669 Y25.8428
G01 X82.6240 Y25.7519
G01 X82.5893 Y25.6548
G01 X82.5642 Y25.5549
G01 X82.5494 Y25.4554
G01 X82.5441 Y25.3500
G01 X82.5441 Y24.8500
G01 X82.5490 Y24.7484
G01 X82.5648 Y24.6428
G01 X82.5893 Y24.5453
G01 X82.6231 Y24.4505
G00 Z3.0000
G00 X85.1631 Y24.4505
G01 F60.00
G01 Z-0.1500
G01 F70.00
G01 X85.2080 Y24.3551
G01 X85.2624 Y24.2647
G01 X85.3224 Y24.1839
G01 X85.3899 Y24.1094
G01 X85.4679 Y24.0384
G01 X85.5528 Y23.9757
G01 X85.6391 Y23.9240
G01 X85.7300 Y23.8810
G01 X85.8293 Y23.8452
G01 X85.9292 Y23.8202
G01 X86.0336 Y23.8049
G01 X86.1341 Y23.8001
G01 X86.2345 Y23.8049
G01 X86.3389 Y23.8202
G01 X86.4388 Y23.8453
G01 X86.5358 Y23.8800
G01 X86.6312 Y23.9252
G01 X86.7174 Y23.9770
G01 X86.7982 Y24.0369
G01 X86.8756 Y24.1067
G01 X86.9457 Y24.1839
G01 X87.0071 Y24.2667
G01 X87.0601 Y24.3551
G01 X87.1041 Y24.4482
G01 X87.1389 Y24.5453
G01 X87.1639 Y24.6452
G01 X87.1790 Y24.7471
G01 X87.1841 Y24.8500
G01 X87.1840 Y25.3513
G01 X87.1790 Y25.4530
G01 X87.1633 Y25.5573
G01 X87.1388 Y25.6548
G01 X87.1050 Y25.7496
G01 X87.0601 Y25.8450
G01 X87.0057 Y25.9354
G01 X86.9457 Y26.0162
G01 X86.8774 Y26.0916
G01 X86.8002 Y26.1617
G01 X86.7174 Y26.2231
G01 X86.6290 Y26.2761
G01 X86.5359 Y26.3201
G01 X86.4388 Y26.3549
G01 X86.3389 Y26.3799
G01 X86.2370 Y26.3950
G01 X86.1341 Y26.4000
G01 X86.0311 Y26.3950
G01 X85.9292 Y26.3799
G01 X85.8293 Y26.3548
G01 X85.7323 Y26.3201
G01 X85.6391 Y26.2761
G01 X85.5507 Y26.2231
G01 X85.4679 Y26.1617
G01 X85.3925 Y26.0934
G01 X85.3224 Y26.0162
G01 X85.2624 Y25.9354
G01 X85.2069 Y25.8428
G01 X85.1640 Y25.7519
G01 X85.1293 Y25.6548
G01 X85.1042 Y25.5549
G01 X85.0894 Y25.4554
G01 X85.0841 Y25.3500
G01 X85.0841 Y24.8500
G01 X85.0890 Y24.7484
G01 X85.1048 Y24.6428
G01 X85.1293 Y24.5453
G01 X85.1631 Y24.4505
G00 Z3.0000
G00 X83.4174 Y20.3265
G01 F60.00
G01 Z-0.1500
G01 F70.00
G01 X83.3654 Y20.1195
G01 X83.3344 Y19.9108
G01 X83.3241 Y19.7000
G01 X83.3344 Y19.4893
G01 X83.3654 Y19.2806
G01 X83.4166 Y19.0759
G01 X83.4877 Y18.8773
G01 X83.5779 Y18.6865
G01 X83.6864 Y18.5056
G01 X83.8121 Y18.3361
G01 X83.9538 Y18.1798
G01 X84.1101 Y18.0381
G01 X84.2796 Y17.9124
G01 X84.4605 Y17.8039
G01 X84.6513 Y17.7137
G01 X84.8499 Y17.6426
G01 X85.0546 Y17.5914
G01 X85.2633 Y17.5604
G01 X85.4741 Y17.5501
G01 X85.6846 Y17.5604
G01 X85.8935 Y17.5914
G01 X86.0982 Y17.6426
G01 X86.2968 Y17.7137
G01 X86.4876 Y17.8039
G01 X86.6685 Y17.9124
G01 X86.8380 Y18.0381
G01 X86.9943 Y18.1798
G01 X87.1360 Y18.3361
G01 X87.2617 Y18.5056
G01 X87.3702 Y18.6865
G01 X87.4604 Y18.8773
G01 X87.5315 Y19.0759
G01 X87.5827 Y19.2806
G01 X87.6137 Y19.4893
G01 X87.6241 Y19.7000
G01 X87.6137 Y19.9106
G01 X87.5827 Y20.1195
G01 X87.5315 Y20.3241
G01 X87.4604 Y20.5228
G01 X87.3702 Y20.7136
G01 X87.2617 Y20.8945
G01 X87.1360 Y21.0640
G01 X86.9943 Y21.2203
G01 X86.8380 Y21.3620
G01 X86.6684 Y21.4878
G01 X86.4876 Y21.5962
G01 X86.2968 Y21.6864
G01 X86.0981 Y21.7575
G01 X85.8935 Y21.8087
G01 X85.6848 Y21.8397
G01 X85.4741 Y21.8500
G01 X85.2633 Y21.8397
G01 X85.0546 Y21.8087
G01 X84.8499 Y21.7575
G01 X84.6513 Y21.6864
G01 X84.4605 Y21.5962
G01 X84.2796 Y21.4877
G01 X84.1101 Y21.3620
G01 X83.9538 Y21.2203
G01 X83.8121 Y21.0640
G01 X83.6865 Y20.8946
G01 X83.5779 Y20.7136
G01 X83.4877 Y20.5228
G01 X83.4174 Y20.3265
G00 Z3.0000
G00 X82.9236 Y19.8433
G01 F60.00
G01 Z-0.1500
G01 F70.00
G01 X82.9236 Y19.5568
G01 X82.9556 Y19.2722
G01 X83.0194 Y18.9929
G01 X83.1140 Y18.7225
G01 X83.2383 Y18.4644
G01 X83.3907 Y18.2218
G01 X83.5693 Y17.9979
G01 X83.7719 Y17.7953
G01 X83.9958 Y17.6167
G01 X84.2384 Y17.4643
G01 X84.4965 Y17.3400
G01 X84.7669 Y17.2454
G01 X85.0462 Y17.1816
G01 X85.3308 Y17.1495
G01 X85.6173 Y17.1496
G01 X85.9019 Y17.1816
G01 X86.1812 Y17.2454
G01 X86.4516 Y17.3400
G01 X86.7097 Y17.4643
G01 X86.9523 Y17.6167
G01 X87.1762 Y17.7953
G01 X87.3788 Y17.9979
G01 X87.5574 Y18.2218
G01 X87.7098 Y18.4644
G01 X87.8341 Y18.7225
G01 X87.9287 Y18.9929
G01 X87.9925 Y19.2722
G01 X88.0246 Y19.5568
G01 X88.0246 Y19.8433
G01 X87.9925 Y20.1279
G01 X87.9287 Y20.4072
G01 X87.8341 Y20.6776
G01 X87.7098 Y20.9357
G01 X87.5574 Y21.1783
G01 X87.3788 Y21.4022
G01 X87.1762 Y21.6048
G01 X86.9523 Y21.7834
G01 X86.7097 Y21.9358
G01 X86.4516 Y22.0601
G01 X86.1812 Y22.1547
G01 X85.9019 Y22.2185
G01 X85.6173 Y22.2506
G01 X85.3308 Y22.2506
G01 X85.0462 Y22.2185
G01 X84.7669 Y22.1547
G01 X84.4965 Y22.0601
G01 X84.2384 Y21.9358
G01 X83.9958 Y21.7834
G01 X83.7719 Y21.6048
G01 X83.5693 Y21.4022
G01 X83.3907 Y21.1783
G01 X83.2383 Y20.9357
G01 X83.1140 Y20.6776
G01 X83.0194 Y20.4072
G01 X82.9556 Y20.1279
G01 X82.9236 Y19.8433
G00 Z3.0000
G00 X89.6314 Y18.0452
G01 F60.00
G01 Z-0.1500
G01 F70.00
G01 X89.7356 Y17.9018
G01 X89.8608 Y17.7766
G01 X90.0042 Y17.6724
G01 X90.1620 Y17.5920
G01 X90.3305 Y17.5373
G01 X90.5055 Y17.5095
G01 X90.6826 Y17.5095
G01 X90.8576 Y17.5373
G01 X91.0261 Y17.5920
G01 X91.1839 Y17.6724
G01 X91.3273 Y17.7766
G01 X91.4525 Y17.9018
G01 X91.5567 Y18.0452
G01 X91.6371 Y18.2030
G01 X91.6918 Y18.3715
G01 X91.7196 Y18.5465
G01 X91.7196 Y18.7236
G01 X91.6918 Y18.8986
G01 X91.6371 Y19.0671
G01 X91.5567 Y19.2249
G01 X91.4525 Y19.3683
G01 X91.3273 Y19.4935
G01 X91.1839 Y19.5977
G01 X91.0261 Y19.6781
G01 X90.8576 Y19.7328
G01 X90.6826 Y19.7606
G01 X90.5055 Y19.7606
G01 X90.4180 Y19.7467
G01 X90.3305 Y19.7328
G01 X90.1620 Y19.6781
G01 X90.0042 Y19.5977
G01 X89.8608 Y19.4935
G01 X89.7356 Y19.3683
G01 X89.6314 Y19.2249
G01 X89.5510 Y19.0671
G01 X89.4963 Y18.8986
G01 X89.4686 Y18.7236
G01 X89.4686 Y18.5465
G01 X89.4963 Y18.3715
G01 X89.5510 Y18.2030
G01 X89.6314 Y18.0452
G00 Z3.0000
G00 X92.5118 Y18.2534
G01 F60.00
G01 Z-0.1500
G01 F70.00
G01 X92.6321 Y18.0878
G01 X92.7768 Y17.9431
G01 X92.9424 Y17.8228
G01 X93.1248 Y17.7298
G01 X93.3195 Y17.6666
G01 X93.5217 Y17.6345
G01 X93.7264 Y17.6345
G01 X93.9286 Y17.6666
G01 X94.1233 Y17.7298
G01 X94.3057 Y17.8228
G01 X94.4713 Y17.9431
G01 X94.6160 Y18.0878
G01 X94.7363 Y18.2534
G01 X94.8293 Y18.4358
G01 X94.8925 Y18.6305
G01 X94.9246 Y18.8327
G01 X94.9246 Y19.0374
G01 X94.8925 Y19.2396
G01 X94.8293 Y19.4343
G01 X94.7363 Y19.6167
G01 X94.6160 Y19.7823
G01 X94.4713 Y19.9270
G01 X94.3057 Y20.0473
G01 X94.1233 Y20.1403
G01 X93.9286 Y20.2035
G01 X93.7264 Y20.2356
G01 X93.5217 Y20.2356
G01 X93.4769 Y20.2285
G01 X93.3195 Y20.2035
G01 X93.1248 Y20.1403
G01 X92.9424 Y20.0473
G01 X92.7768 Y19.9270
G01 X92.6321 Y19.7823
G01 X92.5118 Y19.6167
G01 X92.4188 Y19.4343
G01 X92.3556 Y19.2396
G01 X92.3236 Y19.0374
G01 X92.3236 Y18.8327
G01 X92.3390 Y18.7354
G01 X92.3556 Y18.6305
G01 X92.4188 Y18.4358
G01 X92.5118 Y18.2534
G00 Z3.0000
G00 X92.5118 Y12.8034
G01 F60.00
G01 Z-0.1500
G01 F70.00
G01 X92.6321 Y12.6378
G01 X92.7768 Y12.4931
G01 X92.9424 Y12.3728
G01 X93.1248 Y12.2798
G01 X93.3195 Y12.2166
G01 X93.5217 Y12.1845
G01 X93.7264 Y12.1845
G01 X93.9286 Y12.2166
G01 X94.1233 Y12.2798
G01 X94.3057 Y12.3728
G01 X94.4713 Y12.4931
G01 X94.6160 Y12.6378
G01 X94.7363 Y12.8034
G01 X94.8294 Y12.9862
G01 X94.8926 Y13.1807
G01 X94.9246 Y13.3827
G01 X94.9246 Y13.5874
G01 X94.8925 Y13.7896
G01 X94.8293 Y13.9843
G01 X94.7363 Y14.1667
G01 X94.6160 Y14.3323
G01 X94.4713 Y14.4770
G01 X94.3057 Y14.5973
G01 X94.1233 Y14.6903
G01 X93.9286 Y14.7535
G01 X93.7264 Y14.7856
G01 X93.5217 Y14.7856
G01 X93.4769 Y14.7785
G01 X93.3195 Y14.7535
G01 X93.1248 Y14.6903
G01 X92.9424 Y14.5973
G01 X92.7768 Y14.4770
G01 X92.6321 Y14.3323
G01 X92.5118 Y14.1667
G01 X92.4188 Y13.9843
G01 X92.3556 Y13.7896
G01 X92.3236 Y13.5874
G01 X92.3236 Y13.3827
G01 X92.3556 Y13.1805
G01 X92.4188 Y12.9858
G01 X92.5118 Y12.8034
G00 Z3.0000
G00 X89.6314 Y13.1952
G01 F60.00
G01 Z-0.1500
G01 F70.00
G01 X89.7356 Y13.0518
G01 X89.8608 Y12.9266
G01 X90.0042 Y12.8224
G01 X90.1620 Y12.7420
G01 X90.3305 Y12.6873
G01 X90.5055 Y12.6595
G01 X90.6826 Y12.6595
G01 X90.8576 Y12.6873
G01 X91.0261 Y12.7420
G01 X91.1839 Y12.8224
G01 X91.3273 Y12.9266
G01 X91.4525 Y13.0518
G01 X91.5567 Y13.1952
G01 X91.6371 Y13.3530
G01 X91.6918 Y13.5215
G01 X91.7196 Y13.6965
G01 X91.7196 Y13.8736
G01 X91.6918 Y14.0486
G01 X91.6371 Y14.2171
G01 X91.5567 Y14.3749
G01 X91.4525 Y14.5183
G01 X91.3273 Y14.6435
G01 X91.1839 Y14.7477
G01 X91.0261 Y14.8281
G01 X90.8576 Y14.8828
G01 X90.6826 Y14.9106
G01 X90.5055 Y14.9106
G01 X90.4180 Y14.8967
G01 X90.3305 Y14.8828
G01 X90.1620 Y14.8281
G01 X90.0042 Y14.7477
G01 X89.8608 Y14.6435
G01 X89.7356 Y14.5183
G01 X89.6332 Y14.3773
G01 X89.6314 Y14.3749
G01 X89.5510 Y14.2171
G01 X89.4963 Y14.0486
G01 X89.4686 Y13.8736
G01 X89.4686 Y13.6965
G01 X89.4963 Y13.5215
G01 X89.5510 Y13.3530
G01 X89.6314 Y13.1952
G00 Z3.0000
G00 X90.2431 Y6.6705
G01 F60.00
G01 Z-0.1500
G01 F70.00
G01 X90.2880 Y6.5751
G01 X90.3424 Y6.4847
G01 X90.4024 Y6.4039
G01 X90.4699 Y6.3294
G01 X90.5479 Y6.2584
G01 X90.6328 Y6.1957
G01 X90.7191 Y6.1440
G01 X90.8100 Y6.1010
G01 X90.9093 Y6.0652
G01 X91.0092 Y6.0402
G01 X91.1136 Y6.0249
G01 X91.2141 Y6.0201
G01 X91.3145 Y6.0249
G01 X91.4189 Y6.0402
G01 X91.5188 Y6.0653
G01 X91.6158 Y6.1000
G01 X91.7112 Y6.1452
G01 X91.7974 Y6.1970
G01 X91.8782 Y6.2569
G01 X91.9556 Y6.3267
G01 X92.0257 Y6.4039
G01 X92.0871 Y6.4867
G01 X92.1401 Y6.5751
G01 X92.1841 Y6.6682
G01 X92.2189 Y6.7653
G01 X92.2439 Y6.8652
G01 X92.2590 Y6.9671
G01 X92.2641 Y7.0700
G01 X92.2640 Y7.5713
G01 X92.2590 Y7.6730
G01 X92.2433 Y7.7773
G01 X92.2188 Y7.8748
G01 X92.1850 Y7.9696
G01 X92.1401 Y8.0650
G01 X92.0857 Y8.1554
G01 X92.0257 Y8.2362
G01 X91.9574 Y8.3116
G01 X91.8802 Y8.3817
G01 X91.7974 Y8.4431
G01 X91.7090 Y8.4961
G01 X91.6159 Y8.5401
G01 X91.5188 Y8.5748
G01 X91.4189 Y8.5999
G01 X91.3170 Y8.6150
G01 X91.2141 Y8.6200
G01 X91.1111 Y8.6150
G01 X91.0092 Y8.5999
G01 X90.9093 Y8.5748
G01 X90.8123 Y8.5401
G01 X90.7191 Y8.4961
G01 X90.6307 Y8.4431
G01 X90.5479 Y8.3817
G01 X90.4725 Y8.3134
G01 X90.4024 Y8.2362
G01 X90.3424 Y8.1554
G01 X90.2869 Y8.0628
G01 X90.2440 Y7.9719
G01 X90.2093 Y7.8748
G01 X90.1842 Y7.7749
G01 X90.1694 Y7.6754
G01 X90.1641 Y7.5700
G01 X90.1641 Y7.0700
G01 X90.1690 Y6.9684
G01 X90.1848 Y6.8628
G01 X90.2093 Y6.7653
G01 X90.2431 Y6.6705
G00 Z3.0000
G00 X89.4340 Y5.8299
G01 F60.00
G01 Z-0.1500
G01 F70.00
G01 X89.6187 Y5.9641
G01 X89.7801 Y6.1254
G01 X89.8047 Y6.1593
G01 X89.8212 Y6.1782
G01 X89.8287 Y6.1846
G01 X89.8340 Y6.1879
G01 X89.8969 Y6.2210
G01 X89.9026 Y6.2234
G01 X89.9086 Y6.2251
G01 X89.9147 Y6.2261
G01 X89.9222 Y6.2262
G01 X89.9942 Y6.2200
G01 X89.9991 Y6.2192
G01 X90.0051 Y6.2175
G01 X90.0109 Y6.2151
G01 X90.0162 Y6.2120
G01 X90.0782 Y6.1641
G01 X90.0838 Y6.1579
G01 X90.1077 Y6.1251
G01 X90.2691 Y5.9637
G01 X90.4538 Y5.8295
G01 X90.6573 Y5.7258
G01 X90.8744 Y5.6553
G01 X91.0999 Y5.6195
G01 X91.3282 Y5.6195
G01 X91.5537 Y5.6553
G01 X91.7709 Y5.7258
G01 X91.9743 Y5.8295
G01 X92.1590 Y5.9637
G01 X92.3204 Y6.1251
G01 X92.3450 Y6.1588
G01 X92.3607 Y6.1769
G01 X92.3661 Y6.1820
G01 X92.3743 Y6.1874
G01 X92.4383 Y6.2211
G01 X92.4429 Y6.2230
G01 X92.4489 Y6.2247
G01 X92.4538 Y6.2255
G01 X92.4600 Y6.2258
G01 X92.5370 Y6.2192
G01 X92.5431 Y6.2178
G01 X92.5489 Y6.2157
G01 X92.5534 Y6.2135
G01 X92.5586 Y6.2102
G01 X92.6149 Y6.1668
G01 X92.6194 Y6.1629
G01 X92.6241 Y6.1575
G01 X92.6477 Y6.1251
G01 X92.8091 Y5.9637
G01 X92.9938 Y5.8295
G01 X93.1973 Y5.7258
G01 X93.4144 Y5.6553
G01 X93.6399 Y5.6195
G01 X93.8682 Y5.6195
G01 X94.0937 Y5.6553
G01 X94.3109 Y5.7258
G01 X94.5143 Y5.8295
G01 X94.6990 Y5.9637
G01 X94.8604 Y6.1251
G01 X94.9946 Y6.3098
G01 X95.0983 Y6.5132
G01 X95.1688 Y6.7304
G01 X95.2046 Y6.9559
G01 X95.2046 Y7.6842
G01 X95.1688 Y7.9097
G01 X95.0983 Y8.1269
G01 X94.9946 Y8.3303
G01 X94.8604 Y8.5150
G01 X94.6990 Y8.6764
G01 X94.5143 Y8.8106
G01 X94.3109 Y8.9143
G01 X94.0937 Y8.9848
G01 X93.8682 Y9.0206
G01 X93.6399 Y9.0206
G01 X93.4144 Y8.9848
G01 X93.1972 Y8.9143
G01 X92.9938 Y8.8106
G01 X92.8091 Y8.6764
G01 X92.6477 Y8.5150
G01 X92.6231 Y8.4813
G01 X92.6074 Y8.4632
G01 X92.6030 Y8.4589
G01 X92.5949 Y8.4533
G01 X92.5298 Y8.4190
G01 X92.5252 Y8.4171
G01 X92.5192 Y8.4154
G01 X92.5094 Y8.4143
G01 X92.4311 Y8.4209
G01 X92.4262 Y8.4219
G01 X92.4203 Y8.4239
G01 X92.4147 Y8.4266
G01 X92.4095 Y8.4299
G01 X92.3532 Y8.4733
G01 X92.3487 Y8.4772
G01 X92.3440 Y8.4826
G01 X92.3204 Y8.5150
G01 X92.1590 Y8.6764
G01 X91.9743 Y8.8106
G01 X91.7709 Y8.9143
G01 X91.5537 Y8.9848
G01 X91.3282 Y9.0206
G01 X91.0999 Y9.0206
G01 X90.8744 Y8.9848
G01 X90.6572 Y8.9143
G01 X90.4538 Y8.8106
G01 X90.2691 Y8.6764
G01 X90.1077 Y8.5150
G01 X90.0828 Y8.4808
G01 X90.0671 Y8.4628
G01 X90.0627 Y8.4585
G01 X90.0546 Y8.4529
G01 X89.9906 Y8.4191
G01 X89.9849 Y8.4167
G01 X89.9801 Y8.4153
G01 X89.9703 Y8.4139
G01 X89.9641 Y8.4140
G01 X89.8920 Y8.4203
G01 X89.8871 Y8.4212
G01 X89.8812 Y8.4230
G01 X89.8766 Y8.4250
G01 X89.8713 Y8.4281
G01 X89.8129 Y8.4729
G01 X89.8084 Y8.4768
G01 X89.8037 Y8.4822
G01 X89.7800 Y8.5147
G01 X89.6187 Y8.6760
G01 X89.4340 Y8.8102
G01 X89.2307 Y8.9138
G01 X89.2241 Y8.9160
G01 X89.2241 Y8.4632
G01 X89.2584 Y8.4424
G01 X89.3392 Y8.3825
G01 X89.4156 Y8.3134
G01 X89.4857 Y8.2362
G01 X89.5478 Y8.1524
G01 X89.6012 Y8.0628
G01 X89.6441 Y7.9719
G01 X89.6781 Y7.8772
G01 X89.7039 Y7.7749
G01 X89.7191 Y7.6717
G01 X89.7241 Y7.5700
G01 X89.7240 Y7.0676
G01 X89.7190 Y6.9671
G01 X89.7043 Y6.8676
G01 X89.6785 Y6.7642
G01 X89.6441 Y6.6682
G01 X89.6001 Y6.5751
G01 X89.5471 Y6.4867
G01 X89.4865 Y6.4049
G01 X89.4165 Y6.3276
G01 X89.3411 Y6.2592
G01 X89.2584 Y6.1977
G01 X89.2241 Y6.1769
G01 X89.2241 Y5.7241
G01 X89.2307 Y5.7263
G01 X89.4340 Y5.8299
G00 Z3.0000
G00 X92.7831 Y6.6705
G01 F60.00
G01 Z-0.1500
G01 F70.00
G01 X92.8280 Y6.5751
G01 X92.8824 Y6.4847
G01 X92.9424 Y6.4039
G01 X93.0099 Y6.3294
G01 X93.0879 Y6.2584
G01 X93.1728 Y6.1957
G01 X93.2591 Y6.1440
G01 X93.3500 Y6.1010
G01 X93.4493 Y6.0652
G01 X93.5492 Y6.0402
G01 X93.6536 Y6.0249
G01 X93.7541 Y6.0201
G01 X93.8545 Y6.0249
G01 X93.9589 Y6.0402
G01 X94.0588 Y6.0653
G01 X94.1559 Y6.1000
G01 X94.2512 Y6.1452
G01 X94.3374 Y6.1970
G01 X94.4182 Y6.2569
G01 X94.4956 Y6.3267
G01 X94.5657 Y6.4039
G01 X94.6271 Y6.4867
G01 X94.6801 Y6.5751
G01 X94.7241 Y6.6682
G01 X94.7589 Y6.7653
G01 X94.7839 Y6.8652
G01 X94.7990 Y6.9671
G01 X94.8041 Y7.0700
G01 X94.8040 Y7.5713
G01 X94.7990 Y7.6730
G01 X94.7833 Y7.7773
G01 X94.7588 Y7.8748
G01 X94.7250 Y7.9696
G01 X94.6801 Y8.0650
G01 X94.6257 Y8.1554
G01 X94.5657 Y8.2362
G01 X94.4974 Y8.3116
G01 X94.4202 Y8.3817
G01 X94.3374 Y8.4431
G01 X94.2490 Y8.4961
G01 X94.1559 Y8.5401
G01 X94.0588 Y8.5748
G01 X93.9589 Y8.5999
G01 X93.8570 Y8.6150
G01 X93.7541 Y8.6200
G01 X93.6511 Y8.6150
G01 X93.5492 Y8.5999
G01 X93.4493 Y8.5748
G01 X93.3522 Y8.5401
G01 X93.2591 Y8.4961
G01 X93.1707 Y8.4431
G01 X93.0879 Y8.3817
G01 X93.0125 Y8.3134
G01 X92.9424 Y8.2362
G01 X92.8824 Y8.1554
G01 X92.8269 Y8.0628
G01 X92.7840 Y7.9719
G01 X92.7493 Y7.8748
G01 X92.7242 Y7.7749
G01 X92.7094 Y7.6754
G01 X92.7041 Y7.5700
G01 X92.7041 Y7.0700
G01 X92.7090 Y6.9684
G01 X92.7248 Y6.8628
G01 X92.7493 Y6.7653
G01 X92.7831 Y6.6705
G00 Z3.0000
G00 X85.1631 Y6.6705
G01 F60.00
G01 Z-0.1500
G01 F70.00
G01 X85.2092 Y6.5729
G01 X85.2610 Y6.4867
G01 X85.3232 Y6.4030
G01 X85.3916 Y6.3276
G01 X85.4670 Y6.2592
G01 X85.5497 Y6.1977
G01 X85.5838 Y6.1771
G01 X85.5838 Y3.3218
G01 X85.5507 Y3.2916
G01 X85.4816 Y3.2152
G01 X85.4210 Y3.1334
G01 X85.3686 Y3.0461
G01 X85.3231 Y2.9496
G01 X85.2893 Y2.8548
G01 X85.2645 Y2.7561
G01 X85.2491 Y2.6530
G01 X85.2441 Y2.5500
G01 X85.2441 Y2.0488
G01 X85.2491 Y1.9471
G01 X85.2645 Y1.8440
G01 X85.2893 Y1.7453
G01 X85.3240 Y1.6483
G01 X85.3680 Y1.5551
G01 X85.4210 Y1.4667
G01 X85.4824 Y1.3839
G01 X85.5516 Y1.3076
G01 X85.6279 Y1.2384
G01 X85.7107 Y1.1770
G01 X85.7991 Y1.1240
G01 X85.8922 Y1.0800
G01 X85.9893 Y1.0452
G01 X86.0892 Y1.0202
G01 X86.1911 Y1.0051
G01 X86.2941 Y1.0001
G01 X86.3970 Y1.0051
G01 X86.5001 Y1.0205
G01 X86.5988 Y1.0453
G01 X86.6936 Y1.0791
G01 X86.7912 Y1.1252
G01 X86.8774 Y1.1770
G01 X86.9602 Y1.2384
G01 X87.0365 Y1.3076
G01 X87.1041 Y1.3821
G01 X87.1684 Y1.4688
G01 X87.2201 Y1.5551
G01 X87.2641 Y1.6482
G01 X87.2989 Y1.7453
G01 X87.3233 Y1.8428
G01 X87.3392 Y1.9496
G01 X87.3441 Y2.0500
G01 X87.3441 Y2.5500
G01 X87.3391 Y2.6517
G01 X87.3233 Y2.7573
G01 X87.2988 Y2.8548
G01 X87.2641 Y2.9519
G01 X87.2201 Y3.0450
G01 X87.1671 Y3.1334
G01 X87.1057 Y3.2162
G01 X87.0365 Y3.2925
G01 X86.9602 Y3.3617
G01 X86.8774 Y3.4231
G01 X86.7890 Y3.4761
G01 X86.6981 Y3.5191
G01 X86.6843 Y3.5243
G01 X86.6843 Y6.1771
G01 X86.7184 Y6.1977
G01 X86.7992 Y6.2576
G01 X86.8774 Y6.3285
G01 X86.9457 Y6.4039
G01 X87.0057 Y6.4847
G01 X87.0595 Y6.5740
G01 X87.1041 Y6.6682
G01 X87.1395 Y6.7676
G01 X87.1639 Y6.8652
G01 X87.1787 Y6.9647
G01 X87.1840 Y7.0676
G01 X87.1840 Y7.5713
G01 X87.1790 Y7.6730
G01 X87.1633 Y7.7773
G01 X87.1388 Y7.8748
G01 X87.1050 Y7.9696
G01 X87.0601 Y8.0650
G01 X87.0057 Y8.1554
G01 X86.9457 Y8.2362
G01 X86.8774 Y8.3116
G01 X86.8002 Y8.3817
G01 X86.7174 Y8.4431
G01 X86.6290 Y8.4961
G01 X86.5359 Y8.5401
G01 X86.4388 Y8.5748
G01 X86.3389 Y8.5999
G01 X86.2370 Y8.6150
G01 X86.1341 Y8.6200
G01 X86.0311 Y8.6150
G01 X85.9292 Y8.5999
G01 X85.8293 Y8.5748
G01 X85.7323 Y8.5401
G01 X85.6391 Y8.4961
G01 X85.5507 Y8.4431
G01 X85.4679 Y8.3817
G01 X85.3925 Y8.3134
G01 X85.3224 Y8.2362
G01 X85.2624 Y8.1554
G01 X85.2069 Y8.0628
G01 X85.1640 Y7.9719
G01 X85.1293 Y7.8748
G01 X85.1042 Y7.7749
G01 X85.0894 Y7.6754
G01 X85.0841 Y7.5700
G01 X85.0841 Y7.0700
G01 X85.0890 Y6.9684
G01 X85.1048 Y6.8628
G01 X85.1293 Y6.7653
G01 X85.1631 Y6.6705
G00 Z3.0000
G00 X82.6231 Y6.6705
G01 F60.00
G01 Z-0.1500
G01 F70.00
G01 X82.6680 Y6.5751
G01 X82.7210 Y6.4867
G01 X82.7824 Y6.4039
G01 X82.8516 Y6.3276
G01 X82.9279 Y6.2584
G01 X83.0107 Y6.1970
G01 X83.0991 Y6.1440
G01 X83.1900 Y6.1010
G01 X83.2038 Y6.0958
G01 X83.2038 Y3.4430
G01 X83.1697 Y3.4224
G01 X83.0870 Y3.3609
G01 X83.0116 Y3.2925
G01 X82.9416 Y3.2152
G01 X82.8810 Y3.1334
G01 X82.8280 Y3.0450
G01 X82.7840 Y2.9519
G01 X82.7493 Y2.8548
G01 X82.7238 Y2.7525
G01 X82.7091 Y2.6530
G01 X82.7041 Y2.5513
G01 X82.7041 Y2.0488
G01 X82.7091 Y1.9471
G01 X82.7245 Y1.8440
G01 X82.7493 Y1.7453
G01 X82.7840 Y1.6483
G01 X82.8280 Y1.5551
G01 X82.8810 Y1.4667
G01 X82.9424 Y1.3839
G01 X83.0116 Y1.3076
G01 X83.0879 Y1.2384
G01 X83.1707 Y1.1770
G01 X83.2591 Y1.1240
G01 X83.3522 Y1.0800
G01 X83.4493 Y1.0452
G01 X83.5492 Y1.0202
G01 X83.6511 Y1.0051
G01 X83.7541 Y1.0001
G01 X83.8570 Y1.0051
G01 X83.9601 Y1.0205
G01 X84.0588 Y1.0453
G01 X84.1536 Y1.0791
G01 X84.2512 Y1.1252
G01 X84.3374 Y1.1770
G01 X84.4202 Y1.2384
G01 X84.4965 Y1.3076
G01 X84.5641 Y1.3821
G01 X84.6284 Y1.4688
G01 X84.6801 Y1.5551
G01 X84.7241 Y1.6482
G01 X84.7589 Y1.7453
G01 X84.7833 Y1.8428
G01 X84.7992 Y1.9496
G01 X84.8041 Y2.0500
G01 X84.8040 Y2.5525
G01 X84.7990 Y2.6530
G01 X84.7843 Y2.7525
G01 X84.7585 Y2.8560
G01 X84.7241 Y2.9519
G01 X84.6801 Y3.0450
G01 X84.6271 Y3.1334
G01 X84.5665 Y3.2152
G01 X84.4965 Y3.2925
G01 X84.4211 Y3.3609
G01 X84.3384 Y3.4224
G01 X84.3043 Y3.4430
G01 X84.3043 Y6.2983
G01 X84.3374 Y6.3285
G01 X84.4049 Y6.4030
G01 X84.4664 Y6.4857
G01 X84.5201 Y6.5751
G01 X84.5636 Y6.6671
G01 X84.5989 Y6.7653
G01 X84.6239 Y6.8652
G01 X84.6390 Y6.9671
G01 X84.6441 Y7.0700
G01 X84.6440 Y7.5713
G01 X84.6390 Y7.6730
G01 X84.6233 Y7.7773
G01 X84.5988 Y7.8748
G01 X84.5650 Y7.9696
G01 X84.5201 Y8.0650
G01 X84.4657 Y8.1554
G01 X84.4057 Y8.2362
G01 X84.3374 Y8.3116
G01 X84.2602 Y8.3817
G01 X84.1774 Y8.4431
G01 X84.0890 Y8.4961
G01 X83.9959 Y8.5401
G01 X83.8988 Y8.5748
G01 X83.7989 Y8.5999
G01 X83.6970 Y8.6150
G01 X83.5941 Y8.6200
G01 X83.4911 Y8.6150
G01 X83.3892 Y8.5999
G01 X83.2893 Y8.5748
G01 X83.1922 Y8.5401
G01 X83.0991 Y8.4961
G01 X83.0107 Y8.4431
G01 X82.9279 Y8.3817
G01 X82.8525 Y8.3134
G01 X82.7824 Y8.2362
G01 X82.7224 Y8.1554
G01 X82.6669 Y8.0628
G01 X82.6240 Y7.9719
G01 X82.5893 Y7.8748
G01 X82.5642 Y7.7749
G01 X82.5494 Y7.6754
G01 X82.5441 Y7.5700
G01 X82.5441 Y7.0700
G01 X82.5490 Y6.9684
G01 X82.5648 Y6.8628
G01 X82.5893 Y6.7653
G01 X82.6231 Y6.6705
G00 Z3.0000
G00 X80.0831 Y6.6705
G01 F60.00
G01 Z-0.1500
G01 F70.00
G01 X80.1292 Y6.5729
G01 X80.1810 Y6.4867
G01 X80.2432 Y6.4030
G01 X80.3116 Y6.3276
G01 X80.3870 Y6.2592
G01 X80.4697 Y6.1977
G01 X80.5038 Y6.1771
G01 X80.5038 Y3.3218
G01 X80.4707 Y3.2916
G01 X80.4016 Y3.2152
G01 X80.3410 Y3.1334
G01 X80.2886 Y3.0461
G01 X80.2431 Y2.9496
G01 X80.2093 Y2.8548
G01 X80.1845 Y2.7561
G01 X80.1691 Y2.6530
G01 X80.1641 Y2.5500
G01 X80.1641 Y2.0488
G01 X80.1691 Y1.9471
G01 X80.1845 Y1.8440
G01 X80.2093 Y1.7453
G01 X80.2440 Y1.6483
G01 X80.2880 Y1.5551
G01 X80.3410 Y1.4667
G01 X80.4024 Y1.3839
G01 X80.4716 Y1.3076
G01 X80.5479 Y1.2384
G01 X80.6307 Y1.1770
G01 X80.7191 Y1.1240
G01 X80.8122 Y1.0800
G01 X80.9093 Y1.0452
G01 X81.0092 Y1.0202
G01 X81.1111 Y1.0051
G01 X81.2141 Y1.0001
G01 X81.3170 Y1.0051
G01 X81.4201 Y1.0205
G01 X81.5188 Y1.0453
G01 X81.6136 Y1.0791
G01 X81.7112 Y1.1252
G01 X81.7974 Y1.1770
G01 X81.8802 Y1.2384
G01 X81.9565 Y1.3076
G01 X82.0241 Y1.3821
G01 X82.0884 Y1.4688
G01 X82.1401 Y1.5551
G01 X82.1841 Y1.6482
G01 X82.2189 Y1.7453
G01 X82.2433 Y1.8428
G01 X82.2592 Y1.9496
G01 X82.2641 Y2.0500
G01 X82.2641 Y2.5500
G01 X82.2591 Y2.6517
G01 X82.2433 Y2.7573
G01 X82.2188 Y2.8548
G01 X82.1841 Y2.9519
G01 X82.1401 Y3.0450
G01 X82.0871 Y3.1334
G01 X82.0257 Y3.2162
G01 X81.9565 Y3.2925
G01 X81.8802 Y3.3617
G01 X81.7974 Y3.4231
G01 X81.7090 Y3.4761
G01 X81.6181 Y3.5191
G01 X81.6043 Y3.5243
G01 X81.6043 Y6.1771
G01 X81.6384 Y6.1977
G01 X81.7192 Y6.2576
G01 X81.7974 Y6.3285
G01 X81.8657 Y6.4039
G01 X81.9257 Y6.4847
G01 X81.9795 Y6.5740
G01 X82.0241 Y6.6682
G01 X82.0595 Y6.7676
G01 X82.0839 Y6.8652
G01 X82.0987 Y6.9647
G01 X82.1040 Y7.0676
G01 X82.1040 Y7.5713
G01 X82.0990 Y7.6730
G01 X82.0833 Y7.7773
G01 X82.0588 Y7.8748
G01 X82.0250 Y7.9696
G01 X81.9801 Y8.0650
G01 X81.9257 Y8.1554
G01 X81.8657 Y8.2362
G01 X81.7974 Y8.3116
G01 X81.7202 Y8.3817
G01 X81.6374 Y8.4431
G01 X81.5490 Y8.4961
G01 X81.4559 Y8.5401
G01 X81.3588 Y8.5748
G01 X81.2589 Y8.5999
G01 X81.1570 Y8.6150
G01 X81.0541 Y8.6200
G01 X80.9511 Y8.6150
G01 X80.8492 Y8.5999
G01 X80.7493 Y8.5748
G01 X80.6522 Y8.5401
G01 X80.5591 Y8.4961
G01 X80.4707 Y8.4431
G01 X80.3879 Y8.3817
G01 X80.3125 Y8.3134
G01 X80.2424 Y8.2362
G01 X80.1824 Y8.1554
G01 X80.1269 Y8.0628
G01 X80.0840 Y7.9719
G01 X80.0493 Y7.8748
G01 X80.0242 Y7.7749
G01 X80.0094 Y7.6754
G01 X80.0041 Y7.5700
G01 X80.0041 Y7.0700
G01 X80.0090 Y6.9684
G01 X80.0248 Y6.8628
G01 X80.0493 Y6.7653
G01 X80.0831 Y6.6705
G00 Z3.0000
G00 X77.5431 Y6.6705
G01 F60.00
G01 Z-0.1500
G01 F70.00
G01 X77.5880 Y6.5751
G01 X77.6424 Y6.4847
G01 X77.7024 Y6.4039
G01 X77.7699 Y6.3294
G01 X77.8479 Y6.2584
G01 X77.9328 Y6.1957
G01 X78.0191 Y6.1440
G01 X78.1100 Y6.1010
G01 X78.2093 Y6.0652
G01 X78.3092 Y6.0402
G01 X78.4136 Y6.0249
G01 X78.5141 Y6.0201
G01 X78.6145 Y6.0249
G01 X78.7189 Y6.0402
G01 X78.8188 Y6.0653
G01 X78.9158 Y6.1000
G01 X79.0112 Y6.1452
G01 X79.0974 Y6.1970
G01 X79.1782 Y6.2569
G01 X79.2556 Y6.3267
G01 X79.3257 Y6.4039
G01 X79.3871 Y6.4867
G01 X79.4401 Y6.5751
G01 X79.4841 Y6.6682
G01 X79.5189 Y6.7653
G01 X79.5439 Y6.8652
G01 X79.5590 Y6.9671
G01 X79.5641 Y7.0700
G01 X79.5640 Y7.5713
G01 X79.5590 Y7.6730
G01 X79.5433 Y7.7773
G01 X79.5188 Y7.8748
G01 X79.4850 Y7.9696
G01 X79.4401 Y8.0650
G01 X79.3857 Y8.1554
G01 X79.3257 Y8.2362
G01 X79.2574 Y8.3116
G01 X79.1802 Y8.3817
G01 X79.0974 Y8.4431
G01 X79.0090 Y8.4961
G01 X78.9159 Y8.5401
G01 X78.8188 Y8.5748
G01 X78.7189 Y8.5999
G01 X78.6170 Y8.6150
G01 X78.5141 Y8.6200
G01 X78.4111 Y8.6150
G01 X78.3092 Y8.5999
G01 X78.2093 Y8.5748
G01 X78.1122 Y8.5401
G01 X78.0191 Y8.4961
G01 X77.9307 Y8.4431
G01 X77.8479 Y8.3817
G01 X77.7725 Y8.3134
G01 X77.7024 Y8.2362
G01 X77.6424 Y8.1554
G01 X77.5869 Y8.0628
G01 X77.5440 Y7.9719
G01 X77.5093 Y7.8748
G01 X77.4842 Y7.7749
G01 X77.4694 Y7.6754
G01 X77.4641 Y7.5700
G01 X77.4641 Y7.0700
G01 X77.4690 Y6.9684
G01 X77.4848 Y6.8628
G01 X77.5093 Y6.7653
G01 X77.5431 Y6.6705
G00 Z3.0000
G00 X77.5138 Y3.4318
G01 F60.00
G01 Z-0.1500
G01 F70.00
G01 X77.4509 Y3.3986
G01 X77.4428 Y3.3955
G01 X77.4355 Y3.3939
G01 X77.4256 Y3.3935
G01 X77.3535 Y3.3997
G01 X77.3438 Y3.4018
G01 X77.3347 Y3.4057
G01 X77.3285 Y3.4098
G01 X77.2732 Y3.4525
G01 X77.2687 Y3.4564
G01 X77.2640 Y3.4617
G01 X77.2400 Y3.4947
G01 X77.0787 Y3.6560
G01 X76.8940 Y3.7902
G01 X76.6907 Y3.8938
G01 X76.6841 Y3.8960
G01 X76.6841 Y3.4432
G01 X76.7184 Y3.4224
G01 X76.8011 Y3.3609
G01 X76.8765 Y3.2925
G01 X76.9465 Y3.2152
G01 X77.0071 Y3.1334
G01 X77.0601 Y3.0450
G01 X77.1041 Y2.9519
G01 X77.1381 Y2.8572
G01 X77.1401 Y2.8500
G01 X77.6680 Y2.8500
G01 X77.6700 Y2.8572
G01 X77.7040 Y2.9519
G01 X77.7480 Y3.0450
G01 X77.8010 Y3.1334
G01 X77.8616 Y3.2152
G01 X77.9316 Y3.2925
G01 X78.0070 Y3.3609
G01 X78.0897 Y3.4224
G01 X78.1241 Y3.4432
G01 X78.1241 Y3.8960
G01 X78.1174 Y3.8938
G01 X77.9141 Y3.7902
G01 X77.7294 Y3.6560
G01 X77.5681 Y3.4947
G01 X77.5422 Y3.4593
G01 X77.5257 Y3.4406
G01 X77.5201 Y3.4358
G01 X77.5138 Y3.4318
G00 Z3.0000
G00 X74.6913 Y2.8500
G01 F60.00
G01 Z-0.1500
G01 F70.00
G01 X75.1280 Y2.8500
G01 X75.1300 Y2.8572
G01 X75.1640 Y2.9519
G01 X75.2080 Y3.0450
G01 X75.2610 Y3.1334
G01 X75.3216 Y3.2152
G01 X75.3916 Y3.2925
G01 X75.4670 Y3.3609
G01 X75.5497 Y3.4224
G01 X75.5841 Y3.4432
G01 X75.5841 Y3.8960
G01 X75.5774 Y3.8938
G01 X75.3741 Y3.7902
G01 X75.1894 Y3.6560
G01 X75.0281 Y3.4947
G01 X74.8939 Y3.3100
G01 X74.7903 Y3.1067
G01 X74.7232 Y2.9004
G01 X74.7188 Y2.8916
G01 X74.6913 Y2.8500
G00 Z3.0000
G00 X79.2196 Y11.3637
G01 F60.00
G01 Z-0.1500
G01 F70.00
G01 X79.2196 Y20.7732
G01 X53.3067 Y20.7732
G01 X53.3067 Y11.3637
G01 X79.2196 Y11.3637
G00 Z3.0000
G00 X76.1292 Y12.9557
G01 F60.00
G01 Z-0.1500
G01 F70.00
G01 X76.1328 Y12.9465
G01 X76.2145 Y12.7861
G01 X76.3290 Y12.6405
G01 X76.3354 Y12.6338
G01 X76.4869 Y12.5021
G01 X76.6799 Y12.3840
G01 X76.8914 Y12.2991
G01 X76.8991 Y12.2967
G01 X77.1348 Y12.2446
G01 X77.3993 Y12.2264
G01 X77.6802 Y12.2463
G01 X77.6879 Y12.2475
G01 X77.9383 Y12.3054
G01 X78.1640 Y12.3991
G01 X78.1717 Y12.4031
G01 X78.3740 Y12.5325
G01 X78.5335 Y12.6783
G01 X78.5369 Y12.6823
G01 X78.6557 Y12.8401
G01 X78.7408 Y13.0141
G01 X78.7439 Y13.0219
G01 X78.7949 Y13.2119
G01 X78.7963 Y13.2195
G01 X78.8141 Y13.4365
G01 X78.8008 Y13.5983
G01 X78.7993 Y13.6062
G01 X78.7605 Y13.7466
G01 X78.6981 Y13.8704
G01 X78.6955 Y13.8748
G01 X78.6925 Y13.8790
G01 X78.6051 Y13.9879
G01 X78.4981 Y14.0775
G01 X78.4934 Y14.0810
G01 X78.4893 Y14.0833
G01 X78.3719 Y14.1450
G01 X78.3672 Y14.1472
G01 X78.3623 Y14.1489
G01 X78.2233 Y14.1881
G01 X78.0587 Y14.2022
G01 X77.9139 Y14.1865
G01 X77.9081 Y14.1855
G01 X77.9024 Y14.1838
G01 X77.7768 Y14.1384
G01 X77.7724 Y14.1364
G01 X77.7671 Y14.1334
G01 X77.6543 Y14.0581
G01 X77.6493 Y14.0543
G01 X77.6449 Y14.0499
G01 X77.5506 Y13.9448
G01 X77.5461 Y13.9390
G01 X77.5431 Y13.9337
G01 X77.4875 Y13.8149
G01 X77.4849 Y13.8079
G01 X77.4833 Y13.8006
G01 X77.4644 Y13.6643
G01 X77.4641 Y13.6580
G01 X77.4646 Y13.6518
G01 X77.4832 Y13.5197
G01 X77.4848 Y13.5123
G01 X77.4875 Y13.5053
G01 X77.5423 Y13.3890
G01 X77.5472 Y13.3807
G01 X77.6449 Y13.2717
G01 X77.6492 Y13.2675
G01 X77.6540 Y13.2638
G01 X77.7686 Y13.1863
G01 X77.7762 Y13.1827
G01 X77.9027 Y13.1359
G01 X77.9108 Y13.1343
G01 X77.9856 Y13.1254
G01 X77.9738 Y13.0943
G01 X77.9144 Y12.9513
G01 X77.8404 Y12.8525
G01 X77.7497 Y12.7841
G01 X77.6364 Y12.7411
G01 X77.4912 Y12.7253
G01 X77.3780 Y12.7368
G01 X77.2836 Y12.7690
G01 X77.2028 Y12.8211
G01 X77.1322 Y12.8960
G01 X77.0681 Y13.0059
G01 X77.0276 Y13.1386
G01 X77.0129 Y13.3017
G01 X77.0286 Y13.5066
G01 X77.0764 Y13.7136
G01 X77.1587 Y13.9248
G01 X77.2790 Y14.1424
G01 X77.4422 Y14.3684
G01 X77.6440 Y14.5920
G01 X77.9320 Y14.8601
G01 X78.3263 Y15.1803
G01 X78.3309 Y15.1844
G01 X78.3369 Y15.1921
G01 X78.3414 Y15.2009
G01 X78.3441 Y15.2103
G01 X78.3448 Y15.2201
G01 X78.3436 Y15.2299
G01 X78.3406 Y15.2392
G01 X78.3358 Y15.2478
G01 X78.3294 Y15.2552
G01 X78.3227 Y15.2606
G01 X78.3140 Y15.2652
G01 X78.3046 Y15.2681
G01 X78.2961 Y15.2691
G01 X77.7026 Y15.2691
G01 X77.6928 Y15.2681
G01 X77.6834 Y15.2652
G01 X77.3506 Y15.0869
G01 X77.0632 Y14.9031
G01 X76.8142 Y14.7126
G01 X76.6005 Y14.5157
G01 X76.4005 Y14.2831
G01 X76.3964 Y14.2776
G01 X76.2479 Y14.0467
G01 X76.1454 Y13.8171
G01 X76.1433 Y13.8116
G01 X76.0827 Y13.5784
G01 X76.0622 Y13.3386
G01 X76.0798 Y13.1339
G01 X76.1292 Y12.9557
G00 Z3.0000
G00 X73.3519 Y14.4547
G01 F60.00
G01 Z-0.1500
G01 F70.00
G01 X73.3555 Y14.4483
G01 X73.3600 Y14.4426
G01 X73.4545 Y14.3380
G01 X73.4588 Y14.3337
G01 X73.4636 Y14.3301
G01 X73.5764 Y14.2537
G01 X73.5816 Y14.2506
G01 X73.5872 Y14.2482
G01 X73.7103 Y14.2028
G01 X73.7161 Y14.2011
G01 X73.7220 Y14.2000
G01 X73.8590 Y14.1846
G01 X73.8651 Y14.1843
G01 X73.8701 Y14.1846
G01 X74.0099 Y14.2001
G01 X74.0169 Y14.2014
G01 X74.1460 Y14.2480
G01 X74.1515 Y14.2504
G01 X74.1567 Y14.2535
G01 X74.2696 Y14.3292
G01 X74.2743 Y14.3328
G01 X74.2786 Y14.3369
G01 X74.3768 Y14.4442
G01 X74.3797 Y14.4482
G01 X74.3827 Y14.4535
G01 X74.4381 Y14.5688
G01 X74.4412 Y14.5771
G01 X74.4425 Y14.5834
G01 X74.4615 Y14.7164
G01 X74.4615 Y14.7258
G01 X74.4582 Y14.7540
G01 X74.5232 Y14.7447
G01 X74.5888 Y14.7097
G01 X74.6376 Y14.6515
G01 X74.6729 Y14.5568
G01 X74.6873 Y14.4096
G01 X74.6713 Y14.2834
G01 X74.6188 Y14.1408
G01 X74.5196 Y13.9758
G01 X74.3607 Y13.7838
G01 X74.1269 Y13.5610
G01 X73.7982 Y13.3022
G01 X73.4902 Y13.1071
G01 X73.1963 Y12.9657
G01 X73.1920 Y12.9633
G01 X73.1871 Y12.9597
G01 X73.1802 Y12.9528
G01 X73.1749 Y12.9447
G01 X73.1712 Y12.9356
G01 X72.9946 Y12.3483
G01 X72.9933 Y12.3423
G01 X72.9928 Y12.3362
G01 X72.9931 Y12.3301
G01 X72.9941 Y12.3240
G01 X72.9958 Y12.3181
G01 X72.9982 Y12.3125
G01 X73.0013 Y12.3072
G01 X73.0050 Y12.3023
G01 X73.0093 Y12.2980
G01 X73.0131 Y12.2949
G01 X73.0215 Y12.2898
G01 X73.0272 Y12.2876
G01 X73.0319 Y12.2863
G01 X73.0367 Y12.2854
G01 X73.0428 Y12.2851
G01 X75.1824 Y12.2851
G01 X75.1910 Y12.2858
G01 X75.1993 Y12.2880
G01 X75.2082 Y12.2922
G01 X75.2151 Y12.2973
G01 X75.2203 Y12.3025
G01 X75.2241 Y12.3074
G01 X75.2271 Y12.3127
G01 X75.2295 Y12.3184
G01 X75.4413 Y12.9186
G01 X75.4431 Y12.9270
G01 X75.4434 Y12.9344
G01 X75.4426 Y12.9417
G01 X75.4408 Y12.9488
G01 X75.4380 Y12.9555
G01 X75.4342 Y12.9618
G01 X75.4296 Y12.9675
G01 X75.4231 Y12.9732
G01 X75.4158 Y12.9776
G01 X75.4091 Y12.9804
G01 X75.4007 Y12.9824
G01 X75.3934 Y12.9830
G01 X74.3064 Y12.9830
G01 X74.5847 Y13.1086
G01 X74.5897 Y13.1111
G01 X74.8526 Y13.2671
G01 X75.0998 Y13.4532
G01 X75.1043 Y13.4570
G01 X75.3227 Y13.6667
G01 X75.4819 Y13.8730
G01 X75.4853 Y13.8781
G01 X75.5930 Y14.0820
G01 X75.5966 Y14.0907
G01 X75.6597 Y14.2983
G01 X75.6812 Y14.5144
G01 X75.6809 Y14.5208
G01 X75.6605 Y14.7110
G01 X75.6594 Y14.7171
G01 X75.6577 Y14.7230
G01 X75.6001 Y14.8786
G01 X75.5976 Y14.8842
G01 X75.5937 Y14.8904
G01 X75.4984 Y15.0216
G01 X75.4913 Y15.0284
G01 X75.3590 Y15.1339
G01 X75.3551 Y15.1367
G01 X75.3499 Y15.1397
G01 X75.1649 Y15.2249
G01 X75.1599 Y15.2265
G01 X74.9815 Y15.2716
G01 X74.7248 Y15.3036
G01 X74.3652 Y15.3160
G01 X74.0187 Y15.3040
G01 X73.7853 Y15.2741
G01 X73.7785 Y15.2727
G01 X73.6300 Y15.2323
G01 X73.6243 Y15.2303
G01 X73.4761 Y15.1523
G01 X73.4701 Y15.1484
G01 X73.4656 Y15.1445
G01 X73.3679 Y15.0447
G01 X73.3632 Y15.0392
G01 X73.3594 Y15.0331
G01 X73.2994 Y14.9054
G01 X73.2965 Y14.8976
G01 X73.2951 Y14.8907
G01 X73.2741 Y14.7300
G01 X73.2736 Y14.7239
G01 X73.2741 Y14.7166
G01 X73.2927 Y14.5850
G01 X73.2943 Y14.5776
G01 X73.2970 Y14.5706
G01 X73.3519 Y14.4547
G00 Z3.0000
G00 X70.8503 Y12.8547
G01 F60.00
G01 Z-0.1500
G01 F70.00
G01 X70.9072 Y12.7958
G01 X70.9754 Y12.7615
G01 X71.0633 Y12.7490
G01 X71.1691 Y12.7659
G01 X71.2684 Y12.8176
G01 X71.3678 Y12.9141
G01 X71.4685 Y13.0716
G01 X71.5676 Y13.3104
G01 X71.6498 Y13.6047
G01 X71.6984 Y13.8965
G01 X71.7145 Y14.1870
G01 X71.7006 Y14.3997
G01 X71.6657 Y14.5457
G01 X71.6178 Y14.6409
G01 X71.5615 Y14.7000
G01 X71.4944 Y14.7341
G01 X71.4083 Y14.7464
G01 X71.3036 Y14.7297
G01 X71.2048 Y14.6780
G01 X71.1053 Y14.5813
G01 X71.0041 Y14.4231
G01 X70.9040 Y14.1830
G01 X70.8193 Y13.8844
G01 X70.7695 Y13.5920
G01 X70.7531 Y13.3045
G01 X70.7670 Y13.0940
G01 X70.8021 Y12.9494
G01 X70.8503 Y12.8547
G00 Z3.0000
G00 X70.0210 Y12.7649
G01 F60.00
G01 Z-0.1500
G01 F70.00
G01 X70.0258 Y12.7581
G01 X70.1473 Y12.6137
G01 X70.1531 Y12.6079
G01 X70.2993 Y12.4831
G01 X70.4632 Y12.3849
G01 X70.4707 Y12.3812
G01 X70.6531 Y12.3103
G01 X70.8576 Y12.2661
G01 X70.8636 Y12.2651
G01 X71.0946 Y12.2499
G01 X71.3769 Y12.2704
G01 X71.3847 Y12.2716
G01 X71.6343 Y12.3305
G01 X71.6412 Y12.3329
G01 X71.8685 Y12.4301
G01 X72.0729 Y12.5638
G01 X72.0797 Y12.5692
G01 X72.2619 Y12.7401
G01 X72.2673 Y12.7461
G01 X72.4163 Y12.9406
G01 X72.5328 Y13.1541
G01 X72.5359 Y13.1611
G01 X72.6203 Y13.3962
G01 X72.6735 Y13.6608
G01 X72.6915 Y13.9485
G01 X72.6915 Y13.9549
G01 X72.6763 Y14.1864
G01 X72.6324 Y14.3948
G01 X72.6308 Y14.3997
G01 X72.5621 Y14.5803
G01 X72.5586 Y14.5876
G01 X72.4618 Y14.7535
G01 X72.3373 Y14.9034
G01 X72.3331 Y14.9075
G01 X72.1904 Y15.0312
G01 X72.1836 Y15.0362
G01 X72.0199 Y15.1350
G01 X71.8380 Y15.2067
G01 X71.8303 Y15.2090
G01 X71.6258 Y15.2533
G01 X71.3926 Y15.2691
G01 X71.1079 Y15.2481
G01 X70.8527 Y15.1871
G01 X70.6218 Y15.0875
G01 X70.4161 Y14.9516
G01 X70.4093 Y14.9463
G01 X70.2259 Y14.7727
G01 X70.2206 Y14.7669
G01 X70.0699 Y14.5704
G01 X69.9522 Y14.3559
G01 X69.9490 Y14.3489
G01 X69.8639 Y14.1136
G01 X69.8110 Y13.8534
G01 X69.8103 Y13.8477
G01 X69.7923 Y13.5619
G01 X69.8073 Y13.3300
G01 X69.8081 Y13.3241
G01 X69.8513 Y13.1208
G01 X69.8535 Y13.1133
G01 X69.9240 Y12.9301
G01 X70.0210 Y12.7649
G00 Z3.0000
G00 X67.1002 Y14.4547
G01 F60.00
G01 Z-0.1500
G01 F70.00
G01 X67.1039 Y14.4483
G01 X67.1083 Y14.4426
G01 X67.2029 Y14.3380
G01 X67.2072 Y14.3337
G01 X67.2119 Y14.3301
G01 X67.3248 Y14.2537
G01 X67.3300 Y14.2506
G01 X67.3355 Y14.2482
G01 X67.4587 Y14.2028
G01 X67.4644 Y14.2011
G01 X67.4704 Y14.2000
G01 X67.6073 Y14.1846
G01 X67.6123 Y14.1843
G01 X67.6184 Y14.1846
G01 X67.7582 Y14.2001
G01 X67.7653 Y14.2014
G01 X67.8943 Y14.2480
G01 X67.8999 Y14.2504
G01 X67.9051 Y14.2535
G01 X68.0180 Y14.3292
G01 X68.0227 Y14.3328
G01 X68.0269 Y14.3369
G01 X68.1252 Y14.4442
G01 X68.1280 Y14.4482
G01 X68.1310 Y14.4535
G01 X68.1864 Y14.5688
G01 X68.1896 Y14.5771
G01 X68.1909 Y14.5834
G01 X68.2099 Y14.7164
G01 X68.2099 Y14.7258
G01 X68.2066 Y14.7540
G01 X68.2716 Y14.7447
