(G-CODE GENERATED BY FLATCAM v8.994 - www.flatcam.org - Version Date: 2020/11/7)

(Name: Overdrive-B_Cu.gbr_iso_combined_cnc)
(Type: G-code from Geometry)
(Units: MM)

(Created on Thursday, 21 May 2026 at 11:40)

(This preprocessor is the default preprocessor used by FlatCAM.)
(It is made to work with MACH3 compatible motion controllers.)

(TOOL DIAMETER: 0.2643 mm)
(Feedrate_XY: 70.0 mm/min)
(Feedrate_Z: 60.0 mm/min)
(Feedrate rapids 300.0 mm/min)

(Z_Cut: -0.12 mm)
(Z_Move: 3.0 mm)
(Z Start: None mm)
(Z End: 15.0 mm)
(X,Y End: 0.0000, 0.0000 mm)
(Steps per circle: 64)
(Preprocessor Geometry: Default_no_M6)

(X range:    0.4684 ...   99.7317  mm)
(Y range:    0.4684 ...   67.7317  mm)

(Spindle Speed: 0.0 RPM)
G21
G90
G94

G01 F70.00

M5
G00 Z15.0000
G00 X0.0000 Y0.0000
T1
(MSG, Change to Tool Dia = 0.2643)
M0
G00 Z15.0000
        
M03
G01 F70.00
G00 X7.9102 Y11.9629
G01 F60.00
G01 Z-0.1200
G01 F70.00
G01 X7.9317 Y11.8967
G01 X8.0151 Y11.7330
G01 X8.1232 Y11.5842
G01 X8.2532 Y11.4543
G01 X8.4019 Y11.3462
G01 X8.5657 Y11.2628
G01 X8.7405 Y11.2060
G01 X8.8318 Y11.1915
G01 X8.8318 Y11.4309
G01 X8.7434 Y11.4530
G01 X8.6633 Y11.4815
G01 X8.6513 Y11.4865
G01 X8.5746 Y11.5230
G01 X8.5016 Y11.5665
G01 X8.4908 Y11.5737
G01 X8.4252 Y11.6225
G01 X8.4177 Y11.6287
G01 X8.3548 Y11.6859
G01 X8.2976 Y11.7488
G01 X8.2914 Y11.7562
G01 X8.2427 Y11.8219
G01 X8.2354 Y11.8327
G01 X8.1919 Y11.9056
G01 X8.1646 Y11.9629
G01 X7.9102 Y11.9629
G00 Z3.0000
G00 X7.9602 Y11.9629
G01 F60.00
G01 Z-0.1200
G01 F70.00
G01 X7.9102 Y11.9629
G01 X7.9256 Y11.9153
G01 X7.9102 Y11.9629
G00 Z3.0000
G00 X7.9102 Y12.7272
G01 F60.00
G01 Z-0.1200
G01 F70.00
G01 X8.1646 Y12.7272
G01 X8.1919 Y12.7845
G01 X8.2354 Y12.8574
G01 X8.2427 Y12.8682
G01 X8.2914 Y12.9339
G01 X8.2976 Y12.9413
G01 X8.3548 Y13.0042
G01 X8.4177 Y13.0614
G01 X8.4252 Y13.0676
G01 X8.4908 Y13.1164
G01 X8.5016 Y13.1236
G01 X8.5746 Y13.1671
G01 X8.6513 Y13.2036
G01 X8.6633 Y13.2086
G01 X8.7437 Y13.2371
G01 X8.8318 Y13.2592
G01 X8.8318 Y13.4986
G01 X8.7405 Y13.4841
G01 X8.5657 Y13.4273
G01 X8.4019 Y13.3439
G01 X8.2532 Y13.2358
G01 X8.1232 Y13.1059
G01 X8.0151 Y12.9571
G01 X7.9317 Y12.7934
G01 X7.9102 Y12.7272
G00 Z3.0000
G00 X7.9256 Y12.7748
G01 F60.00
G01 Z-0.1200
G01 F70.00
G01 X7.9102 Y12.7272
G01 X7.9602 Y12.7272
G01 X7.9102 Y12.7272
G00 Z3.0000
G00 X9.5961 Y13.4986
G01 F60.00
G01 Z-0.1200
G01 F70.00
G01 X9.5961 Y13.2592
G01 X9.6846 Y13.2371
G01 X9.7646 Y13.2086
G01 X9.7766 Y13.2036
G01 X9.8534 Y13.1671
G01 X9.9264 Y13.1236
G01 X9.9372 Y13.1164
G01 X10.0028 Y13.0676
G01 X10.0102 Y13.0614
G01 X10.0731 Y13.0042
G01 X10.1303 Y12.9413
G01 X10.1366 Y12.9339
G01 X10.1853 Y12.8682
G01 X10.1925 Y12.8574
G01 X10.2361 Y12.7845
G01 X10.2633 Y12.7272
G01 X10.5178 Y12.7272
G01 X10.4963 Y12.7934
G01 X10.4128 Y12.9571
G01 X10.3048 Y13.1059
G01 X10.1748 Y13.2358
G01 X10.0261 Y13.3439
G01 X9.8623 Y13.4273
G01 X9.6874 Y13.4841
G01 X9.5961 Y13.4986
G00 Z3.0000
G00 X9.6455 Y13.4908
G01 F60.00
G01 Z-0.1200
G01 F70.00
G01 X9.5961 Y13.4986
G01 X9.5961 Y13.4486
G01 X9.5961 Y13.4986
G00 Z3.0000
G00 X9.5961 Y11.4309
G01 F60.00
G01 Z-0.1200
G01 F70.00
G01 X9.5961 Y11.1915
G01 X9.6874 Y11.2060
G01 X9.8623 Y11.2628
G01 X10.0261 Y11.3462
G01 X10.1748 Y11.4543
G01 X10.3048 Y11.5842
G01 X10.4128 Y11.7330
G01 X10.4963 Y11.8967
G01 X10.5178 Y11.9629
G01 X10.2633 Y11.9629
G01 X10.2361 Y11.9056
G01 X10.1925 Y11.8327
G01 X10.1853 Y11.8219
G01 X10.1366 Y11.7562
G01 X10.1303 Y11.7488
G01 X10.0731 Y11.6859
G01 X10.0102 Y11.6287
G01 X10.0028 Y11.6225
G01 X9.9372 Y11.5737
G01 X9.9264 Y11.5665
G01 X9.8534 Y11.5230
G01 X9.7766 Y11.4865
G01 X9.7646 Y11.4815
G01 X9.6846 Y11.4530
G01 X9.5961 Y11.4309
G00 Z3.0000
G00 X9.6446 Y11.4430
G01 F60.00
G01 Z-0.1200
G01 F70.00
G01 X9.5961 Y11.4309
G01 X9.5961 Y11.3809
G01 X9.5961 Y11.4309
G00 Z3.0000
G00 X8.3312 Y17.3935
G01 F60.00
G01 Z-0.1200
G01 F70.00
G01 X8.2744 Y17.2186
G01 X8.2456 Y17.0370
G01 X8.2456 Y16.8531
G01 X8.2744 Y16.6715
G01 X8.3312 Y16.4966
G01 X8.4147 Y16.3327
G01 X8.5228 Y16.1839
G01 X8.6529 Y16.0539
G01 X8.8016 Y15.9458
G01 X8.9655 Y15.8623
G01 X9.1404 Y15.8055
G01 X9.3220 Y15.7767
G01 X9.9059 Y15.7767
G01 X10.0876 Y15.8055
G01 X10.2625 Y15.8623
G01 X10.4263 Y15.9458
G01 X10.5392 Y16.0278
G01 X10.5508 Y16.0357
G01 X10.5618 Y16.0421
G01 X10.5734 Y16.0475
G01 X10.5854 Y16.0516
G01 X10.6555 Y16.0722
G01 X10.6647 Y16.0743
G01 X10.6740 Y16.0758
G01 X10.6897 Y16.0767
G01 X12.1482 Y16.0767
G01 X12.1588 Y16.0763
G01 X12.1919 Y16.0727
G01 X12.2047 Y16.0704
G01 X12.2140 Y16.0678
G01 X12.2262 Y16.0634
G01 X12.2350 Y16.0592
G01 X12.3047 Y16.0211
G01 X12.3151 Y16.0140
G01 X12.3271 Y16.0039
G01 X12.9706 Y15.3604
G01 X12.9778 Y15.3526
G01 X12.9987 Y15.3267
G01 X13.0061 Y15.3160
G01 X13.0124 Y15.3047
G01 X13.0163 Y15.2958
G01 X13.0206 Y15.2835
G01 X13.0411 Y15.2135
G01 X13.0443 Y15.1981
G01 X13.0453 Y15.1887
G01 X13.0456 Y15.1793
G01 X13.0456 Y15.0531
G01 X13.0744 Y14.8715
G01 X13.1312 Y14.6966
G01 X13.2147 Y14.5327
G01 X13.3228 Y14.3839
G01 X13.4567 Y14.2501
G01 X13.4652 Y14.2419
G01 X13.4954 Y14.2075
G01 X13.5030 Y14.1974
G01 X13.5112 Y14.1838
G01 X13.5152 Y14.1752
G01 X13.5187 Y14.1663
G01 X13.5403 Y14.0932
G01 X13.5426 Y14.0841
G01 X13.5447 Y14.0717
G01 X13.5456 Y14.0560
G01 X13.5456 Y12.8755
G01 X13.5449 Y12.8614
G01 X13.5416 Y12.8318
G01 X13.5400 Y12.8222
G01 X13.5357 Y12.8066
G01 X13.5323 Y12.7975
G01 X13.5281 Y12.7887
G01 X13.4916 Y12.7217
G01 X13.4848 Y12.7111
G01 X13.4749 Y12.6989
G01 X12.3072 Y11.5309
G01 X12.2121 Y11.3887
G01 X12.1467 Y11.2307
G01 X12.1133 Y11.0629
G01 X12.1133 Y9.1177
G01 X12.1127 Y9.1054
G01 X12.1116 Y9.0963
G01 X12.1019 Y9.0451
G01 X12.0986 Y9.0324
G01 X12.0952 Y9.0232
G01 X12.0897 Y9.0113
G01 X12.0831 Y9.0000
G01 X12.0774 Y8.9920
G01 X12.0347 Y8.9367
G01 X12.0287 Y8.9294
G01 X12.0221 Y8.9226
G01 X12.0151 Y8.9163
G01 X12.0077 Y8.9105
G01 X11.8402 Y8.7888
G01 X11.6879 Y8.6365
G01 X11.5613 Y8.4622
G01 X11.4636 Y8.2703
G01 X11.3970 Y8.0655
G01 X11.3633 Y7.8527
G01 X11.3633 Y7.6374
G01 X11.3970 Y7.4246
G01 X11.4636 Y7.2198
G01 X11.5613 Y7.0279
G01 X11.6879 Y6.8536
G01 X11.8402 Y6.7013
G01 X12.0145 Y6.5747
G01 X12.2064 Y6.4770
G01 X12.4112 Y6.4104
G01 X12.6240 Y6.3767
G01 X13.3393 Y6.3767
G01 X13.5521 Y6.4104
G01 X13.7569 Y6.4770
G01 X13.9488 Y6.5747
G01 X14.1231 Y6.7013
G01 X14.2754 Y6.8536
G01 X14.4020 Y7.0279
G01 X14.4998 Y7.2198
G01 X14.5663 Y7.4246
G01 X14.6000 Y7.6374
G01 X14.6000 Y7.8527
G01 X14.5663 Y8.0655
G01 X14.4998 Y8.2703
G01 X14.4020 Y8.4622
G01 X14.2754 Y8.6365
G01 X14.1231 Y8.7888
G01 X13.9507 Y8.9142
G01 X13.9393 Y8.9244
G01 X13.9035 Y8.9623
G01 X13.8953 Y8.9725
G01 X13.8898 Y8.9806
G01 X13.8834 Y8.9921
G01 X13.8794 Y9.0010
G01 X13.8750 Y9.0134
G01 X13.8537 Y9.0865
G01 X13.8509 Y9.1020
G01 X13.8500 Y9.1177
G01 X13.8500 Y10.5116
G01 X13.8508 Y10.5257
G01 X13.8540 Y10.5553
G01 X13.8556 Y10.5649
G01 X13.8579 Y10.5743
G01 X13.8610 Y10.5836
G01 X13.8647 Y10.5926
G01 X13.8690 Y10.6013
G01 X13.9056 Y10.6681
G01 X13.9146 Y10.6810
G01 X13.9228 Y10.6905
G01 X15.0885 Y11.8562
G01 X15.1835 Y11.9984
G01 X15.2490 Y12.1564
G01 X15.2823 Y12.3242
G01 X15.2823 Y14.0560
G01 X15.2833 Y14.0721
G01 X15.2890 Y14.1111
G01 X15.2907 Y14.1204
G01 X15.2941 Y14.1326
G01 X15.2986 Y14.1445
G01 X15.3027 Y14.1531
G01 X15.3074 Y14.1613
G01 X15.3508 Y14.2277
G01 X15.3566 Y14.2352
G01 X15.3629 Y14.2422
G01 X15.3713 Y14.2501
G01 X15.5051 Y14.3839
G01 X15.6132 Y14.5327
G01 X15.6967 Y14.6966
G01 X15.7536 Y14.8715
G01 X15.7823 Y15.0531
G01 X15.7823 Y15.2370
G01 X15.7536 Y15.4186
G01 X15.6967 Y15.5935
G01 X15.6132 Y15.7574
G01 X15.5051 Y15.9062
G01 X15.3751 Y16.0362
G01 X15.2263 Y16.1443
G01 X15.0625 Y16.2278
G01 X14.8876 Y16.2846
G01 X14.7059 Y16.3134
G01 X14.5762 Y16.3134
G01 X14.5656 Y16.3142
G01 X14.5393 Y16.3170
G01 X14.5265 Y16.3190
G01 X14.5108 Y16.3233
G01 X14.5017 Y16.3267
G01 X14.4929 Y16.3309
G01 X14.4260 Y16.3674
G01 X14.4180 Y16.3724
G01 X14.4104 Y16.3780
G01 X14.3986 Y16.3884
G01 X13.1675 Y17.6195
G01 X13.0253 Y17.7146
G01 X12.8673 Y17.7800
G01 X12.6995 Y17.8134
G01 X10.6897 Y17.8134
G01 X10.6693 Y17.8143
G01 X10.6567 Y17.8162
G01 X10.6413 Y17.8203
G01 X10.5695 Y17.8459
G01 X10.5552 Y17.8524
G01 X10.5470 Y17.8571
G01 X10.5392 Y17.8623
G01 X10.4263 Y17.9443
G01 X10.2625 Y18.0278
G01 X10.0876 Y18.0846
G01 X9.9059 Y18.1134
G01 X9.3220 Y18.1134
G01 X9.1404 Y18.0846
G01 X8.9655 Y18.0278
G01 X8.8016 Y17.9443
G01 X8.6529 Y17.8362
G01 X8.5228 Y17.7062
G01 X8.4147 Y17.5574
G01 X8.3312 Y17.3935
G00 Z3.0000
G00 X8.3539 Y17.4381
G01 F60.00
G01 Z-0.1200
G01 F70.00
G01 X8.3312 Y17.3935
G01 X8.3158 Y17.3460
G01 X8.3312 Y17.3935
G00 Z3.0000
G00 X9.1496 Y17.8388
G01 F60.00
G01 Z-0.1200
G01 F70.00
G01 X9.1372 Y17.8350
G01 X9.0573 Y17.8062
G01 X8.9804 Y17.7700
G01 X8.9689 Y17.7639
G01 X8.8961 Y17.7201
G01 X8.8277 Y17.6696
G01 X8.8177 Y17.6614
G01 X8.7595 Y17.6087
G01 X8.7504 Y17.5995
G01 X8.6934 Y17.5364
G01 X8.6427 Y17.4682
G01 X8.6354 Y17.4574
G01 X8.5919 Y17.3845
G01 X8.5554 Y17.3077
G01 X8.5504 Y17.2957
G01 X8.5220 Y17.2156
G01 X8.4997 Y17.1269
G01 X8.4863 Y17.0364
G01 X8.4820 Y16.9515
G01 X8.4820 Y16.9386
G01 X8.4863 Y16.8537
G01 X8.4986 Y16.7696
G01 X8.5012 Y16.7569
G01 X8.5220 Y16.6745
G01 X8.5504 Y16.5944
G01 X8.5554 Y16.5824
G01 X8.5919 Y16.5056
G01 X8.6354 Y16.4327
G01 X8.6427 Y16.4219
G01 X8.6934 Y16.3537
G01 X8.7504 Y16.2906
G01 X8.7595 Y16.2814
G01 X8.8177 Y16.2287
G01 X8.8277 Y16.2205
G01 X8.8961 Y16.1700
G01 X8.9689 Y16.1262
G01 X8.9804 Y16.1201
G01 X9.0513 Y16.0865
G01 X9.0633 Y16.0815
G01 X9.1434 Y16.0530
G01 X9.2321 Y16.0308
G01 X9.3226 Y16.0174
G01 X9.4107 Y16.0129
G01 X9.8172 Y16.0129
G01 X9.9053 Y16.0174
G01 X9.9958 Y16.0308
G01 X10.0846 Y16.0530
G01 X10.1646 Y16.0815
G01 X10.1737 Y16.0851
G01 X10.2534 Y16.1230
G01 X10.3264 Y16.1665
G01 X10.3345 Y16.1718
G01 X10.4002 Y16.2205
G01 X10.4078 Y16.2266
G01 X10.4708 Y16.2837
G01 X10.4776 Y16.2906
G01 X10.4975 Y16.3126
G01 X12.3520 Y16.3126
G01 X13.3072 Y15.3575
G01 X13.3012 Y15.3332
G01 X13.2991 Y15.3237
G01 X13.2871 Y15.2429
G01 X13.2860 Y15.2332
G01 X13.2818 Y15.1450
G01 X13.2860 Y15.0569
G01 X13.2871 Y15.0472
G01 X13.2997 Y14.9632
G01 X13.3202 Y14.8807
G01 X13.3240 Y14.8683
G01 X13.3504 Y14.7944
G01 X13.3541 Y14.7854
G01 X13.3919 Y14.7056
G01 X13.4389 Y14.6272
G01 X13.4934 Y14.5537
G01 X13.5504 Y14.4906
G01 X13.5595 Y14.4814
G01 X13.6226 Y14.4245
G01 X13.6908 Y14.3737
G01 X13.7016 Y14.3665
G01 X13.7689 Y14.3262
G01 X13.7816 Y14.3195
G01 X13.7816 Y12.6716
G01 X12.5322 Y11.4222
G01 X12.4928 Y11.3786
G01 X12.4558 Y11.3287
G01 X12.4239 Y11.2755
G01 X12.3987 Y11.2224
G01 X12.3951 Y11.2133
G01 X12.3765 Y11.1609
G01 X12.3614 Y11.1007
G01 X12.3523 Y11.0394
G01 X12.3493 Y10.9806
G01 X12.3493 Y8.8094
G01 X12.3044 Y8.7934
G01 X12.2954 Y8.7897
G01 X12.2038 Y8.7464
G01 X12.1951 Y8.7420
G01 X12.1027 Y8.6864
G01 X12.0160 Y8.6222
G01 X12.0085 Y8.6160
G01 X11.9358 Y8.5501
G01 X11.9266 Y8.5409
G01 X11.8565 Y8.4633
G01 X11.7921 Y8.3767
G01 X11.7868 Y8.3686
G01 X11.7364 Y8.2844
G01 X11.7303 Y8.2729
G01 X11.6857 Y8.1783
G01 X11.6483 Y8.0737
G01 X11.6227 Y7.9723
G01 X11.6201 Y7.9595
G01 X11.6050 Y7.8560
G01 X11.5995 Y7.7483
G01 X11.5997 Y7.7386
G01 X11.6045 Y7.6405
G01 X11.6057 Y7.6276
G01 X11.6213 Y7.5242
G01 X11.6465 Y7.4227
G01 X11.6503 Y7.4102
G01 X11.6857 Y7.3119
G01 X11.7303 Y7.2172
G01 X11.7364 Y7.2057
G01 X11.7903 Y7.1161
G01 X11.8525 Y7.0319
G01 X11.8607 Y7.0219
G01 X11.9311 Y6.9445
G01 X12.0134 Y6.8699
G01 X12.0974 Y6.8074
G01 X12.1081 Y6.8002
G01 X12.1923 Y6.7498
G01 X12.2008 Y6.7451
G01 X12.2984 Y6.6991
G01 X12.3974 Y6.6635
G01 X12.4093 Y6.6599
G01 X12.5108 Y6.6347
G01 X12.6142 Y6.6191
G01 X12.6271 Y6.6179
G01 X12.7284 Y6.6129
G01 X13.2317 Y6.6129
G01 X13.3426 Y6.6184
G01 X13.4461 Y6.6335
G01 X13.4589 Y6.6361
G01 X13.5603 Y6.6617
G01 X13.6648 Y6.6991
G01 X13.7595 Y6.7437
G01 X13.7710 Y6.7498
G01 X13.8606 Y6.8037
G01 X13.9499 Y6.8699
G01 X14.0275 Y6.9400
G01 X14.0367 Y6.9492
G01 X14.1068 Y7.0268
G01 X14.1730 Y7.1161
G01 X14.2301 Y7.2114
G01 X14.2750 Y7.3059
G01 X14.2800 Y7.3178
G01 X14.3151 Y7.4167
G01 X14.3420 Y7.5242
G01 X14.3576 Y7.6276
G01 X14.3588 Y7.6405
G01 X14.3636 Y7.7386
G01 X14.3638 Y7.7483
G01 X14.3583 Y7.8560
G01 X14.3432 Y7.9595
G01 X14.3406 Y7.9723
G01 X14.3151 Y8.0737
G01 X14.2776 Y8.1783
G01 X14.2330 Y8.2729
G01 X14.2269 Y8.2844
G01 X14.1765 Y8.3686
G01 X14.1712 Y8.3767
G01 X14.1068 Y8.4633
G01 X14.0367 Y8.5409
G01 X14.0275 Y8.5501
G01 X13.9548 Y8.6160
G01 X13.9473 Y8.6222
G01 X13.8606 Y8.6864
G01 X13.7682 Y8.7420
G01 X13.7595 Y8.7464
G01 X13.6679 Y8.7897
G01 X13.6589 Y8.7934
G01 X13.6141 Y8.8094
G01 X13.6141 Y10.7154
G01 X14.8634 Y11.9648
G01 X14.9028 Y12.0085
G01 X14.9398 Y12.0584
G01 X14.9717 Y12.1116
G01 X14.9956 Y12.1618
G01 X14.9994 Y12.1707
G01 X15.0191 Y12.2261
G01 X15.0342 Y12.2863
G01 X15.0433 Y12.3477
G01 X15.0463 Y12.4065
G01 X15.0464 Y14.3195
G01 X15.0590 Y14.3262
G01 X15.1264 Y14.3665
G01 X15.1372 Y14.3737
G01 X15.2053 Y14.4245
G01 X15.2684 Y14.4814
G01 X15.2776 Y14.4906
G01 X15.3345 Y14.5537
G01 X15.3890 Y14.6272
G01 X15.4361 Y14.7056
G01 X15.4725 Y14.7824
G01 X15.4775 Y14.7944
G01 X15.5060 Y14.8745
G01 X15.5282 Y14.9632
G01 X15.5416 Y15.0537
G01 X15.5461 Y15.1450
G01 X15.5416 Y15.2364
G01 X15.5282 Y15.3269
G01 X15.5059 Y15.4160
G01 X15.4752 Y15.5018
G01 X15.4361 Y15.5845
G01 X15.3925 Y15.6574
G01 X15.3853 Y15.6682
G01 X15.3385 Y15.7313
G01 X15.3303 Y15.7413
G01 X15.2731 Y15.8042
G01 X15.2053 Y15.8656
G01 X15.1318 Y15.9201
G01 X15.0534 Y15.9671
G01 X14.9707 Y16.0062
G01 X14.8907 Y16.0350
G01 X14.8783 Y16.0388
G01 X14.8022 Y16.0579
G01 X14.7926 Y16.0599
G01 X14.7053 Y16.0727
G01 X14.6205 Y16.0770
G01 X14.3762 Y16.0772
G01 X13.0588 Y17.3945
G01 X13.0152 Y17.4339
G01 X12.9653 Y17.4709
G01 X12.9121 Y17.5028
G01 X12.8619 Y17.5267
G01 X12.8499 Y17.5316
G01 X12.7975 Y17.5502
G01 X12.7373 Y17.5653
G01 X12.6760 Y17.5744
G01 X12.6172 Y17.5774
G01 X10.4975 Y17.5774
G01 X10.4776 Y17.5995
G01 X10.4708 Y17.6064
G01 X10.4102 Y17.6614
G01 X10.4028 Y17.6676
G01 X10.3318 Y17.7201
G01 X10.2562 Y17.7656
G01 X10.2476 Y17.7700
G01 X10.1766 Y17.8036
G01 X10.1646 Y17.8086
G01 X10.0846 Y17.8371
G01 X9.9958 Y17.8593
G01 X9.9053 Y17.8727
G01 X9.8172 Y17.8772
G01 X9.4107 Y17.8772
G01 X9.3291 Y17.8732
G01 X9.3162 Y17.8719
G01 X9.2321 Y17.8593
G01 X9.1496 Y17.8388
G00 Z3.0000
G00 X9.1982 Y17.8508
G01 F60.00
G01 Z-0.1200
G01 F70.00
G01 X9.1496 Y17.8388
G01 X9.1372 Y17.8350
G01 X9.1024 Y17.8225
G01 X9.1372 Y17.8350
G01 X9.1496 Y17.8388
G00 Z3.0000
G00 X5.4461 Y19.3559
G01 F60.00
G01 Z-0.1200
G01 F70.00
G01 X5.4461 Y19.0820
G01 X5.5309 Y19.1252
G01 X5.7051 Y19.2517
G01 X5.8573 Y19.4040
G01 X5.9839 Y19.5781
G01 X6.0816 Y19.7700
G01 X6.1280 Y19.9129
G01 X5.8784 Y19.9129
G01 X5.8623 Y19.8678
G01 X5.8587 Y19.8588
G01 X5.8154 Y19.7672
G01 X5.8109 Y19.7585
G01 X5.7553 Y19.6661
G01 X5.6912 Y19.5794
G01 X5.6849 Y19.5719
G01 X5.6190 Y19.4992
G01 X5.6098 Y19.4900
G01 X5.5322 Y19.4199
G01 X5.4461 Y19.3559
G00 Z3.0000
G00 X5.4862 Y19.3857
G01 F60.00
G01 Z-0.1200
G01 F70.00
G01 X5.4461 Y19.3559
G01 X5.4461 Y19.3059
G01 X5.4461 Y19.3559
G00 Z3.0000
G00 X3.4999 Y19.9129
G01 F60.00
G01 Z-0.1200
G01 F70.00
G01 X3.5463 Y19.7700
G01 X3.6441 Y19.5781
G01 X3.7706 Y19.4040
G01 X3.9229 Y19.2517
G01 X4.0971 Y19.1252
G01 X4.1818 Y19.0820
G01 X4.1818 Y19.3559
G01 X4.0957 Y19.4199
G01 X4.0181 Y19.4900
G01 X4.0090 Y19.4992
G01 X3.9430 Y19.5719
G01 X3.9368 Y19.5794
G01 X3.8726 Y19.6661
G01 X3.8171 Y19.7585
G01 X3.8126 Y19.7672
G01 X3.7693 Y19.8588
G01 X3.7657 Y19.8678
G01 X3.7495 Y19.9129
G01 X3.4999 Y19.9129
G00 Z3.0000
G00 X3.5499 Y19.9129
G01 F60.00
G01 Z-0.1200
G01 F70.00
G01 X3.4999 Y19.9129
G01 X3.5154 Y19.8653
G01 X3.4999 Y19.9129
G00 Z3.0000
G00 X3.4999 Y21.1772
G01 F60.00
G01 Z-0.1200
G01 F70.00
G01 X3.7495 Y21.1772
G01 X3.7657 Y21.2223
G01 X3.7693 Y21.2313
G01 X3.8126 Y21.3229
G01 X3.8171 Y21.3316
G01 X3.8726 Y21.4240
G01 X3.9368 Y21.5107
G01 X3.9430 Y21.5182
G01 X4.0090 Y21.5909
G01 X4.0181 Y21.6001
G01 X4.0957 Y21.6702
G01 X4.1818 Y21.7342
G01 X4.1818 Y22.0081
G01 X4.0971 Y21.9649
G01 X3.9229 Y21.8384
G01 X3.7706 Y21.6861
G01 X3.6441 Y21.5120
G01 X3.5463 Y21.3201
G01 X3.4999 Y21.1772
G00 Z3.0000
G00 X3.5154 Y21.2248
G01 F60.00
G01 Z-0.1200
G01 F70.00
G01 X3.4999 Y21.1772
G01 X3.5499 Y21.1772
G01 X3.4999 Y21.1772
G00 Z3.0000
G00 X5.4461 Y22.0081
G01 F60.00
G01 Z-0.1200
G01 F70.00
G01 X5.4461 Y21.7342
G01 X5.5322 Y21.6702
G01 X5.6098 Y21.6001
G01 X5.6190 Y21.5909
G01 X5.6849 Y21.5182
G01 X5.6912 Y21.5107
G01 X5.7553 Y21.4240
G01 X5.8109 Y21.3316
G01 X5.8154 Y21.3229
G01 X5.8587 Y21.2313
G01 X5.8623 Y21.2223
G01 X5.8784 Y21.1772
G01 X6.1280 Y21.1772
G01 X6.0816 Y21.3201
G01 X5.9839 Y21.5120
G01 X5.8573 Y21.6861
G01 X5.7051 Y21.8384
G01 X5.5309 Y21.9649
G01 X5.4461 Y22.0081
G00 Z3.0000
G00 X5.4907 Y21.9854
G01 F60.00
G01 Z-0.1200
G01 F70.00
G01 X5.4461 Y22.0081
G01 X5.4461 Y21.9581
G01 X5.4461 Y22.0081
G00 Z3.0000
G00 X4.7492 Y24.2637
G01 F60.00
G01 Z-0.1200
G01 F70.00
G01 X4.7616 Y24.2599
G01 X4.8568 Y24.2361
G01 X4.8695 Y24.2335
G01 X4.9730 Y24.2184
G01 X5.0840 Y24.2129
G01 X5.5840 Y24.2129
G01 X5.6885 Y24.2179
G01 X5.7014 Y24.2191
G01 X5.8048 Y24.2347
G01 X5.9064 Y24.2599
G01 X5.9188 Y24.2637
G01 X6.0112 Y24.2967
G01 X6.0232 Y24.3017
G01 X6.1177 Y24.3466
G01 X6.2075 Y24.4002
G01 X6.2183 Y24.4074
G01 X6.3022 Y24.4699
G01 X6.3845 Y24.5445
G01 X6.4591 Y24.6268
G01 X6.5230 Y24.7126
G01 X11.0172 Y24.7127
G01 X11.0760 Y24.7157
G01 X11.1310 Y24.7237
G01 X11.1437 Y24.7262
G01 X11.1975 Y24.7399
G01 X11.2499 Y24.7585
G01 X11.2619 Y24.7634
G01 X11.3121 Y24.7873
G01 X11.3653 Y24.8192
G01 X11.4152 Y24.8562
G01 X11.4611 Y24.8979
G01 X16.7611 Y30.1979
G01 X16.7986 Y30.2389
G01 X16.8049 Y30.2464
G01 X16.8361 Y30.2884
G01 X16.8433 Y30.2992
G01 X16.8717 Y30.3469
G01 X16.8956 Y30.3971
G01 X16.9006 Y30.4091
G01 X16.9191 Y30.4615
G01 X16.9328 Y30.5153
G01 X16.9348 Y30.5249
G01 X16.9433 Y30.5831
G01 X16.9463 Y30.6418
G01 X16.9464 Y31.0807
G01 X16.9912 Y31.0967
G01 X17.0002 Y31.1003
G01 X17.0948 Y31.1451
G01 X17.1033 Y31.1498
G01 X17.1902 Y31.2019
G01 X17.1983 Y31.2074
G01 X17.2822 Y31.2699
G01 X17.3598 Y31.3400
G01 X17.3668 Y31.3468
G01 X17.4349 Y31.4219
G01 X17.4431 Y31.4319
G01 X17.5053 Y31.5161
G01 X17.5592 Y31.6057
G01 X17.5654 Y31.6172
G01 X17.6099 Y31.7118
G01 X17.6453 Y31.8102
G01 X17.6483 Y31.8196
G01 X17.6744 Y31.9242
G01 X17.6899 Y32.0276
G01 X17.6911 Y32.0405
G01 X17.6961 Y32.1450
G01 X17.6911 Y32.2496
G01 X17.6899 Y32.2625
G01 X17.6755 Y32.3595
G01 X17.6729 Y32.3723
G01 X17.6474 Y32.4737
G01 X17.6099 Y32.5783
G01 X17.5624 Y32.6787
G01 X17.5053 Y32.7740
G01 X17.4391 Y32.8633
G01 X17.3690 Y32.9409
G01 X17.3598 Y32.9501
G01 X17.2822 Y33.0202
G01 X17.1983 Y33.0827
G01 X17.1875 Y33.0899
G01 X17.1033 Y33.1403
G01 X17.0919 Y33.1464
G01 X16.9972 Y33.1910
G01 X16.8926 Y33.2284
G01 X16.7848 Y33.2554
G01 X16.6814 Y33.2710
G01 X16.6717 Y33.2720
G01 X16.5640 Y33.2772
G01 X16.0607 Y33.2772
G01 X15.9530 Y33.2717
G01 X15.8495 Y33.2566
G01 X15.8399 Y33.2548
G01 X15.7353 Y33.2284
G01 X15.6368 Y33.1934
G01 X15.6248 Y33.1884
G01 X15.5303 Y33.1435
G01 X15.4405 Y33.0899
G01 X15.4297 Y33.0827
G01 X15.3457 Y33.0202
G01 X15.2634 Y32.9456
G01 X15.1930 Y32.8682
G01 X15.1848 Y32.8582
G01 X15.1226 Y32.7740
G01 X15.0687 Y32.6844
G01 X15.0626 Y32.6729
G01 X15.0180 Y32.5783
G01 X14.9806 Y32.4737
G01 X14.9536 Y32.3659
G01 X14.9381 Y32.2625
G01 X14.9368 Y32.2496
G01 X14.9318 Y32.1450
G01 X14.9368 Y32.0405
G01 X14.9381 Y32.0276
G01 X14.9536 Y31.9242
G01 X14.9788 Y31.8227
G01 X14.9826 Y31.8102
G01 X15.0180 Y31.7119
G01 X15.0626 Y31.6172
G01 X15.0687 Y31.6057
G01 X15.1226 Y31.5161
G01 X15.1848 Y31.4319
G01 X15.1909 Y31.4243
G01 X15.2590 Y31.3492
G01 X15.2681 Y31.3400
G01 X15.3457 Y31.2699
G01 X15.4323 Y31.2055
G01 X15.4405 Y31.2002
G01 X15.5246 Y31.1498
G01 X15.5332 Y31.1451
G01 X15.6277 Y31.1004
G01 X15.6368 Y31.0967
G01 X15.6816 Y31.0807
G01 X15.6816 Y30.9070
G01 X10.7520 Y25.9774
G01 X6.5230 Y25.9774
G01 X6.4591 Y26.0633
G01 X6.3845 Y26.1456
G01 X6.3022 Y26.2202
G01 X6.2183 Y26.2827
G01 X6.2075 Y26.2899
G01 X6.1177 Y26.3435
G01 X6.0232 Y26.3884
G01 X6.0112 Y26.3934
G01 X5.9188 Y26.4264
G01 X5.9064 Y26.4302
G01 X5.8048 Y26.4554
G01 X5.7014 Y26.4710
G01 X5.6885 Y26.4722
G01 X5.5840 Y26.4772
G01 X5.0840 Y26.4772
G01 X4.9795 Y26.4722
G01 X4.9666 Y26.4710
G01 X4.8631 Y26.4554
G01 X4.7584 Y26.4294
G01 X4.7492 Y26.4264
G01 X4.6568 Y26.3934
G01 X4.6448 Y26.3884
G01 X4.5503 Y26.3435
G01 X4.4550 Y26.2864
G01 X4.3657 Y26.2202
G01 X4.2881 Y26.1501
G01 X4.2790 Y26.1409
G01 X4.2130 Y26.0682
G01 X4.2048 Y26.0582
G01 X4.1426 Y25.9740
G01 X4.0855 Y25.8787
G01 X4.0380 Y25.7783
G01 X4.0026 Y25.6799
G01 X3.9988 Y25.6674
G01 X3.9750 Y25.5723
G01 X3.9725 Y25.5595
G01 X3.9573 Y25.4560
G01 X3.9518 Y25.3450
G01 X3.9568 Y25.2405
G01 X3.9581 Y25.2276
G01 X3.9736 Y25.1242
G01 X4.0006 Y25.0164
G01 X4.0380 Y24.9118
G01 X4.0826 Y24.8172
G01 X4.0887 Y24.8057
G01 X4.1392 Y24.7215
G01 X4.1464 Y24.7108
G01 X4.2088 Y24.6268
G01 X4.2834 Y24.5445
G01 X4.3657 Y24.4699
G01 X4.4497 Y24.4074
G01 X4.4605 Y24.4002
G01 X4.5446 Y24.3498
G01 X4.5561 Y24.3437
G01 X4.6507 Y24.2991
G01 X4.7492 Y24.2637
G00 Z3.0000
G00 X4.7021 Y24.2806
G01 F60.00
G01 Z-0.1200
G01 F70.00
G01 X4.7492 Y24.2637
G01 X4.7616 Y24.2599
G01 X4.7975 Y24.2509
G01 X4.7616 Y24.2599
G01 X4.7492 Y24.2637
G00 Z3.0000
G00 X3.8159 Y25.8703
G01 F60.00
G01 Z-0.1200
G01 F70.00
G01 X3.7493 Y25.6655
G01 X3.7156 Y25.4527
G01 X3.7156 Y25.2374
G01 X3.7493 Y25.0246
G01 X3.8159 Y24.8198
G01 X3.9137 Y24.6279
G01 X4.0403 Y24.4536
G01 X4.1926 Y24.3013
G01 X4.3668 Y24.1747
G01 X4.5587 Y24.0770
G01 X4.7636 Y24.0104
G01 X4.9763 Y23.9767
G01 X5.6917 Y23.9767
G01 X5.9044 Y24.0104
G01 X6.1092 Y24.0770
G01 X6.3011 Y24.1747
G01 X6.4754 Y24.3013
G01 X6.5783 Y24.4041
G01 X6.5863 Y24.4111
G01 X6.6069 Y24.4278
G01 X6.6147 Y24.4336
G01 X6.6229 Y24.4388
G01 X6.6315 Y24.4434
G01 X6.6403 Y24.4474
G01 X6.6495 Y24.4507
G01 X6.7227 Y24.4722
G01 X6.7349 Y24.4749
G01 X6.7443 Y24.4761
G01 X6.7569 Y24.4767
G01 X11.0995 Y24.4767
G01 X11.2673 Y24.5101
G01 X11.4253 Y24.5755
G01 X11.5675 Y24.6706
G01 X16.9885 Y30.0915
G01 X17.0835 Y30.2337
G01 X17.1490 Y30.3918
G01 X17.1823 Y30.5595
G01 X17.1823 Y30.7724
G01 X17.1826 Y30.7816
G01 X17.1846 Y30.7968
G01 X17.1944 Y30.8482
G01 X17.1971 Y30.8577
G01 X17.2004 Y30.8669
G01 X17.2075 Y30.8817
G01 X17.2163 Y30.8955
G01 X17.2609 Y30.9534
G01 X17.2670 Y30.9607
G01 X17.2758 Y30.9697
G01 X17.2879 Y30.9796
G01 X17.4554 Y31.1013
G01 X17.6077 Y31.2536
G01 X17.7343 Y31.4279
G01 X17.8321 Y31.6198
G01 X17.8986 Y31.8246
G01 X17.9323 Y32.0374
G01 X17.9323 Y32.2527
G01 X17.8986 Y32.4655
G01 X17.8321 Y32.6703
G01 X17.7343 Y32.8622
G01 X17.6077 Y33.0365
G01 X17.4554 Y33.1888
G01 X17.2811 Y33.3154
G01 X17.0892 Y33.4131
G01 X16.8844 Y33.4797
G01 X16.6717 Y33.5134
G01 X15.9563 Y33.5134
G01 X15.7436 Y33.4797
G01 X15.5387 Y33.4131
G01 X15.3468 Y33.3154
G01 X15.1726 Y33.1888
G01 X15.0203 Y33.0365
G01 X14.8937 Y32.8622
G01 X14.7959 Y32.6703
G01 X14.7293 Y32.4655
G01 X14.6956 Y32.2527
G01 X14.6956 Y32.0374
G01 X14.7293 Y31.8246
G01 X14.7959 Y31.6198
G01 X14.8937 Y31.4279
G01 X15.0203 Y31.2536
G01 X15.1763 Y31.0976
G01 X15.1847 Y31.0883
G01 X15.1923 Y31.0782
G01 X15.2242 Y31.0285
G01 X15.2305 Y31.0169
G01 X15.2345 Y31.0078
G01 X15.2395 Y30.9921
G01 X15.2415 Y30.9824
G01 X15.2429 Y30.9725
G01 X15.2483 Y30.8963
G01 X15.2483 Y30.8832
G01 X15.2469 Y30.8701
G01 X15.2451 Y30.8604
G01 X15.2425 Y30.8509
G01 X15.2392 Y30.8417
G01 X15.2353 Y30.8326
G01 X15.1988 Y30.7655
G01 X15.1940 Y30.7574
G01 X15.1867 Y30.7471
G01 X15.1763 Y30.7354
G01 X10.7293 Y26.2884
G01 X10.7215 Y26.2812
G01 X10.6956 Y26.2603
G01 X10.6849 Y26.2530
G01 X10.6736 Y26.2467
G01 X10.6647 Y26.2427
G01 X10.6556 Y26.2394
G01 X10.5824 Y26.2179
G01 X10.5670 Y26.2147
G01 X10.5576 Y26.2137
G01 X10.5482 Y26.2134
G01 X6.7569 Y26.2134
G01 X6.7463 Y26.2138
G01 X6.7164 Y26.2170
G01 X6.7068 Y26.2184
G01 X6.6941 Y26.2213
G01 X6.6818 Y26.2255
G01 X6.6672 Y26.2324
G01 X6.6058 Y26.2659
G01 X6.5951 Y26.2724
G01 X6.5875 Y26.2780
G01 X6.5780 Y26.2862
G01 X6.4754 Y26.3888
G01 X6.3011 Y26.5154
G01 X6.1092 Y26.6131
G01 X5.9044 Y26.6797
G01 X5.6917 Y26.7134
G01 X4.9763 Y26.7134
G01 X4.7636 Y26.6797
G01 X4.5587 Y26.6131
G01 X4.3668 Y26.5154
G01 X4.1926 Y26.3888
G01 X4.0403 Y26.2365
G01 X3.9137 Y26.0622
G01 X3.8159 Y25.8703
G00 Z3.0000
G00 X3.8386 Y25.9149
G01 F60.00
G01 Z-0.1200
G01 F70.00
G01 X3.8159 Y25.8703
G01 X3.8004 Y25.8228
G01 X3.8159 Y25.8703
G00 Z3.0000
G00 X9.5361 Y28.6957
G01 F60.00
G01 Z-0.1200
G01 F70.00
G01 X9.5361 Y28.4413
G01 X9.6023 Y28.4628
G01 X9.7661 Y28.5462
G01 X9.9148 Y28.6543
G01 X10.0448 Y28.7842
G01 X10.1528 Y28.9330
G01 X10.2363 Y29.0967
G01 X10.2931 Y29.2716
G01 X10.3075 Y29.3629
G01 X10.0682 Y29.3629
G01 X10.0460 Y29.2745
G01 X10.0175 Y29.1944
G01 X10.0125 Y29.1824
G01 X9.9761 Y29.1056
G01 X9.9325 Y29.0327
G01 X9.9253 Y29.0219
G01 X9.8766 Y28.9562
G01 X9.8703 Y28.9488
G01 X9.8131 Y28.8859
G01 X9.7502 Y28.8287
G01 X9.7428 Y28.8225
G01 X9.6772 Y28.7737
G01 X9.6664 Y28.7665
G01 X9.5934 Y28.7230
G01 X9.5361 Y28.6957
G00 Z3.0000
G00 X9.5813 Y28.7172
G01 F60.00
G01 Z-0.1200
G01 F70.00
G01 X9.5361 Y28.6957
G01 X9.5361 Y28.6457
G01 X9.5361 Y28.6957
G00 Z3.0000
G00 X9.5361 Y31.0488
G01 F60.00
G01 Z-0.1200
G01 F70.00
G01 X9.5361 Y30.7944
G01 X9.5934 Y30.7671
G01 X9.6664 Y30.7236
G01 X9.6772 Y30.7164
G01 X9.7428 Y30.6676
G01 X9.7502 Y30.6614
G01 X9.8131 Y30.6042
G01 X9.8703 Y30.5413
G01 X9.8766 Y30.5339
G01 X9.9253 Y30.4682
G01 X9.9325 Y30.4574
G01 X9.9761 Y30.3845
G01 X10.0125 Y30.3077
G01 X10.0175 Y30.2957
G01 X10.0460 Y30.2156
G01 X10.0682 Y30.1272
G01 X10.3075 Y30.1272
G01 X10.2931 Y30.2185
G01 X10.2363 Y30.3934
G01 X10.1528 Y30.5571
G01 X10.0448 Y30.7059
G01 X9.9148 Y30.8358
G01 X9.7661 Y30.9439
G01 X9.6023 Y31.0273
G01 X9.5361 Y31.0488
G00 Z3.0000
G00 X9.5837 Y31.0334
G01 F60.00
G01 Z-0.1200
G01 F70.00
G01 X9.5361 Y31.0488
G01 X9.5361 Y30.9988
G01 X9.5361 Y31.0488
G00 Z3.0000
G00 X12.2296 Y35.4388
G01 F60.00
G01 Z-0.1200
G01 F70.00
G01 X12.2172 Y35.4350
G01 X12.1373 Y35.4062
G01 X12.0604 Y35.3700
G01 X12.0489 Y35.3639
G01 X11.9761 Y35.3201
G01 X11.9077 Y35.2696
G01 X11.8977 Y35.2614
G01 X11.8395 Y35.2087
G01 X11.8304 Y35.1995
G01 X11.7734 Y35.1364
G01 X11.7227 Y35.0682
G01 X11.7154 Y35.0574
G01 X11.6719 Y34.9845
G01 X11.6328 Y34.9018
G01 X11.6040 Y34.8218
G01 X11.6002 Y34.8094
G01 X11.5812 Y34.7332
G01 X11.5786 Y34.7205
G01 X11.5663 Y34.6364
G01 X11.5620 Y34.5515
G01 X11.5620 Y34.5386
G01 X11.5663 Y34.4537
G01 X11.5797 Y34.3632
G01 X11.6002 Y34.2807
G01 X11.6040 Y34.2683
G01 X11.6328 Y34.1883
G01 X11.6719 Y34.1056
G01 X11.7154 Y34.0327
G01 X11.7227 Y34.0219
G01 X11.7734 Y33.9537
G01 X11.8304 Y33.8906
G01 X11.8395 Y33.8814
G01 X11.9026 Y33.8245
G01 X11.9708 Y33.7737
G01 X11.9816 Y33.7665
G01 X12.0546 Y33.7230
G01 X12.1373 Y33.6839
G01 X12.2234 Y33.6530
G01 X12.3058 Y33.6322
G01 X12.3185 Y33.6297
G01 X12.4026 Y33.6174
G01 X12.4907 Y33.6129
G01 X12.8940 Y33.6129
G01 X12.9853 Y33.6174
G01 X13.0758 Y33.6308
G01 X13.1646 Y33.6530
G01 X13.2507 Y33.6839
G01 X13.3305 Y33.7215
G01 X13.3390 Y33.7262
G01 X13.4118 Y33.7700
G01 X13.4828 Y33.8225
G01 X13.4902 Y33.8287
G01 X13.5508 Y33.8837
G01 X13.5576 Y33.8906
G01 X13.5775 Y33.9126
G01 X13.8940 Y33.9126
G01 X13.9495 Y33.9152
G01 X13.9592 Y33.9161
G01 X14.0173 Y33.9248
G01 X14.0775 Y33.9399
G01 X14.1360 Y33.9608
G01 X14.1863 Y33.9844
G01 X14.1949 Y33.9889
G01 X14.2453 Y34.0192
G01 X14.2901 Y34.0522
G01 X14.3001 Y34.0604
G01 X14.3411 Y34.0979
G01 X16.2611 Y36.0179
G01 X16.3028 Y36.0639
G01 X16.3398 Y36.1137
G01 X16.3717 Y36.1669
G01 X16.3982 Y36.2230
G01 X16.4191 Y36.2815
G01 X16.4328 Y36.3353
G01 X16.4348 Y36.3449
G01 X16.4433 Y36.4031
G01 X16.4463 Y36.4618
G01 X16.4464 Y36.7195
G01 X16.4590 Y36.7262
G01 X16.5318 Y36.7700
G01 X16.6053 Y36.8245
G01 X16.6731 Y36.8859
G01 X16.7345 Y36.9537
G01 X16.7890 Y37.0272
G01 X16.8361 Y37.1056
G01 X16.8752 Y37.1883
G01 X16.9040 Y37.2683
G01 X16.9069 Y37.2776
G01 X16.9282 Y37.3632
G01 X16.9416 Y37.4537
G01 X16.9461 Y37.5450
G01 X16.9416 Y37.6364
G01 X16.9282 Y37.7269
G01 X16.9059 Y37.8160
G01 X16.8752 Y37.9018
G01 X16.8390 Y37.9787
G01 X16.8345 Y37.9873
G01 X16.7890 Y38.0629
G01 X16.7385 Y38.1313
G01 X16.7303 Y38.1413
G01 X16.6776 Y38.1995
G01 X16.6684 Y38.2087
G01 X16.6053 Y38.2656
G01 X16.5372 Y38.3164
G01 X16.5264 Y38.3236
G01 X16.4534 Y38.3671
G01 X16.3707 Y38.4062
G01 X16.2846 Y38.4371
G01 X16.1990 Y38.4586
G01 X16.1894 Y38.4604
G01 X16.1053 Y38.4727
G01 X16.0172 Y38.4772
G01 X15.6140 Y38.4772
G01 X15.5226 Y38.4727
G01 X15.4321 Y38.4593
G01 X15.3437 Y38.4371
G01 X15.2573 Y38.4062
G01 X15.1804 Y38.3700
G01 X15.1717 Y38.3656
G01 X15.0961 Y38.3201
G01 X15.0277 Y38.2696
G01 X15.0177 Y38.2614
G01 X14.9548 Y38.2042
G01 X14.8976 Y38.1413
G01 X14.8894 Y38.1313
G01 X14.8389 Y38.0629
G01 X14.7951 Y37.9901
G01 X14.7890 Y37.9787
G01 X14.7528 Y37.9018
G01 X14.7240 Y37.8218
G01 X14.7202 Y37.8094
G01 X14.6997 Y37.7269
G01 X14.6871 Y37.6429
G01 X14.6858 Y37.6299
G01 X14.6818 Y37.5450
G01 X14.6858 Y37.4602
G01 X14.6871 Y37.4472
G01 X14.6997 Y37.3632
G01 X14.7220 Y37.2745
G01 X14.7504 Y37.1944
G01 X14.7554 Y37.1824
G01 X14.7919 Y37.1056
G01 X14.8354 Y37.0327
G01 X14.8427 Y37.0219
G01 X14.8934 Y36.9537
G01 X14.9504 Y36.8906
G01 X14.9595 Y36.8814
G01 X15.0226 Y36.8245
G01 X15.0908 Y36.7737
G01 X15.1016 Y36.7665
G01 X15.1689 Y36.7262
G01 X15.1765 Y36.7219
G01 X13.6320 Y35.1774
G01 X13.5775 Y35.1774
G01 X13.5576 Y35.1995
G01 X13.5508 Y35.2064
G01 X13.4902 Y35.2614
G01 X13.4828 Y35.2676
G01 X13.4118 Y35.3201
G01 X13.3390 Y35.3639
G01 X13.3305 Y35.3686
G01 X13.2507 Y35.4062
G01 X13.1707 Y35.4350
G01 X13.1583 Y35.4388
G01 X13.0758 Y35.4593
G01 X12.9853 Y35.4727
G01 X12.8972 Y35.4772
G01 X12.4907 Y35.4772
G01 X12.4091 Y35.4732
G01 X12.3962 Y35.4719
G01 X12.3121 Y35.4593
G01 X12.2296 Y35.4388
G00 Z3.0000
G00 X12.2782 Y35.4508
G01 F60.00
G01 Z-0.1200
G01 F70.00
G01 X12.2296 Y35.4388
G01 X12.2172 Y35.4350
G01 X12.1824 Y35.4225
G01 X12.2172 Y35.4350
G01 X12.2296 Y35.4388
G00 Z3.0000
G00 X19.9657 Y38.7678
G01 F60.00
G01 Z-0.1200
G01 F70.00
G01 X19.9706 Y38.7559
G01 X20.0126 Y38.6672
G01 X20.0187 Y38.6557
G01 X20.0726 Y38.5661
G01 X20.1388 Y38.4768
G01 X20.2090 Y38.3992
G01 X20.2181 Y38.3900
G01 X20.2957 Y38.3199
G01 X20.3816 Y38.2561
G01 X20.3816 Y36.5450
G01 X20.3841 Y36.4895
G01 X20.3854 Y36.4766
G01 X20.3937 Y36.4217
G01 X20.4071 Y36.3677
G01 X20.4108 Y36.3553
G01 X20.4297 Y36.3030
G01 X20.4533 Y36.2527
G01 X20.4594 Y36.2413
G01 X20.4864 Y36.1964
G01 X20.4919 Y36.1884
G01 X20.5251 Y36.1439
G01 X20.5668 Y36.0979
G01 X23.5020 Y33.1627
G01 X23.4812 Y33.1433
G01 X23.4130 Y33.0682
G01 X23.4048 Y33.0582
G01 X23.3426 Y32.9740
G01 X23.2887 Y32.8844
G01 X23.2826 Y32.8729
G01 X23.2380 Y32.7783
G01 X23.2006 Y32.6737
G01 X23.1736 Y32.5659
G01 X23.1581 Y32.4625
G01 X23.1570 Y32.4528
G01 X23.1518 Y32.3450
G01 X23.1573 Y32.2341
G01 X23.1736 Y32.1242
G01 X23.2006 Y32.0164
G01 X23.2380 Y31.9118
G01 X23.2855 Y31.8114
G01 X23.3426 Y31.7161
G01 X23.4048 Y31.6319
G01 X23.4130 Y31.6219
G01 X23.4834 Y31.5445
G01 X23.5657 Y31.4699
G01 X23.6550 Y31.4037
G01 X23.7503 Y31.3466
G01 X23.8507 Y31.2991
G01 X23.9556 Y31.2616
G01 X24.0631 Y31.2347
G01 X24.1666 Y31.2191
G01 X24.1762 Y31.2181
G01 X24.2840 Y31.2129
G01 X24.7872 Y31.2129
G01 X24.8949 Y31.2184
G01 X25.0048 Y31.2347
G01 X25.1126 Y31.2617
G01 X25.2112 Y31.2967
G01 X25.2232 Y31.3017
G01 X25.3177 Y31.3466
G01 X25.4075 Y31.4002
G01 X25.4183 Y31.4074
G01 X25.4971 Y31.4659
G01 X25.5071 Y31.4741
G01 X25.5845 Y31.5445
G01 X25.6591 Y31.6268
G01 X25.7253 Y31.7161
G01 X25.7792 Y31.8057
G01 X25.7854 Y31.8172
G01 X25.8273 Y31.9059
G01 X25.8323 Y31.9178
G01 X25.8675 Y32.0167
G01 X25.8929 Y32.1178
G01 X25.8955 Y32.1306
G01 X25.9107 Y32.2341
G01 X25.9161 Y32.3450
G01 X25.9107 Y32.4560
G01 X25.8944 Y32.5659
G01 X25.8674 Y32.6737
G01 X25.8299 Y32.7783
G01 X25.7824 Y32.8787
G01 X25.7288 Y32.9686
G01 X25.7235 Y32.9767
G01 X25.6591 Y33.0633
G01 X25.5845 Y33.1456
G01 X25.5022 Y33.2202
G01 X25.4130 Y33.2864
G01 X25.3177 Y33.3435
G01 X25.2172 Y33.3910
G01 X25.1126 Y33.4284
G01 X25.0112 Y33.4540
G01 X24.9951 Y33.4570
G01 X24.9811 Y33.4722
G01 X21.6464 Y36.8070
G01 X21.6464 Y38.2561
G01 X21.7322 Y38.3199
G01 X21.8098 Y38.3900
G01 X21.8190 Y38.3992
G01 X21.8891 Y38.4768
G01 X21.9516 Y38.5608
G01 X21.9588 Y38.5715
G01 X22.0092 Y38.6557
G01 X22.0154 Y38.6672
G01 X22.0599 Y38.7618
G01 X22.0975 Y38.8667
G01 X22.1244 Y38.9742
G01 X22.1399 Y39.0776
G01 X22.1410 Y39.0873
G01 X22.1461 Y39.1950
G01 X22.1461 Y39.6983
G01 X22.1407 Y39.8060
G01 X22.1244 Y39.9159
G01 X22.0991 Y40.0174
G01 X22.0953 Y40.0299
G01 X22.0600 Y40.1282
G01 X22.0154 Y40.2229
G01 X22.0092 Y40.2344
G01 X21.9553 Y40.3240
G01 X21.8931 Y40.4082
G01 X21.8870 Y40.4158
G01 X21.8145 Y40.4956
G01 X21.7322 Y40.5702
G01 X21.6430 Y40.6364
G01 X21.5477 Y40.6935
G01 X21.4472 Y40.7410
G01 X21.3426 Y40.7784
G01 X21.2348 Y40.8054
G01 X21.1249 Y40.8217
G01 X21.0140 Y40.8272
G01 X20.9030 Y40.8217
G01 X20.7931 Y40.8054
G01 X20.6853 Y40.7784
G01 X20.5807 Y40.7410
G01 X20.4803 Y40.6935
G01 X20.3850 Y40.6364
G01 X20.3009 Y40.5742
G01 X20.2933 Y40.5681
G01 X20.2134 Y40.4956
G01 X20.1388 Y40.4133
G01 X20.0726 Y40.3240
G01 X20.0187 Y40.2344
G01 X20.0126 Y40.2229
G01 X19.9706 Y40.1342
G01 X19.9657 Y40.1223
G01 X19.9306 Y40.0237
G01 X19.9050 Y39.9223
G01 X19.9030 Y39.9127
G01 X19.8873 Y39.8060
G01 X19.8819 Y39.6983
G01 X19.8818 Y39.1950
G01 X19.8868 Y39.0905
G01 X19.8881 Y39.0776
G01 X19.9025 Y38.9806
G01 X19.9050 Y38.9678
G01 X19.9306 Y38.8664
G01 X19.9657 Y38.7678
G00 Z3.0000
G00 X19.9489 Y38.8149
G01 F60.00
G01 Z-0.1200
G01 F70.00
G01 X19.9657 Y38.7678
G01 X19.9706 Y38.7559
G01 X19.9865 Y38.7224
G01 X19.9706 Y38.7559
G01 X19.9657 Y38.7678
G00 Z3.0000
G00 X19.9657 Y43.7678
G01 F60.00
G01 Z-0.1200
G01 F70.00
G01 X19.9706 Y43.7559
G01 X20.0155 Y43.6614
G01 X20.0726 Y43.5661
G01 X20.1388 Y43.4768
G01 X20.2090 Y43.3992
G01 X20.2181 Y43.3900
G01 X20.2957 Y43.3199
G01 X20.3797 Y43.2574
G01 X20.3905 Y43.2502
G01 X20.4746 Y43.1998
G01 X20.4861 Y43.1937
G01 X20.5807 Y43.1491
G01 X20.6856 Y43.1116
G01 X20.7931 Y43.0847
G01 X20.9030 Y43.0684
G01 X21.0140 Y43.0629
G01 X21.1185 Y43.0679
G01 X21.1314 Y43.0691
G01 X21.2348 Y43.0847
G01 X21.3364 Y43.1099
G01 X21.3488 Y43.1137
G01 X21.4412 Y43.1467
G01 X21.4532 Y43.1517
G01 X21.5477 Y43.1966
G01 X21.6375 Y43.2502
G01 X21.6483 Y43.2574
G01 X21.7322 Y43.3199
G01 X21.8145 Y43.3945
G01 X21.8891 Y43.4768
G01 X21.9516 Y43.5608
G01 X21.9571 Y43.5688
G01 X22.0124 Y43.6614
G01 X22.0573 Y43.7559
G01 X22.0623 Y43.7678
G01 X22.0955 Y43.8607
G01 X22.0991 Y43.8727
G01 X22.1244 Y43.9742
G01 X22.1363 Y44.0536
G01 X22.1590 Y44.0621
G01 X22.2092 Y44.0858
G01 X22.2177 Y44.0905
G01 X22.2626 Y44.1175
G01 X22.2706 Y44.1230
G01 X22.3152 Y44.1562
G01 X22.3588 Y44.1956
G01 X25.0011 Y46.8379
G01 X25.0407 Y46.8814
G01 X25.0468 Y46.8890
G01 X25.0761 Y46.9284
G01 X25.0833 Y46.9392
G01 X25.1117 Y46.9869
G01 X25.1356 Y47.0371
G01 X25.1406 Y47.0491
G01 X25.1591 Y47.1015
G01 X25.1728 Y47.1553
G01 X25.1748 Y47.1649
G01 X25.1833 Y47.2231
G01 X25.1863 Y47.2818
G01 X25.1864 Y47.7561
G01 X25.2722 Y47.8199
G01 X25.3498 Y47.8900
G01 X25.3590 Y47.8992
G01 X25.4291 Y47.9768
G01 X25.4916 Y48.0608
G01 X25.4988 Y48.0715
G01 X25.5492 Y48.1557
G01 X25.5554 Y48.1672
G01 X25.5999 Y48.2618
G01 X25.6375 Y48.3667
G01 X25.6644 Y48.4742
G01 X25.6799 Y48.5776
G01 X25.6810 Y48.5873
G01 X25.6861 Y48.6950
G01 X25.6860 Y49.2015
G01 X25.6807 Y49.3060
G01 X25.6655 Y49.4095
G01 X25.6629 Y49.4223
G01 X25.6383 Y49.5206
G01 X25.6353 Y49.5299
G01 X25.6023 Y49.6223
G01 X25.5973 Y49.6342
G01 X25.5524 Y49.7287
G01 X25.4953 Y49.8240
G01 X25.4331 Y49.9082
G01 X25.4249 Y49.9182
G01 X25.3545 Y49.9956
G01 X25.2747 Y50.0681
G01 X25.2671 Y50.0742
G01 X25.1830 Y50.1364
G01 X25.0877 Y50.1935
G01 X24.9872 Y50.2410
G01 X24.8826 Y50.2784
G01 X24.7748 Y50.3054
G01 X24.6649 Y50.3217
G01 X24.5540 Y50.3272
G01 X24.4430 Y50.3217
G01 X24.3331 Y50.3054
G01 X24.2253 Y50.2784
G01 X24.1207 Y50.2410
G01 X24.0203 Y50.1935
G01 X23.9250 Y50.1364
G01 X23.8357 Y50.0702
G01 X23.7534 Y49.9956
G01 X23.6809 Y49.9158
G01 X23.6748 Y49.9082
G01 X23.6126 Y49.8240
G01 X23.5587 Y49.7344
G01 X23.5526 Y49.7229
G01 X23.5080 Y49.6283
G01 X23.4726 Y49.5299
G01 X23.4688 Y49.5174
G01 X23.4436 Y49.4159
G01 X23.4273 Y49.3060
G01 X23.4219 Y49.1983
G01 X23.4218 Y48.6950
G01 X23.4273 Y48.5841
G01 X23.4436 Y48.4742
G01 X23.4706 Y48.3664
G01 X23.5080 Y48.2619
G01 X23.5526 Y48.1672
G01 X23.5587 Y48.1557
G01 X23.6092 Y48.0715
G01 X23.6164 Y48.0608
G01 X23.6788 Y47.9768
G01 X23.7490 Y47.8992
G01 X23.7581 Y47.8900
G01 X23.8357 Y47.8199
G01 X23.9216 Y47.7561
G01 X23.9216 Y47.5470
G01 X21.8411 Y45.4665
G01 X21.8190 Y45.4909
G01 X21.8122 Y45.4979
G01 X21.7347 Y45.5681
G01 X21.7271 Y45.5742
G01 X21.6456 Y45.6346
G01 X21.6375 Y45.6399
G01 X21.5477 Y45.6935
G01 X21.4502 Y45.7397
G01 X21.4412 Y45.7434
G01 X21.3426 Y45.7784
G01 X21.2348 Y45.8054
G01 X21.1249 Y45.8217
G01 X21.0172 Y45.8272
G01 X21.0075 Y45.8270
G01 X20.9030 Y45.8217
G01 X20.7931 Y45.8054
G01 X20.6853 Y45.7784
G01 X20.5807 Y45.7410
G01 X20.4803 Y45.6935
G01 X20.3850 Y45.6364
G01 X20.2957 Y45.5702
G01 X20.2157 Y45.4979
G01 X20.2090 Y45.4909
G01 X20.1388 Y45.4133
G01 X20.0764 Y45.3293
G01 X20.0692 Y45.3186
G01 X20.0187 Y45.2344
G01 X20.0126 Y45.2229
G01 X19.9680 Y45.1283
G01 X19.9306 Y45.0237
G01 X19.9036 Y44.9159
G01 X19.8881 Y44.8125
G01 X19.8868 Y44.7996
G01 X19.8818 Y44.6950
G01 X19.8818 Y44.1950
G01 X19.8870 Y44.0873
G01 X19.8881 Y44.0776
G01 X19.9025 Y43.9806
G01 X19.9050 Y43.9678
G01 X19.9306 Y43.8664
G01 X19.9657 Y43.7678
G00 Z3.0000
G00 X19.9489 Y43.8149
G01 F60.00
G01 Z-0.1200
G01 F70.00
G01 X19.9657 Y43.7678
G01 X19.9706 Y43.7559
G01 X19.9865 Y43.7224
G01 X19.9706 Y43.7559
G01 X19.9657 Y43.7678
G00 Z3.0000
G00 X13.7657 Y44.1878
G01 F60.00
G01 Z-0.1200
G01 F70.00
G01 X13.7706 Y44.1759
G01 X13.8155 Y44.0814
G01 X13.8709 Y43.9888
G01 X13.8764 Y43.9808
G01 X13.9368 Y43.8994
G01 X13.9430 Y43.8919
G01 X13.9816 Y43.8494
G01 X13.9816 Y41.8650
G01 X13.9841 Y41.8095
G01 X13.9854 Y41.7966
G01 X13.9926 Y41.7481
G01 X13.9951 Y41.7353
G01 X14.0088 Y41.6815
G01 X14.0297 Y41.6230
G01 X14.0562 Y41.5669
G01 X14.0847 Y41.5192
G01 X14.0919 Y41.5084
G01 X14.1211 Y41.4690
G01 X14.1272 Y41.4614
G01 X14.1668 Y41.4179
G01 X16.1168 Y39.4679
G01 X16.1579 Y39.4304
G01 X16.1679 Y39.4222
G01 X16.2126 Y39.3892
G01 X16.2602 Y39.3605
G01 X16.2717 Y39.3544
G01 X16.3220 Y39.3308
G01 X16.3742 Y39.3119
G01 X16.3866 Y39.3082
G01 X16.4343 Y39.2962
G01 X16.4470 Y39.2937
G01 X16.5020 Y39.2857
G01 X16.5575 Y39.2828
G01 X17.9820 Y39.2826
G01 X18.1816 Y39.0831
G01 X18.1816 Y35.7450
G01 X18.1841 Y35.6895
G01 X18.1854 Y35.6766
G01 X18.1937 Y35.6217
G01 X18.2071 Y35.5677
G01 X18.2108 Y35.5553
G01 X18.2297 Y35.5030
G01 X18.2533 Y35.4527
G01 X18.2594 Y35.4413
G01 X18.2881 Y35.3938
G01 X18.3211 Y35.3490
G01 X18.3294 Y35.3389
G01 X18.3645 Y35.3002
G01 X20.5245 Y33.1402
G01 X20.4350 Y33.0864
G01 X20.3509 Y33.0242
G01 X20.3408 Y33.0160
G01 X20.2681 Y32.9501
G01 X20.2590 Y32.9409
G01 X20.1888 Y32.8633
G01 X20.1264 Y32.7793
G01 X20.1192 Y32.7686
G01 X20.0655 Y32.6787
G01 X20.0180 Y32.5783
G01 X19.9806 Y32.4737
G01 X19.9550 Y32.3723
G01 X19.9525 Y32.3595
G01 X19.9373 Y32.2560
G01 X19.9318 Y32.1450
G01 X19.9373 Y32.0341
G01 X19.9536 Y31.9242
G01 X19.9806 Y31.8164
G01 X20.0180 Y31.7119
G01 X20.0655 Y31.6114
G01 X20.1209 Y31.5188
G01 X20.1264 Y31.5108
G01 X20.1888 Y31.4268
G01 X20.2634 Y31.3445
G01 X20.3457 Y31.2699
G01 X20.4350 Y31.2037
G01 X20.5303 Y31.1466
G01 X20.6307 Y31.0991
G01 X20.7356 Y31.0616
G01 X20.8368 Y31.0361
G01 X20.8495 Y31.0335
G01 X20.9530 Y31.0184
G01 X21.0607 Y31.0129
G01 X21.5640 Y31.0129
G01 X21.6685 Y31.0179
G01 X21.6782 Y31.0187
G01 X21.7785 Y31.0335
G01 X21.7912 Y31.0361
G01 X21.8926 Y31.0617
G01 X21.9912 Y31.0967
G01 X22.0032 Y31.1017
G01 X22.0977 Y31.1466
G01 X22.1902 Y31.2019
G01 X22.1983 Y31.2074
G01 X22.2822 Y31.2699
G01 X22.3645 Y31.3445
G01 X22.4391 Y31.4268
G01 X22.5016 Y31.5108
G01 X22.5088 Y31.5215
G01 X22.5624 Y31.6114
G01 X22.6073 Y31.7059
G01 X22.6123 Y31.7178
G01 X22.6455 Y31.8107
G01 X22.6491 Y31.8227
G01 X22.6744 Y31.9242
G01 X22.6907 Y32.0341
G01 X22.6961 Y32.1450
G01 X22.6907 Y32.2560
G01 X22.6744 Y32.3659
G01 X22.6474 Y32.4737
G01 X22.6099 Y32.5783
G01 X22.5654 Y32.6729
G01 X22.5609 Y32.6816
G01 X22.5053 Y32.7740
G01 X22.4391 Y32.8633
G01 X22.3645 Y32.9456
G01 X22.2847 Y33.0181
G01 X22.2771 Y33.0242
G01 X22.1930 Y33.0864
G01 X22.1005 Y33.1420
G01 X22.0919 Y33.1464
G01 X22.0002 Y33.1897
G01 X21.9912 Y33.1934
G01 X21.9464 Y33.2094
G01 X21.9463 Y33.2483
G01 X21.9436 Y33.3038
G01 X21.9425 Y33.3135
G01 X21.9348 Y33.3652
G01 X21.9328 Y33.3748
G01 X21.9191 Y33.4286
G01 X21.8994 Y33.4840
G01 X21.8956 Y33.4930
G01 X21.8717 Y33.5432
G01 X21.8398 Y33.5963
G01 X21.8028 Y33.6462
G01 X21.7634 Y33.6899
G01 X19.4464 Y36.0070
G01 X19.4463 Y39.3483
G01 X19.4433 Y39.4070
G01 X19.4353 Y39.4620
G01 X19.4328 Y39.4748
G01 X19.4191 Y39.5286
G01 X19.4006 Y39.5810
G01 X19.3956 Y39.5930
G01 X19.3717 Y39.6432
G01 X19.3416 Y39.6936
G01 X19.3361 Y39.7017
G01 X19.3028 Y39.7462
G01 X19.2611 Y39.7922
G01 X18.6911 Y40.3622
G01 X18.6501 Y40.3997
G01 X18.6401 Y40.4079
G01 X18.5953 Y40.4409
G01 X18.5421 Y40.4728
G01 X18.4860 Y40.4993
G01 X18.4306 Y40.5192
G01 X18.4213 Y40.5219
G01 X18.3737 Y40.5339
G01 X18.3610 Y40.5364
G01 X18.3060 Y40.5444
G01 X18.2472 Y40.5474
G01 X16.8259 Y40.5474
G01 X15.2464 Y42.1270
G01 X15.2464 Y43.5687
G01 X15.3419 Y43.6137
G01 X15.3533 Y43.6198
G01 X15.4430 Y43.6737
G01 X15.5322 Y43.7399
G01 X15.6098 Y43.8100
G01 X15.6190 Y43.8192
G01 X15.6891 Y43.8968
G01 X15.7516 Y43.9808
G01 X15.7588 Y43.9915
G01 X15.8092 Y44.0757
G01 X15.8154 Y44.0872
G01 X15.8599 Y44.1818
G01 X15.8955 Y44.2807
G01 X15.8991 Y44.2927
G01 X15.9244 Y44.3942
G01 X15.9399 Y44.4976
G01 X15.9410 Y44.5073
G01 X15.9415 Y44.5183
G01 X19.0639 Y47.6406
G01 X19.1456 Y47.6116
G01 X19.2531 Y47.5847
G01 X19.3630 Y47.5684
G01 X19.4675 Y47.5631
G01 X19.4805 Y47.5631
G01 X19.5785 Y47.5679
G01 X19.5914 Y47.5691
G01 X19.6948 Y47.5847
G01 X19.8026 Y47.6117
G01 X19.9072 Y47.6491
G01 X20.0019 Y47.6937
G01 X20.0133 Y47.6998
G01 X20.0975 Y47.7502
G01 X20.1083 Y47.7574
G01 X20.1922 Y47.8199
G01 X20.2745 Y47.8945
G01 X20.3491 Y47.9768
G01 X20.4153 Y48.0661
G01 X20.4724 Y48.1614
G01 X20.5199 Y48.2618
G01 X20.5575 Y48.3667
G01 X20.5829 Y48.4678
G01 X20.5850 Y48.4774
G01 X20.6007 Y48.5841
G01 X20.6061 Y48.6918
G01 X20.6060 Y49.2015
G01 X20.6007 Y49.3060
G01 X20.5844 Y49.4159
G01 X20.5574 Y49.5237
G01 X20.5223 Y49.6223
G01 X20.5173 Y49.6342
G01 X20.4754 Y49.7229
G01 X20.4692 Y49.7344
G01 X20.4153 Y49.8240
G01 X20.3531 Y49.9082
G01 X20.3470 Y49.9158
G01 X20.2745 Y49.9956
G01 X20.1922 Y50.0702
G01 X20.1030 Y50.1364
G01 X20.0077 Y50.1935
G01 X19.9072 Y50.2410
G01 X19.8026 Y50.2784
G01 X19.6948 Y50.3054
G01 X19.5849 Y50.3217
G01 X19.4740 Y50.3272
G01 X19.3630 Y50.3217
G01 X19.2531 Y50.3054
G01 X19.1453 Y50.2784
G01 X19.0407 Y50.2410
G01 X18.9403 Y50.1935
G01 X18.8450 Y50.1364
G01 X18.7609 Y50.0742
G01 X18.7533 Y50.0681
G01 X18.6734 Y49.9956
G01 X18.6030 Y49.9182
G01 X18.5948 Y49.9082
G01 X18.5326 Y49.8240
G01 X18.4755 Y49.7287
G01 X18.4306 Y49.6342
G01 X18.4257 Y49.6223
G01 X18.3906 Y49.5237
G01 X18.3636 Y49.4159
G01 X18.3481 Y49.3125
G01 X18.3468 Y49.2996
G01 X18.3418 Y49.1950
G01 X18.3418 Y48.7072
G01 X15.5809 Y45.9463
G01 X15.5322 Y45.9902
G01 X15.4456 Y46.0546
G01 X15.4375 Y46.0599
G01 X15.3505 Y46.1120
G01 X15.3419 Y46.1164
G01 X15.2472 Y46.1610
G01 X15.1457 Y46.1975
G01 X15.1364 Y46.2002
G01 X15.0348 Y46.2254
G01 X14.9249 Y46.2417
G01 X14.8140 Y46.2472
G01 X14.7062 Y46.2420
G01 X14.6966 Y46.2410
G01 X14.5931 Y46.2254
G01 X14.4853 Y46.1984
G01 X14.3807 Y46.1610
G01 X14.2803 Y46.1135
G01 X14.1850 Y46.0564
G01 X14.0957 Y45.9902
G01 X14.0134 Y45.9156
G01 X13.9409 Y45.8358
G01 X13.9348 Y45.8282
G01 X13.8764 Y45.7493
G01 X13.8692 Y45.7386
G01 X13.8155 Y45.6487
G01 X13.7680 Y45.5483
G01 X13.7326 Y45.4499
G01 X13.7288 Y45.4374
G01 X13.7036 Y45.3359
G01 X13.6873 Y45.2260
G01 X13.6818 Y45.1150
G01 X13.6818 Y44.6150
G01 X13.6870 Y44.5073
G01 X13.6881 Y44.4976
G01 X13.7025 Y44.4006
G01 X13.7050 Y44.3878
G01 X13.7306 Y44.2864
G01 X13.7657 Y44.1878
G00 Z3.0000
G00 X13.7489 Y44.2349
G01 F60.00
G01 Z-0.1200
G01 F70.00
G01 X13.7657 Y44.1878
G01 X13.7706 Y44.1759
G01 X13.7865 Y44.1424
G01 X13.7706 Y44.1759
G01 X13.7657 Y44.1878
G00 Z3.0000
G00 X8.5816 Y45.0007
G01 F60.00
G01 Z-0.1200
G01 F70.00
G01 X8.5816 Y43.8607
G01 X8.5430 Y43.8182
G01 X8.5368 Y43.8107
G01 X8.4764 Y43.7293
G01 X8.4709 Y43.7213
G01 X8.4155 Y43.6287
G01 X8.3693 Y43.5313
G01 X8.3657 Y43.5223
G01 X8.3326 Y43.4299
G01 X8.3288 Y43.4174
G01 X8.3036 Y43.3159
G01 X8.2873 Y43.2060
G01 X8.2818 Y43.0950
G01 X8.2820 Y42.5886
G01 X8.2873 Y42.4841
G01 X8.3025 Y42.3806
G01 X8.3050 Y42.3678
G01 X8.3288 Y42.2727
G01 X8.3316 Y42.2633
G01 X8.3680 Y42.1618
G01 X8.4155 Y42.0614
G01 X8.4726 Y41.9661
G01 X8.5388 Y41.8768
G01 X8.6134 Y41.7945
G01 X8.6957 Y41.7199
G01 X8.7850 Y41.6537
G01 X8.8803 Y41.5966
G01 X8.9807 Y41.5491
G01 X9.0856 Y41.5116
G01 X9.1931 Y41.4847
G01 X9.3030 Y41.4684
G01 X9.4140 Y41.4629
G01 X9.5249 Y41.4684
G01 X9.6348 Y41.4847
G01 X9.7364 Y41.5099
G01 X9.7457 Y41.5126
G01 X9.8472 Y41.5491
G01 X9.9419 Y41.5937
G01 X9.9533 Y41.5998
G01 X10.0430 Y41.6537
G01 X10.1322 Y41.7199
G01 X10.2098 Y41.7900
G01 X10.2190 Y41.7992
G01 X10.2891 Y41.8768
G01 X10.3516 Y41.9608
G01 X10.3588 Y41.9715
G01 X10.4124 Y42.0614
G01 X10.4599 Y42.1618
G01 X10.4975 Y42.2667
G01 X10.5229 Y42.3678
G01 X10.5255 Y42.3806
G01 X10.5399 Y42.4776
G01 X10.5410 Y42.4873
G01 X10.5461 Y42.5950
G01 X10.5461 Y43.0950
G01 X10.5410 Y43.2028
G01 X10.5399 Y43.2125
G01 X10.5255 Y43.3095
G01 X10.5229 Y43.3223
G01 X10.4974 Y43.4237
G01 X10.4599 Y43.5283
G01 X10.4124 Y43.6287
G01 X10.3553 Y43.7240
G01 X10.2891 Y43.8133
G01 X10.2145 Y43.8956
G01 X10.1322 Y43.9702
G01 X10.0430 Y44.0364
G01 X9.9477 Y44.0935
G01 X9.8464 Y44.1414
G01 X9.8464 Y45.0007
G01 X9.8912 Y45.0167
G01 X9.9002 Y45.0203
G01 X9.9948 Y45.0651
G01 X10.0033 Y45.0698
G01 X10.0875 Y45.1202
G01 X10.0956 Y45.1255
G01 X10.1822 Y45.1899
G01 X10.2598 Y45.2600
G01 X10.2690 Y45.2692
G01 X10.3349 Y45.3419
G01 X10.3412 Y45.3494
G01 X10.4053 Y45.4361
G01 X10.4592 Y45.5257
G01 X10.4654 Y45.5372
G01 X10.5099 Y45.6318
G01 X10.5455 Y45.7307
G01 X10.5491 Y45.7427
G01 X10.5744 Y45.8442
G01 X10.5903 Y45.9509
G01 X10.5911 Y45.9605
G01 X10.5961 Y46.0650
G01 X10.5911 Y46.1696
G01 X10.5899 Y46.1825
G01 X10.5744 Y46.2859
G01 X10.5491 Y46.3874
G01 X10.5453 Y46.3999
G01 X10.5099 Y46.4983
G01 X10.4624 Y46.5987
G01 X10.4088 Y46.6886
G01 X10.4016 Y46.6993
G01 X10.3391 Y46.7833
G01 X10.2690 Y46.8609
G01 X10.2598 Y46.8701
G01 X10.1822 Y46.9402
G01 X10.0983 Y47.0027
G01 X10.0875 Y47.0099
G01 X9.9977 Y47.0635
G01 X9.9032 Y47.1084
G01 X9.8912 Y47.1134
G01 X9.7926 Y47.1484
G01 X9.6848 Y47.1754
G01 X9.5749 Y47.1917
G01 X9.4672 Y47.1972
G01 X8.9640 Y47.1972
G01 X8.8562 Y47.1920
G01 X8.8466 Y47.1910
G01 X8.7431 Y47.1754
G01 X8.6353 Y47.1484
G01 X8.5307 Y47.1110
G01 X8.4303 Y47.0635
G01 X8.3350 Y47.0064
G01 X8.2457 Y46.9402
G01 X8.1634 Y46.8656
G01 X8.0888 Y46.7833
G01 X8.0264 Y46.6993
G01 X8.0192 Y46.6886
G01 X7.9655 Y46.5987
G01 X7.9206 Y46.5042
G01 X7.9157 Y46.4923
G01 X7.8806 Y46.3937
G01 X7.8536 Y46.2859
G01 X7.8373 Y46.1760
G01 X7.8320 Y46.0715
G01 X7.8320 Y46.0586
G01 X7.8373 Y45.9541
G01 X7.8525 Y45.8506
G01 X7.8550 Y45.8378
G01 X7.8797 Y45.7395
G01 X7.8826 Y45.7302
G01 X7.9180 Y45.6318
G01 X7.9626 Y45.5372
G01 X7.9687 Y45.5257
G01 X8.0226 Y45.4361
G01 X8.0848 Y45.3519
G01 X8.0930 Y45.3419
G01 X8.1612 Y45.2668
G01 X8.1681 Y45.2600
G01 X8.2457 Y45.1899
G01 X8.3297 Y45.1274
G01 X8.3377 Y45.1219
G01 X8.4246 Y45.0698
G01 X8.4332 Y45.0651
G01 X8.5277 Y45.0204
G01 X8.5368 Y45.0167
G01 X8.5816 Y45.0007
G00 Z3.0000
G00 X8.5345 Y45.0176
G01 F60.00
G01 Z-0.1200
G01 F70.00
G01 X8.5368 Y45.0167
G01 X8.5816 Y45.0007
G01 X8.5816 Y44.9507
G01 X8.5816 Y45.0007
G00 Z3.0000
G00 X7.9157 Y48.1778
G01 F60.00
G01 Z-0.1200
G01 F70.00
G01 X7.9206 Y48.1659
G01 X7.9626 Y48.0772
G01 X7.9687 Y48.0657
G01 X8.0226 Y47.9761
G01 X8.0888 Y47.8868
G01 X8.1590 Y47.8092
G01 X8.1681 Y47.8000
G01 X8.2457 Y47.7299
G01 X8.3350 Y47.6637
G01 X8.4303 Y47.6066
G01 X8.5248 Y47.5617
G01 X8.5368 Y47.5567
G01 X8.6356 Y47.5216
G01 X8.7368 Y47.4961
G01 X8.7495 Y47.4935
G01 X8.8530 Y47.4784
G01 X8.9607 Y47.4729
G01 X9.4640 Y47.4729
G01 X9.5749 Y47.4784
G01 X9.6785 Y47.4935
G01 X9.6912 Y47.4961
G01 X9.7926 Y47.5217
G01 X9.8941 Y47.5578
G01 X9.9032 Y47.5617
G01 X9.9919 Y47.6037
G01 X10.0033 Y47.6098
G01 X10.0930 Y47.6637
G01 X10.1771 Y47.7259
G01 X10.1847 Y47.7320
G01 X10.2645 Y47.8045
G01 X10.3370 Y47.8843
G01 X10.3431 Y47.8919
G01 X10.4035 Y47.9734
G01 X10.4088 Y47.9815
G01 X10.4409 Y48.0351
G01 X10.4653 Y48.0175
G01 X10.5102 Y47.9905
G01 X10.5187 Y47.9858
G01 X10.5720 Y47.9608
G01 X10.6273 Y47.9409
G01 X10.6366 Y47.9382
G01 X10.6843 Y47.9262
G01 X10.6970 Y47.9237
G01 X10.7520 Y47.9157
G01 X10.8107 Y47.9127
G01 X16.0140 Y47.9126
G01 X16.0760 Y47.9157
G01 X16.1373 Y47.9248
G01 X16.1975 Y47.9399
G01 X16.2499 Y47.9585
G01 X16.2619 Y47.9634
G01 X16.3121 Y47.9873
G01 X16.3598 Y48.0158
G01 X16.3706 Y48.0230
G01 X16.4152 Y48.0562
G01 X16.4588 Y48.0956
G01 X17.9211 Y49.5579
G01 X17.9628 Y49.6039
G01 X17.9961 Y49.6484
G01 X18.0020 Y49.6572
G01 X19.0118 Y50.6670
G01 X19.0206 Y50.6730
G01 X19.0601 Y50.7022
G01 X19.0725 Y50.7126
G01 X21.1520 Y50.7126
G01 X21.3816 Y50.4831
G01 X21.3816 Y50.1340
G01 X21.2957 Y50.0702
G01 X21.2134 Y49.9956
G01 X21.1388 Y49.9133
G01 X21.0764 Y49.8293
G01 X21.0692 Y49.8186
G01 X21.0187 Y49.7344
G01 X21.0126 Y49.7229
G01 X20.9680 Y49.6283
G01 X20.9316 Y49.5268
G01 X20.9288 Y49.5174
G01 X20.9050 Y49.4223
G01 X20.9025 Y49.4095
G01 X20.8873 Y49.3060
G01 X20.8820 Y49.2015
G01 X20.8818 Y48.6950
G01 X20.8870 Y48.5873
G01 X20.8881 Y48.5776
G01 X20.9036 Y48.4742
G01 X20.9306 Y48.3664
G01 X20.9680 Y48.2619
G01 X21.0140 Y48.1642
G01 X21.0187 Y48.1557
G01 X21.0726 Y48.0661
G01 X21.1348 Y47.9819
G01 X21.1430 Y47.9719
G01 X21.2134 Y47.8945
G01 X21.2908 Y47.8241
G01 X21.3009 Y47.8159
G01 X21.3816 Y47.7561
G01 X21.3816 Y47.6070
G01 X21.1020 Y47.3274
G01 X19.9640 Y47.3274
G01 X19.9052 Y47.3247
G01 X19.8956 Y47.3236
G01 X19.8406 Y47.3153
G01 X19.7866 Y47.3019
G01 X19.7742 Y47.2982
G01 X19.7220 Y47.2793
G01 X19.6717 Y47.2557
G01 X19.6602 Y47.2496
G01 X19.6154 Y47.2227
G01 X19.6073 Y47.2171
G01 X19.5628 Y47.1839
G01 X19.5168 Y47.1422
G01 X17.7668 Y45.3922
G01 X17.7294 Y45.3512
G01 X17.7231 Y45.3437
G01 X17.6882 Y45.2964
G01 X17.6594 Y45.2488
G01 X17.6533 Y45.2374
G01 X17.6297 Y45.1871
G01 X17.6088 Y45.1286
G01 X17.5951 Y45.0748
G01 X17.5926 Y45.0620
G01 X17.5854 Y45.0135
G01 X17.5843 Y45.0038
G01 X17.5816 Y44.9450
G01 X17.5816 Y43.3418
G01 X17.5846 Y43.2831
G01 X17.5937 Y43.2217
G01 X17.6088 Y43.1615
G01 X17.6297 Y43.1030
G01 X17.6562 Y43.0469
G01 X17.6882 Y42.9937
G01 X17.7251 Y42.9439
G01 X17.7668 Y42.8979
G01 X18.9668 Y41.6979
G01 X19.0079 Y41.6604
G01 X19.0179 Y41.6522
G01 X19.0626 Y41.6192
G01 X19.1102 Y41.5905
G01 X19.1217 Y41.5844
G01 X19.1660 Y41.5634
G01 X19.1780 Y41.5585
G01 X19.2304 Y41.5399
G01 X19.2843 Y41.5262
G01 X19.2970 Y41.5237
G01 X19.3520 Y41.5157
G01 X19.4140 Y41.5126
G01 X23.2240 Y41.5126
G01 X23.2795 Y41.5152
G01 X23.2892 Y41.5161
G01 X23.3473 Y41.5248
G01 X23.4013 Y41.5382
G01 X23.4137 Y41.5419
G01 X23.4599 Y41.5585
G01 X23.4719 Y41.5634
G01 X23.5221 Y41.5873
G01 X23.5753 Y41.6192
G01 X23.6252 Y41.6562
G01 X23.6665 Y41.6934
G01 X25.9716 Y43.9983
G01 X25.9716 Y39.7550
G01 X25.9741 Y39.6995
G01 X25.9754 Y39.6866
G01 X25.9837 Y39.6317
G01 X25.9979 Y39.5746
G01 X26.0008 Y39.5653
G01 X26.0197 Y39.5130
G01 X26.0433 Y39.4627
G01 X26.0494 Y39.4513
G01 X26.0782 Y39.4037
G01 X26.1111 Y39.3590
G01 X26.1194 Y39.3489
G01 X26.1545 Y39.3102
G01 X27.7368 Y37.7279
G01 X27.7779 Y37.6904
G01 X27.7853 Y37.6842
G01 X27.8326 Y37.6492
G01 X27.8802 Y37.6205
G01 X27.8917 Y37.6144
G01 X27.9360 Y37.5934
G01 X27.9480 Y37.5885
G01 X28.0004 Y37.5699
G01 X28.0606 Y37.5548
G01 X28.1220 Y37.5457
G01 X28.1775 Y37.5428
G01 X31.6050 Y37.5426
G01 X31.6688 Y37.4568
G01 X31.7390 Y37.3792
G01 X31.7481 Y37.3700
G01 X31.8208 Y37.3041
G01 X31.8309 Y37.2959
G01 X31.9150 Y37.2337
G01 X32.0103 Y37.1766
G01 X32.1107 Y37.1291
G01 X32.2097 Y37.0935
G01 X32.2216 Y37.0899
G01 X32.3231 Y37.0647
G01 X32.4266 Y37.0491
G01 X32.4395 Y37.0479
G01 X32.5440 Y37.0429
G01 X33.0440 Y37.0429
G01 X33.1485 Y37.0479
G01 X33.1614 Y37.0491
G01 X33.2648 Y37.0647
G01 X33.3726 Y37.0917
G01 X33.4712 Y37.1267
G01 X33.4832 Y37.1317
G01 X33.5777 Y37.1766
G01 X33.6730 Y37.2337
G01 X33.7622 Y37.2999
G01 X33.8398 Y37.3700
G01 X33.8490 Y37.3792
G01 X33.9191 Y37.4568
G01 X33.9853 Y37.5461
G01 X34.0392 Y37.6357
G01 X34.0454 Y37.6472
G01 X34.0873 Y37.7359
G01 X34.0911 Y37.7448
G01 X34.1275 Y37.8467
G01 X34.1544 Y37.9542
G01 X34.1707 Y38.0641
G01 X34.1761 Y38.1750
G01 X34.1707 Y38.2860
G01 X34.1544 Y38.3959
G01 X34.1274 Y38.5037
G01 X34.0923 Y38.6023
G01 X34.0873 Y38.6142
G01 X34.0424 Y38.7087
G01 X33.9888 Y38.7986
G01 X33.9816 Y38.8093
G01 X33.9231 Y38.8882
G01 X33.9149 Y38.8982
G01 X33.8445 Y38.9756
G01 X33.7671 Y39.0460
G01 X33.7571 Y39.0542
G01 X33.6730 Y39.1164
G01 X33.5777 Y39.1735
G01 X33.4772 Y39.2210
G01 X33.3757 Y39.2575
G01 X33.3664 Y39.2602
G01 X33.2712 Y39.2840
G01 X33.2585 Y39.2866
G01 X33.1549 Y39.3017
G01 X33.0440 Y39.3072
G01 X32.5440 Y39.3072
G01 X32.4395 Y39.3022
G01 X32.4266 Y39.3010
G01 X32.3231 Y39.2854
G01 X32.2216 Y39.2602
G01 X32.2092 Y39.2564
G01 X32.1168 Y39.2234
G01 X32.1048 Y39.2184
G01 X32.0103 Y39.1735
G01 X31.9205 Y39.1199
G01 X31.9097 Y39.1127
G01 X31.8257 Y39.0502
G01 X31.7434 Y38.9756
G01 X31.6688 Y38.8933
G01 X31.6050 Y38.8074
G01 X28.4459 Y38.8074
G01 X27.2364 Y40.0170
G01 X27.2364 Y44.3361
G01 X27.3222 Y44.3999
G01 X27.3998 Y44.4700
G01 X27.4090 Y44.4792
G01 X27.4749 Y44.5519
G01 X27.4831 Y44.5619
G01 X27.5453 Y44.6461
G01 X27.6024 Y44.7414
G01 X27.6499 Y44.8418
G01 X27.6855 Y44.9407
G01 X27.6891 Y44.9527
G01 X27.7144 Y45.0542
G01 X27.7299 Y45.1576
G01 X27.7311 Y45.1705
G01 X27.7361 Y45.2750
G01 X27.7361 Y45.7783
G01 X27.7307 Y45.8860
G01 X27.7155 Y45.9895
G01 X27.7129 Y46.0023
G01 X27.6874 Y46.1037
G01 X27.6523 Y46.2023
G01 X27.6473 Y46.2142
G01 X27.6024 Y46.3087
G01 X27.5453 Y46.4040
G01 X27.4791 Y46.4933
G01 X27.4090 Y46.5709
G01 X27.3998 Y46.5801
G01 X27.3222 Y46.6502
G01 X27.2330 Y46.7164
G01 X27.1433 Y46.7703
G01 X27.1319 Y46.7764
G01 X27.0432 Y46.8184
G01 X27.0342 Y46.8222
G01 X26.9326 Y46.8584
G01 X26.8312 Y46.8840
G01 X26.8185 Y46.8866
G01 X26.7149 Y46.9017
G01 X26.6040 Y46.9072
G01 X26.4995 Y46.9022
G01 X26.4866 Y46.9010
G01 X26.3831 Y46.8854
G01 X26.2816 Y46.8602
G01 X26.2692 Y46.8564
G01 X26.1707 Y46.8210
G01 X26.0703 Y46.7735
G01 X25.9805 Y46.7199
G01 X25.9697 Y46.7127
G01 X25.8857 Y46.6502
G01 X25.8034 Y46.5756
G01 X25.7330 Y46.4982
G01 X25.7248 Y46.4882
G01 X25.6626 Y46.4040
G01 X25.6087 Y46.3144
G01 X25.6026 Y46.3029
G01 X25.5580 Y46.2083
G01 X25.5226 Y46.1099
G01 X25.5188 Y46.0974
G01 X25.4936 Y45.9959
G01 X25.4781 Y45.8925
G01 X25.4768 Y45.8796
G01 X25.4718 Y45.7750
G01 X25.4718 Y45.2872
G01 X22.9620 Y42.7774
G01 X19.6759 Y42.7774
G01 X18.8464 Y43.6070
G01 X18.8464 Y44.6831
G01 X20.2259 Y46.0626
G01 X21.3640 Y46.0626
G01 X21.4260 Y46.0657
G01 X21.4810 Y46.0737
G01 X21.4937 Y46.0762
G01 X21.5475 Y46.0899
G01 X21.6060 Y46.1108
G01 X21.6621 Y46.1373
G01 X21.7098 Y46.1658
G01 X21.7206 Y46.1730
G01 X21.7601 Y46.2022
G01 X21.7676 Y46.2083
G01 X21.8111 Y46.2479
G01 X22.4611 Y46.8979
G01 X22.5028 Y46.9439
G01 X22.5361 Y46.9884
G01 X22.5416 Y46.9964
G01 X22.5717 Y47.0469
G01 X22.5956 Y47.0971
G01 X22.6006 Y47.1091
G01 X22.6191 Y47.1615
G01 X22.6328 Y47.2153
G01 X22.6353 Y47.2281
G01 X22.6425 Y47.2766
G01 X22.6438 Y47.2895
G01 X22.6464 Y47.3450
G01 X22.6464 Y47.7561
G01 X22.7322 Y47.8199
G01 X22.8145 Y47.8945
G01 X22.8891 Y47.9768
G01 X22.9516 Y48.0608
G01 X22.9588 Y48.0715
G01 X23.0092 Y48.1557
G01 X23.0154 Y48.1672
G01 X23.0599 Y48.2618
G01 X23.0965 Y48.3637
G01 X23.0991 Y48.3727
G01 X23.1229 Y48.4678
G01 X23.1255 Y48.4806
G01 X23.1407 Y48.5841
G01 X23.1461 Y48.6918
G01 X23.1461 Y49.1983
G01 X23.1407 Y49.3060
G01 X23.1244 Y49.4159
G01 X23.0974 Y49.5237
G01 X23.0600 Y49.6282
G01 X23.0124 Y49.7287
G01 X22.9553 Y49.8240
G01 X22.8891 Y49.9133
G01 X22.8145 Y49.9956
G01 X22.7322 Y50.0702
G01 X22.6464 Y50.1340
G01 X22.6464 Y50.7450
G01 X22.6438 Y50.8006
G01 X22.6425 Y50.8135
G01 X22.6353 Y50.8620
G01 X22.6328 Y50.8748
G01 X22.6191 Y50.9286
G01 X22.5982 Y50.9871
G01 X22.5717 Y51.0432
G01 X22.5398 Y51.0963
G01 X22.5028 Y51.1462
G01 X22.4656 Y51.1875
G01 X21.8611 Y51.7922
G01 X21.8152 Y51.8339
G01 X21.7653 Y51.8709
G01 X21.7121 Y51.9028
G01 X21.6619 Y51.9267
G01 X21.6530 Y51.9305
G01 X21.5975 Y51.9502
G01 X21.5373 Y51.9653
G01 X21.4760 Y51.9744
G01 X21.4172 Y51.9774
G01 X18.8140 Y51.9774
G01 X18.7520 Y51.9744
G01 X18.6906 Y51.9653
G01 X18.6304 Y51.9502
G01 X18.5780 Y51.9316
G01 X18.5660 Y51.9267
G01 X18.5159 Y51.9028
G01 X18.4681 Y51.8743
G01 X18.4573 Y51.8671
G01 X18.4153 Y51.8359
G01 X18.4079 Y51.8297
G01 X18.3691 Y51.7945
G01 X18.2977 Y51.7231
G01 X18.2889 Y51.7171
G01 X18.2444 Y51.6839
G01 X18.1984 Y51.6422
G01 X17.0268 Y50.4707
G01 X16.9851 Y50.4247
G01 X16.9519 Y50.3801
G01 X16.9459 Y50.3713
G01 X15.7520 Y49.1774
G01 X10.8107 Y49.1774
G01 X10.7520 Y49.1744
G01 X10.6970 Y49.1664
G01 X10.6843 Y49.1639
G01 X10.6335 Y49.1511
G01 X10.6242 Y49.1482
G01 X10.5780 Y49.1316
G01 X10.5690 Y49.1280
G01 X10.5187 Y49.1043
G01 X10.5102 Y49.0996
G01 X10.4876 Y49.0860
G01 X10.4654 Y49.1329
G01 X10.4609 Y49.1416
G01 X10.4071 Y49.2313
G01 X10.4016 Y49.2393
G01 X10.3412 Y49.3207
G01 X10.3349 Y49.3282
G01 X10.2645 Y49.4056
G01 X10.1847 Y49.4781
G01 X10.1771 Y49.4842
G01 X10.0930 Y49.5464
G01 X9.9977 Y49.6035
G01 X9.8972 Y49.6510
G01 X9.7953 Y49.6876
G01 X9.7864 Y49.6902
G01 X9.6912 Y49.7140
G01 X9.6785 Y49.7166
G01 X9.5749 Y49.7317
G01 X9.4640 Y49.7372
G01 X8.9640 Y49.7372
G01 X8.8595 Y49.7322
G01 X8.8466 Y49.7310
G01 X8.7431 Y49.7154
G01 X8.6384 Y49.6894
G01 X8.6292 Y49.6864
G01 X8.5307 Y49.6510
G01 X8.4303 Y49.6035
G01 X8.3350 Y49.5464
G01 X8.2457 Y49.4802
G01 X8.1634 Y49.4056
G01 X8.0888 Y49.3233
G01 X8.0226 Y49.2340
G01 X7.9687 Y49.1444
G01 X7.9626 Y49.1329
G01 X7.9180 Y49.0383
G01 X7.8826 Y48.9399
G01 X7.8788 Y48.9274
G01 X7.8536 Y48.8259
G01 X7.8381 Y48.7225
G01 X7.8368 Y48.7096
G01 X7.8320 Y48.6115
G01 X7.8320 Y48.5986
G01 X7.8373 Y48.4941
G01 X7.8536 Y48.3842
G01 X7.8806 Y48.2764
G01 X7.9157 Y48.1778
G00 Z3.0000
G00 X7.8989 Y48.2249
G01 F60.00
G01 Z-0.1200
G01 F70.00
G01 X7.9157 Y48.1778
G01 X7.9206 Y48.1659
G01 X7.9365 Y48.1324
G01 X7.9206 Y48.1659
G01 X7.9157 Y48.1778
G00 Z3.0000
G00 X4.4461 Y47.2359
G01 F60.00
G01 Z-0.1200
G01 F70.00
G01 X4.4461 Y46.9620
G01 X4.5309 Y47.0052
G01 X4.7051 Y47.1317
G01 X4.8573 Y47.2840
G01 X4.9839 Y47.4581
G01 X5.0816 Y47.6500
G01 X5.1280 Y47.7929
G01 X4.8784 Y47.7929
G01 X4.8623 Y47.7478
G01 X4.8587 Y47.7388
G01 X4.8154 Y47.6472
G01 X4.8109 Y47.6385
G01 X4.7553 Y47.5461
G01 X4.6912 Y47.4594
G01 X4.6849 Y47.4519
G01 X4.6190 Y47.3792
G01 X4.6098 Y47.3700
G01 X4.5322 Y47.2999
G01 X4.4461 Y47.2359
G00 Z3.0000
G00 X4.4862 Y47.2657
G01 F60.00
G01 Z-0.1200
G01 F70.00
G01 X4.4461 Y47.2359
G01 X4.4461 Y47.1859
G01 X4.4461 Y47.2359
G00 Z3.0000
G00 X2.4999 Y47.7929
G01 F60.00
G01 Z-0.1200
G01 F70.00
G01 X2.5463 Y47.6500
G01 X2.6441 Y47.4581
G01 X2.7706 Y47.2840
G01 X2.9229 Y47.1317
G01 X3.0971 Y47.0052
G01 X3.1818 Y46.9620
G01 X3.1818 Y47.2359
G01 X3.0957 Y47.2999
G01 X3.0181 Y47.3700
G01 X3.0090 Y47.3792
G01 X2.9430 Y47.4519
G01 X2.9368 Y47.4594
G01 X2.8726 Y47.5461
G01 X2.8171 Y47.6385
G01 X2.8126 Y47.6472
G01 X2.7693 Y47.7388
G01 X2.7657 Y47.7478
G01 X2.7495 Y47.7929
G01 X2.4999 Y47.7929
G00 Z3.0000
G00 X2.5499 Y47.7929
G01 F60.00
G01 Z-0.1200
G01 F70.00
G01 X2.4999 Y47.7929
G01 X2.5154 Y47.7453
G01 X2.4999 Y47.7929
G00 Z3.0000
G00 X2.4999 Y49.0572
G01 F60.00
G01 Z-0.1200
G01 F70.00
G01 X2.7495 Y49.0572
G01 X2.7657 Y49.1023
G01 X2.7693 Y49.1113
G01 X2.8126 Y49.2029
G01 X2.8171 Y49.2116
G01 X2.8726 Y49.3040
G01 X2.9368 Y49.3907
G01 X2.9430 Y49.3982
G01 X3.0090 Y49.4709
G01 X3.0181 Y49.4801
G01 X3.0957 Y49.5502
G01 X3.1818 Y49.6142
G01 X3.1818 Y49.8881
G01 X3.0971 Y49.8449
G01 X2.9229 Y49.7184
G01 X2.7706 Y49.5661
G01 X2.6441 Y49.3920
G01 X2.5463 Y49.2001
G01 X2.4999 Y49.0572
G00 Z3.0000
G00 X2.5154 Y49.1048
G01 F60.00
G01 Z-0.1200
G01 F70.00
G01 X2.4999 Y49.0572
G01 X2.5499 Y49.0572
G01 X2.4999 Y49.0572
G00 Z3.0000
G00 X4.4461 Y49.8881
G01 F60.00
G01 Z-0.1200
G01 F70.00
G01 X4.4461 Y49.6142
G01 X4.5322 Y49.5502
G01 X4.6098 Y49.4801
G01 X4.6190 Y49.4709
G01 X4.6849 Y49.3982
G01 X4.6912 Y49.3907
G01 X4.7553 Y49.3040
G01 X4.8109 Y49.2116
G01 X4.8154 Y49.2029
G01 X4.8587 Y49.1113
G01 X4.8623 Y49.1023
G01 X4.8784 Y49.0572
G01 X5.1280 Y49.0572
G01 X5.0816 Y49.2001
G01 X4.9839 Y49.3920
G01 X4.8573 Y49.5661
G01 X4.7051 Y49.7184
G01 X4.5309 Y49.8449
G01 X4.4461 Y49.8881
G00 Z3.0000
G00 X4.4907 Y49.8654
G01 F60.00
G01 Z-0.1200
G01 F70.00
G01 X4.4461 Y49.8881
G01 X4.4461 Y49.8381
G01 X4.4461 Y49.8881
G00 Z3.0000
G00 X5.6975 Y52.1126
G01 F60.00
G01 Z-0.1200
G01 F70.00
G01 X7.9411 Y52.1126
G01 X7.9626 Y52.0672
G01 X7.9671 Y52.0585
G01 X8.0209 Y51.9688
G01 X8.0264 Y51.9608
G01 X8.0848 Y51.8819
G01 X8.0909 Y51.8743
G01 X8.1590 Y51.7992
G01 X8.1681 Y51.7900
G01 X8.2457 Y51.7199
G01 X8.3323 Y51.6555
G01 X8.3405 Y51.6502
G01 X8.4246 Y51.5998
G01 X8.4361 Y51.5937
G01 X8.5307 Y51.5491
G01 X8.6292 Y51.5137
G01 X8.6416 Y51.5099
G01 X8.7431 Y51.4847
G01 X8.8466 Y51.4691
G01 X8.8595 Y51.4679
G01 X8.9640 Y51.4629
G01 X9.4705 Y51.4631
G01 X9.5749 Y51.4684
G01 X9.6785 Y51.4835
G01 X9.6912 Y51.4861
G01 X9.7895 Y51.5107
G01 X9.7988 Y51.5137
G01 X9.8912 Y51.5467
G01 X9.9032 Y51.5517
G01 X9.9977 Y51.5966
G01 X10.0930 Y51.6537
G01 X10.1771 Y51.7159
G01 X10.1871 Y51.7241
G01 X10.2645 Y51.7945
G01 X10.3349 Y51.8719
G01 X10.3431 Y51.8819
G01 X10.4053 Y51.9661
G01 X10.4592 Y52.0557
G01 X10.4654 Y52.0672
G01 X10.5099 Y52.1618
G01 X10.5455 Y52.2607
G01 X10.5491 Y52.2727
G01 X10.5729 Y52.3678
G01 X10.5750 Y52.3774
G01 X10.5907 Y52.4841
G01 X10.5960 Y52.5886
G01 X10.5960 Y52.6015
G01 X10.5907 Y52.7060
G01 X10.5755 Y52.8095
G01 X10.5729 Y52.8223
G01 X10.5474 Y52.9237
G01 X10.5184 Y53.0051
G01 X11.2611 Y53.7479
G01 X11.3007 Y53.7914
G01 X11.3068 Y53.7990
G01 X11.3361 Y53.8384
G01 X11.3433 Y53.8492
G01 X11.3717 Y53.8969
G01 X11.3956 Y53.9471
G01 X11.4006 Y53.9591
G01 X11.4191 Y54.0115
G01 X11.4328 Y54.0653
G01 X11.4353 Y54.0781
G01 X11.4433 Y54.1331
G01 X11.4464 Y54.1950
G01 X11.4464 Y59.2831
G01 X17.2759 Y65.1126
G01 X94.5520 Y65.1126
G01 X97.3816 Y62.2831
G01 X97.3816 Y44.2070
G01 X96.8518 Y43.6772
G01 X96.8375 Y43.6770
G01 X96.7330 Y43.6717
G01 X96.6295 Y43.6566
G01 X96.6168 Y43.6540
G01 X96.5153 Y43.6284
G01 X96.4168 Y43.5934
G01 X96.4048 Y43.5884
G01 X96.3103 Y43.5435
G01 X96.2150 Y43.4864
G01 X96.1309 Y43.4242
G01 X96.1208 Y43.4160
G01 X96.0434 Y43.3456
G01 X95.9730 Y43.2682
G01 X95.9648 Y43.2582
G01 X95.9050 Y43.1774
G01 X95.4059 Y43.1774
G01 X92.5907 Y45.9926
G01 X92.5968 Y46.0169
G01 X92.5988 Y46.0264
G01 X92.6108 Y46.1072
G01 X92.6119 Y46.1169
G01 X92.6161 Y46.2050
G01 X92.6119 Y46.2932
G01 X92.6108 Y46.3029
G01 X92.5982 Y46.3869
G01 X92.5777 Y46.4694
G01 X92.5740 Y46.4818
G01 X92.5475 Y46.5557
G01 X92.5439 Y46.5647
G01 X92.5061 Y46.6445
G01 X92.4625 Y46.7174
G01 X92.4553 Y46.7282
G01 X92.4085 Y46.7913
G01 X92.4003 Y46.8013
G01 X92.3431 Y46.8642
G01 X92.2753 Y46.9256
G01 X92.2018 Y46.9801
G01 X92.1262 Y47.0256
G01 X92.1176 Y47.0300
G01 X92.0407 Y47.0662
G01 X91.9607 Y47.0950
G01 X91.9483 Y47.0988
G01 X91.8658 Y47.1193
G01 X91.7818 Y47.1319
G01 X91.7689 Y47.1332
G01 X91.6840 Y47.1372
G01 X91.2840 Y47.1372
G01 X91.1991 Y47.1332
G01 X91.1894 Y47.1324
G01 X91.1021 Y47.1193
G01 X91.0131 Y47.0970
G01 X90.9273 Y47.0662
G01 X90.8446 Y47.0271
G01 X90.7716 Y46.9836
G01 X90.7608 Y46.9764
G01 X90.6926 Y46.9256
G01 X90.6248 Y46.8642
G01 X90.5634 Y46.7964
G01 X90.5127 Y46.7282
G01 X90.5054 Y46.7174
G01 X90.4619 Y46.6445
G01 X90.4228 Y46.5618
G01 X90.3940 Y46.4818
G01 X90.3902 Y46.4694
G01 X90.3697 Y46.3869
G01 X90.3563 Y46.2964
G01 X90.3520 Y46.2115
G01 X90.3520 Y46.1986
G01 X90.3558 Y46.1202
G01 X90.3571 Y46.1072
G01 X90.3697 Y46.0232
G01 X90.3920 Y45.9345
G01 X90.4228 Y45.8483
G01 X90.4590 Y45.7714
G01 X90.4651 Y45.7600
G01 X90.5054 Y45.6927
G01 X90.5127 Y45.6819
G01 X90.5634 Y45.6137
G01 X90.6204 Y45.5506
G01 X90.6295 Y45.5414
G01 X90.6926 Y45.4845
G01 X90.7608 Y45.4337
G01 X90.7716 Y45.4265
G01 X90.8389 Y45.3862
G01 X90.8504 Y45.3801
G01 X90.9273 Y45.3439
G01 X91.0134 Y45.3130
G01 X91.1021 Y45.2908
G01 X91.1862 Y45.2782
G01 X91.1958 Y45.2771
G01 X91.2807 Y45.2729
G01 X91.5218 Y45.2729
G01 X94.6968 Y42.0979
G01 X94.7379 Y42.0604
G01 X94.7453 Y42.0542
G01 X94.7926 Y42.0192
G01 X94.8402 Y41.9905
G01 X94.8517 Y41.9844
G01 X94.9020 Y41.9608
G01 X94.9542 Y41.9419
G01 X94.9666 Y41.9382
G01 X95.0206 Y41.9248
G01 X95.0788 Y41.9161
G01 X95.0885 Y41.9152
G01 X95.1440 Y41.9126
G01 X95.9050 Y41.9126
G01 X95.9688 Y41.8268
G01 X96.0390 Y41.7492
G01 X96.0481 Y41.7400
G01 X96.1233 Y41.6720
G01 X96.1309 Y41.6659
G01 X96.2097 Y41.6074
G01 X96.2177 Y41.6019
G01 X96.3074 Y41.5481
G01 X96.3161 Y41.5437
G01 X96.3416 Y41.5316
G01 X96.3416 Y40.2094
G01 X96.2968 Y40.1934
G01 X96.2878 Y40.1898
G01 X96.1932 Y40.1450
G01 X96.1846 Y40.1403
G01 X96.1005 Y40.0899
G01 X96.0923 Y40.0846
G01 X96.0057 Y40.0202
G01 X95.9281 Y39.9501
G01 X95.9190 Y39.9409
G01 X95.8530 Y39.8682
G01 X95.8468 Y39.8607
G01 X95.7826 Y39.7740
G01 X95.7287 Y39.6844
G01 X95.7226 Y39.6729
G01 X95.6780 Y39.5783
G01 X95.6426 Y39.4799
G01 X95.6388 Y39.4674
G01 X95.6136 Y39.3659
G01 X95.5973 Y39.2560
G01 X95.5918 Y39.1450
G01 X95.5968 Y39.0405
G01 X95.5981 Y39.0276
G01 X95.6136 Y38.9242
G01 X95.6388 Y38.8227
G01 X95.6426 Y38.8102
G01 X95.6780 Y38.7119
G01 X95.7255 Y38.6114
G01 X95.7792 Y38.5215
G01 X95.7864 Y38.5108
G01 X95.8488 Y38.4268
G01 X95.9190 Y38.3492
G01 X95.9281 Y38.3400
G01 X96.0008 Y38.2741
G01 X96.0109 Y38.2659
G01 X96.0897 Y38.2074
G01 X96.1005 Y38.2002
G01 X96.1903 Y38.1466
G01 X96.2907 Y38.0991
G01 X96.3897 Y38.0635
G01 X96.4016 Y38.0599
G01 X96.5031 Y38.0347
G01 X96.6066 Y38.0191
G01 X96.6195 Y38.0179
G01 X96.7240 Y38.0129
G01 X97.2305 Y38.0131
G01 X97.3349 Y38.0184
G01 X97.4385 Y38.0335
G01 X97.4512 Y38.0361
G01 X97.5464 Y38.0599
G01 X97.5557 Y38.0626
G01 X97.6571 Y38.0990
G01 X97.7519 Y38.1437
G01 X97.7633 Y38.1498
G01 X97.8530 Y38.2037
G01 X97.9422 Y38.2699
G01 X98.0198 Y38.3400
G01 X98.0290 Y38.3492
G01 X98.0991 Y38.4268
G01 X98.1616 Y38.5108
G01 X98.1688 Y38.5215
G01 X98.2224 Y38.6114
G01 X98.2699 Y38.7118
G01 X98.3055 Y38.8107
G01 X98.3091 Y38.8227
G01 X98.3344 Y38.9242
G01 X98.3499 Y39.0276
G01 X98.3511 Y39.0405
G01 X98.3561 Y39.1450
G01 X98.3511 Y39.2496
G01 X98.3499 Y39.2625
G01 X98.3355 Y39.3595
G01 X98.3329 Y39.3723
G01 X98.3074 Y39.4737
G01 X98.2699 Y39.5783
G01 X98.2224 Y39.6787
G01 X98.1671 Y39.7713
G01 X98.1616 Y39.7793
G01 X98.0991 Y39.8633
G01 X98.0290 Y39.9409
G01 X98.0198 Y39.9501
G01 X97.9471 Y40.0160
G01 X97.9397 Y40.0222
G01 X97.8530 Y40.0864
G01 X97.7605 Y40.1420
G01 X97.7519 Y40.1464
G01 X97.6602 Y40.1897
G01 X97.6512 Y40.1934
G01 X97.6064 Y40.2094
G01 X97.6064 Y41.4449
G01 X97.6726 Y41.4617
G01 X97.7740 Y41.4978
G01 X97.7832 Y41.5017
G01 X97.8748 Y41.5451
G01 X97.8833 Y41.5498
G01 X97.9730 Y41.6037
G01 X98.0571 Y41.6659
G01 X98.0647 Y41.6720
G01 X98.1398 Y41.7400
G01 X98.1490 Y41.7492
G01 X98.2191 Y41.8268
G01 X98.2816 Y41.9108
G01 X98.2888 Y41.9215
G01 X98.3424 Y42.0114
G01 X98.3899 Y42.1118
G01 X98.4255 Y42.2107
G01 X98.4291 Y42.2227
G01 X98.4544 Y42.3242
G01 X98.4699 Y42.4276
G01 X98.4711 Y42.4405
G01 X98.4761 Y42.5450
G01 X98.4711 Y42.6496
G01 X98.4699 Y42.6625
G01 X98.4544 Y42.7659
G01 X98.4291 Y42.8674
G01 X98.4253 Y42.8799
G01 X98.3899 Y42.9783
G01 X98.3454 Y43.0729
G01 X98.3392 Y43.0844
G01 X98.2853 Y43.1740
G01 X98.2224 Y43.2591
G01 X98.4634 Y43.5002
G01 X98.5028 Y43.5439
G01 X98.5361 Y43.5884
G01 X98.5416 Y43.5964
G01 X98.5717 Y43.6469
G01 X98.5956 Y43.6971
G01 X98.6006 Y43.7091
G01 X98.6191 Y43.7615
G01 X98.6328 Y43.8153
G01 X98.6353 Y43.8281
G01 X98.6433 Y43.8831
G01 X98.6462 Y43.9386
G01 X98.6464 Y62.5450
G01 X98.6438 Y62.6006
G01 X98.6430 Y62.6103
G01 X98.6342 Y62.6684
G01 X98.6191 Y62.7286
G01 X98.5982 Y62.7871
G01 X98.5746 Y62.8374
G01 X98.5685 Y62.8488
G01 X98.5433 Y62.8909
G01 X98.5361 Y62.9017
G01 X98.5028 Y62.9462
G01 X98.4611 Y62.9922
G01 X95.2588 Y66.1945
G01 X95.2152 Y66.2339
G01 X95.1706 Y66.2671
G01 X95.1598 Y66.2743
G01 X95.1177 Y66.2996
G01 X95.1063 Y66.3057
G01 X95.0560 Y66.3293
G01 X94.9975 Y66.3502
G01 X94.9373 Y66.3653
G01 X94.8824 Y66.3736
G01 X94.8695 Y66.3749
G01 X94.8140 Y66.3774
G01 X17.0140 Y66.3774
G01 X16.9520 Y66.3744
G01 X16.8970 Y66.3664
G01 X16.8843 Y66.3639
G01 X16.8366 Y66.3519
G01 X16.8242 Y66.3482
G01 X16.7720 Y66.3293
G01 X16.7159 Y66.3028
G01 X16.6681 Y66.2743
G01 X16.6573 Y66.2671
G01 X16.6128 Y66.2339
G01 X16.5668 Y66.1922
G01 X10.3668 Y59.9922
G01 X10.3294 Y59.9512
G01 X10.3211 Y59.9411
G01 X10.2882 Y59.8964
G01 X10.2578 Y59.8460
G01 X10.2533 Y59.8374
G01 X10.2297 Y59.7871
G01 X10.2108 Y59.7348
G01 X10.2071 Y59.7224
G01 X10.1937 Y59.6684
G01 X10.1854 Y59.6135
G01 X10.1841 Y59.6006
G01 X10.1816 Y59.5483
G01 X10.1816 Y54.4570
G01 X9.4518 Y53.7272
G01 X8.9640 Y53.7272
G01 X8.8595 Y53.7222
G01 X8.8466 Y53.7210
G01 X8.7431 Y53.7054
G01 X8.6384 Y53.6794
G01 X8.6292 Y53.6764
G01 X8.5368 Y53.6434
G01 X8.5248 Y53.6384
G01 X8.4303 Y53.5935
G01 X8.3405 Y53.5399
G01 X8.3297 Y53.5327
G01 X8.2457 Y53.4702
G01 X8.1657 Y53.3979
G01 X8.1468 Y53.3774
G01 X5.6975 Y53.3774
G01 X5.6776 Y53.3995
G01 X5.6708 Y53.4064
G01 X5.6078 Y53.4635
G01 X5.6002 Y53.4696
G01 X5.5372 Y53.5164
G01 X5.5291 Y53.5219
G01 X5.4534 Y53.5671
G01 X5.3766 Y53.6036
G01 X5.3646 Y53.6086
G01 X5.2907 Y53.6350
G01 X5.2814 Y53.6380
G01 X5.1958 Y53.6593
G01 X5.1118 Y53.6719
G01 X5.0989 Y53.6732
G01 X5.0140 Y53.6772
G01 X4.6075 Y53.6770
G01 X4.5226 Y53.6727
G01 X4.4385 Y53.6604
G01 X4.4258 Y53.6579
G01 X4.3434 Y53.6371
G01 X4.2633 Y53.6086
G01 X4.2513 Y53.6036
G01 X4.1746 Y53.5671
G01 X4.1016 Y53.5236
G01 X4.0908 Y53.5164
G01 X4.0226 Y53.4656
G01 X3.9595 Y53.4087
G01 X3.9504 Y53.3995
G01 X3.8934 Y53.3364
G01 X3.8427 Y53.2682
G01 X3.8354 Y53.2574
G01 X3.7935 Y53.1873
G01 X3.7890 Y53.1787
G01 X3.7528 Y53.1018
G01 X3.7220 Y53.0156
G01 X3.6997 Y52.9269
G01 X3.6863 Y52.8364
G01 X3.6818 Y52.7450
G01 X3.6863 Y52.6537
G01 X3.6997 Y52.5632
G01 X3.7220 Y52.4745
G01 X3.7528 Y52.3883
G01 X3.7919 Y52.3056
G01 X3.8389 Y52.2272
G01 X3.8934 Y52.1537
G01 X3.9548 Y52.0859
G01 X4.0226 Y52.0245
G01 X4.0961 Y51.9700
G01 X4.1717 Y51.9245
G01 X4.1804 Y51.9201
G01 X4.2573 Y51.8839
G01 X4.3434 Y51.8530
G01 X4.4321 Y51.8308
G01 X4.5194 Y51.8177
G01 X4.5291 Y51.8169
G01 X4.6140 Y51.8129
G01 X5.0140 Y51.8129
G01 X5.0989 Y51.8169
G01 X5.1086 Y51.8177
G01 X5.1958 Y51.8308
G01 X5.2846 Y51.8530
G01 X5.3707 Y51.8839
G01 X5.4505 Y51.9215
G01 X5.4590 Y51.9262
G01 X5.5318 Y51.9700
G01 X5.6028 Y52.0225
G01 X5.6102 Y52.0287
G01 X5.6708 Y52.0837
G01 X5.6776 Y52.0906
G01 X5.6975 Y52.1126
G00 Z3.0000
G00 X5.6630 Y52.0766
G01 F60.00
G01 Z-0.1200
G01 F70.00
G01 X5.6708 Y52.0837
G01 X5.6776 Y52.0906
G01 X5.6975 Y52.1126
G01 X5.7475 Y52.1126
G01 X5.6975 Y52.1126
G00 Z3.0000
G00 X3.5312 Y53.1935
G01 F60.00
G01 Z-0.1200
G01 F70.00
G01 X3.4744 Y53.0186
G01 X3.4525 Y52.8802
G01 X3.4456 Y52.8370
G01 X3.4456 Y52.6531
G01 X3.4744 Y52.4715
G01 X3.5312 Y52.2966
G01 X3.6147 Y52.1327
G01 X3.7228 Y51.9839
G01 X3.8529 Y51.8539
G01 X4.0016 Y51.7458
G01 X4.1655 Y51.6623
G01 X4.3404 Y51.6055
G01 X4.5220 Y51.5767
G01 X5.1059 Y51.5767
G01 X5.2876 Y51.6055
G01 X5.4625 Y51.6623
G01 X5.6263 Y51.7458
G01 X5.7392 Y51.8278
G01 X5.7508 Y51.8357
G01 X5.7618 Y51.8421
G01 X5.7704 Y51.8462
G01 X5.7823 Y51.8507
G01 X5.8525 Y51.8713
G01 X5.8647 Y51.8743
G01 X5.8803 Y51.8764
G01 X5.8897 Y51.8767
G01 X7.6640 Y51.8767
G01 X7.6762 Y51.8761
G01 X7.6884 Y51.8744
G01 X7.7398 Y51.8646
G01 X7.7524 Y51.8609
G01 X7.7645 Y51.8560
G01 X7.7761 Y51.8499
G01 X7.7871 Y51.8427
G01 X7.8475 Y51.7961
G01 X7.8591 Y51.7855
G01 X7.8674 Y51.7761
G01 X7.9203 Y51.7036
G01 X8.0726 Y51.5513
G01 X8.2468 Y51.4247
G01 X8.4387 Y51.3270
G01 X8.6436 Y51.2604
G01 X8.8563 Y51.2267
G01 X9.5717 Y51.2267
G01 X9.7844 Y51.2604
G01 X9.9892 Y51.3270
G01 X10.1811 Y51.4247
G01 X10.3554 Y51.5513
G01 X10.5077 Y51.7036
G01 X10.6343 Y51.8779
G01 X10.7321 Y52.0698
G01 X10.7986 Y52.2746
G01 X10.8323 Y52.4874
G01 X10.8323 Y52.7027
G01 X10.8141 Y52.8178
G01 X10.8130 Y52.8269
G01 X10.8125 Y52.8361
G01 X10.8140 Y52.8913
G01 X10.8153 Y52.9043
G01 X10.8179 Y52.9172
G01 X10.8207 Y52.9266
G01 X10.8242 Y52.9358
G01 X10.8284 Y52.9447
G01 X10.8666 Y53.0143
G01 X10.8755 Y53.0273
G01 X10.8838 Y53.0368
G01 X11.4885 Y53.6415
G01 X11.5835 Y53.7837
G01 X11.6490 Y53.9418
G01 X11.6823 Y54.1095
G01 X11.6823 Y59.0793
G01 X11.6831 Y59.0934
G01 X11.6863 Y59.1230
G01 X11.6879 Y59.1326
G01 X11.6903 Y59.1420
G01 X11.6933 Y59.1513
G01 X11.6970 Y59.1603
G01 X11.7013 Y59.1690
G01 X11.7380 Y59.2357
G01 X11.7469 Y59.2486
G01 X11.7573 Y59.2604
G01 X17.2986 Y64.8017
G01 X17.3092 Y64.8111
G01 X17.3349 Y64.8317
G01 X17.3458 Y64.8388
G01 X17.3573 Y64.8448
G01 X17.3724 Y64.8507
G01 X17.4425 Y64.8713
G01 X17.4547 Y64.8743
G01 X17.4641 Y64.8758
G01 X17.4798 Y64.8767
G01 X94.3482 Y64.8767
G01 X94.3623 Y64.8759
G01 X94.3887 Y64.8731
G01 X94.3983 Y64.8717
G01 X94.4140 Y64.8678
G01 X94.4232 Y64.8646
G01 X94.4321 Y64.8607
G01 X94.5047 Y64.8211
G01 X94.5176 Y64.8121
G01 X94.5271 Y64.8039
G01 X95.3792 Y63.9518
G01 X95.3874 Y63.9428
G01 X95.4069 Y63.9184
G01 X95.4127 Y63.9104
G01 X95.4196 Y63.8991
G01 X95.4253 Y63.8872
G01 X95.4307 Y63.8716
G01 X95.4494 Y63.8043
G01 X95.4528 Y63.7882
G01 X95.4541 Y63.7752
G01 X95.4542 Y63.7653
G01 X95.4532 Y63.7523
G01 X95.4516 Y63.7425
G01 X95.4483 Y63.7298
G01 X95.4267 Y63.6600
G01 X95.4205 Y63.6448
G01 X95.4125 Y63.6305
G01 X95.4028 Y63.6173
G01 X95.3915 Y63.6054
G01 X95.3331 Y63.5560
G01 X95.3227 Y63.5481
G01 X95.3143 Y63.5428
G01 X95.3056 Y63.5382
G01 X95.2966 Y63.5342
G01 X95.2842 Y63.5300
G01 X95.2747 Y63.5277
G01 X95.2649 Y63.5261
G01 X95.1956 Y63.5171
G01 X95.1800 Y63.5160
G01 X95.1705 Y63.5163
G01 X95.1611 Y63.5172
G01 X95.1217 Y63.5234
G01 X94.9063 Y63.5234
G01 X94.6936 Y63.4897
G01 X94.4887 Y63.4231
G01 X94.2968 Y63.3254
G01 X94.1226 Y63.1988
G01 X93.9703 Y63.0465
G01 X93.8437 Y62.8722
G01 X93.8121 Y62.8104
G01 X93.8056 Y62.7996
G01 X93.8000 Y62.7919
G01 X93.7939 Y62.7846
G01 X93.7504 Y62.7366
G01 X93.7411 Y62.7272
G01 X93.7335 Y62.7209
G01 X93.7227 Y62.7133
G01 X93.7112 Y62.7069
G01 X93.7021 Y62.7028
G01 X93.6897 Y62.6984
G01 X93.6165 Y62.6771
G01 X93.6011 Y62.6743
G01 X93.5854 Y62.6734
G01 X90.3875 Y62.6734
G01 X90.3780 Y62.6737
G01 X90.3685 Y62.6748
G01 X90.3530 Y62.6780
G01 X90.2905 Y62.6949
G01 X90.2748 Y62.7002
G01 X90.2629 Y62.7058
G01 X90.2515 Y62.7126
G01 X90.2409 Y62.7205
G01 X90.2312 Y62.7293
G01 X90.1809 Y62.7825
G01 X90.1708 Y62.7945
G01 X90.1655 Y62.8023
G01 X90.1607 Y62.8104
G01 X90.1343 Y62.8622
G01 X90.0077 Y63.0365
G01 X89.8554 Y63.1888
G01 X89.6811 Y63.3154
G01 X89.4892 Y63.4131
G01 X89.2844 Y63.4797
G01 X89.0717 Y63.5134
G01 X88.3563 Y63.5134
G01 X88.1436 Y63.4797
G01 X87.9387 Y63.4131
G01 X87.7468 Y63.3154
G01 X87.5726 Y63.1888
G01 X87.4203 Y63.0365
G01 X87.2937 Y62.8622
G01 X87.1959 Y62.6703
G01 X87.1549 Y62.5441
G01 X87.1293 Y62.4655
G01 X87.0956 Y62.2527
G01 X87.0956 Y62.0374
G01 X87.1293 Y61.8246
G01 X87.1959 Y61.6198
G01 X87.2937 Y61.4279
G01 X87.4203 Y61.2536
G01 X87.5726 Y61.1013
G01 X87.7468 Y60.9747
G01 X87.9387 Y60.8770
G01 X88.1436 Y60.8104
G01 X88.3563 Y60.7767
G01 X89.0717 Y60.7767
G01 X89.2844 Y60.8104
G01 X89.4892 Y60.8770
G01 X89.6811 Y60.9747
G01 X89.8368 Y61.0878
G01 X89.8483 Y61.0957
G01 X89.8593 Y61.1021
G01 X89.8680 Y61.1062
G01 X89.8799 Y61.1107
G01 X89.9501 Y61.1313
G01 X89.9654 Y61.1349
G01 X89.9779 Y61.1364
G01 X89.9873 Y61.1367
G01 X93.5854 Y61.1367
G01 X93.5949 Y61.1364
G01 X93.6044 Y61.1353
G01 X93.6168 Y61.1329
G01 X93.6824 Y61.1152
G01 X93.6919 Y61.1123
G01 X93.7041 Y61.1073
G01 X93.7157 Y61.1011
G01 X93.7267 Y61.0937
G01 X93.7369 Y61.0853
G01 X93.7440 Y61.0784
G01 X93.7919 Y61.0276
G01 X93.8020 Y61.0155
G01 X93.8074 Y61.0078
G01 X93.8122 Y60.9996
G01 X93.8437 Y60.9379
G01 X93.9703 Y60.7636
G01 X94.1226 Y60.6113
G01 X94.2968 Y60.4847
G01 X94.4887 Y60.3870
G01 X94.6936 Y60.3204
G01 X94.9063 Y60.2867
G01 X95.1217 Y60.2867
G01 X95.3344 Y60.3204
G01 X95.5392 Y60.3870
G01 X95.7311 Y60.4847
G01 X95.9054 Y60.6113
G01 X96.0577 Y60.7636
G01 X96.1843 Y60.9379
G01 X96.2821 Y61.1298
G01 X96.3486 Y61.3346
G01 X96.3823 Y61.5474
G01 X96.3823 Y62.2627
G01 X96.3755 Y62.3081
G01 X96.3737 Y62.3457
G01 X96.3742 Y62.3589
G01 X96.3759 Y62.3720
G01 X96.3799 Y62.3880
G01 X96.4089 Y62.4658
G01 X96.4147 Y62.4775
G01 X96.4216 Y62.4887
G01 X96.4296 Y62.4991
G01 X96.4386 Y62.5087
G01 X96.4511 Y62.5193
G01 X96.5124 Y62.5650
G01 X96.5207 Y62.5702
G01 X96.5325 Y62.5761
G01 X96.5416 Y62.5797
G01 X96.5510 Y62.5827
G01 X96.5638 Y62.5856
G01 X96.5735 Y62.5869
G01 X96.6465 Y62.5922
G01 X96.6563 Y62.5925
G01 X96.6694 Y62.5918
G01 X96.6824 Y62.5898
G01 X96.6951 Y62.5866
G01 X96.7074 Y62.5820
G01 X96.7193 Y62.5763
G01 X96.7833 Y62.5413
G01 X96.7964 Y62.5327
G01 X96.8061 Y62.5247
G01 X97.0706 Y62.2604
G01 X97.0778 Y62.2526
G01 X97.0987 Y62.2267
G01 X97.1061 Y62.2160
G01 X97.1109 Y62.2076
G01 X97.1151 Y62.1988
G01 X97.1196 Y62.1866
G01 X97.1419 Y62.1104
G01 X97.1447 Y62.0950
G01 X97.1456 Y62.0793
G01 X97.1456 Y49.2138
G01 X97.1446 Y49.1975
G01 X97.1424 Y49.1847
G01 X97.1211 Y49.1082
G01 X97.1165 Y49.0963
G01 X97.1108 Y49.0849
G01 X97.1040 Y49.0740
G01 X97.0982 Y49.0664
G01 X97.0873 Y49.0546
G01 X97.0311 Y49.0030
G01 X97.0181 Y48.9930
G01 X97.0040 Y48.9847
G01 X96.9889 Y48.9782
G01 X96.9732 Y48.9736
G01 X96.8914 Y48.9594
G01 X96.8783 Y48.9585
G01 X96.8619 Y48.9591
G01 X96.8489 Y48.9611
G01 X96.8331 Y48.9654
G01 X96.8239 Y48.9689
G01 X96.7536 Y48.9988
G01 X96.7393 Y49.0068
G01 X96.7261 Y49.0166
G01 X96.7142 Y49.0278
G01 X96.7038 Y49.0405
G01 X96.6625 Y49.1009
G01 X96.6558 Y49.1118
G01 X96.6502 Y49.1232
G01 X96.6467 Y49.1321
G01 X96.6267 Y49.1935
G01 X96.5432 Y49.3574
G01 X96.4351 Y49.5062
G01 X96.3013 Y49.6400
G01 X96.2927 Y49.6482
G01 X96.2646 Y49.6802
G01 X96.2567 Y49.6901
G01 X96.2483 Y49.7035
G01 X96.2440 Y49.7120
G01 X96.2404 Y49.7208
G01 X96.2374 Y49.7298
G01 X96.2160 Y49.8029
G01 X96.2133 Y49.8184
G01 X96.2123 Y49.8341
G01 X96.2123 Y50.7714
G01 X96.2129 Y50.7838
G01 X96.2141 Y50.7931
G01 X96.2160 Y50.8022
G01 X96.2295 Y50.8585
G01 X96.2330 Y50.8705
G01 X96.2389 Y50.8849
G01 X96.2821 Y50.9698
G01 X96.3486 Y51.1746
G01 X96.3823 Y51.3874
G01 X96.3823 Y52.1027
G01 X96.3486 Y52.3155
G01 X96.2821 Y52.5203
G01 X96.1843 Y52.7122
G01 X96.0577 Y52.8865
G01 X95.9054 Y53.0388
G01 X95.7311 Y53.1654
G01 X95.5392 Y53.2631
G01 X95.3344 Y53.3297
G01 X95.1217 Y53.3634
G01 X94.9063 Y53.3634
G01 X94.6936 Y53.3297
G01 X94.4887 Y53.2631
G01 X94.2968 Y53.1654
G01 X94.1226 Y53.0388
G01 X93.9703 Y52.8865
G01 X93.8437 Y52.7122
G01 X93.7359 Y52.5010
G01 X93.7269 Y52.4874
G01 X93.7163 Y52.4749
G01 X93.7092 Y52.4622
G01 X93.7040 Y52.4544
G01 X93.6982 Y52.4469
G01 X93.6919 Y52.4399
G01 X93.6803 Y52.4284
G01 X93.6723 Y52.4214
G01 X92.8442 Y51.5936
G01 X92.8181 Y51.5723
G01 X92.8104 Y51.5665
G01 X92.7993 Y51.5597
G01 X92.7877 Y51.5539
G01 X92.7725 Y51.5484
G01 X92.7054 Y51.5288
G01 X92.6901 Y51.5252
G01 X92.6776 Y51.5237
G01 X92.6682 Y51.5234
G01 X92.0680 Y51.5234
G01 X92.0550 Y51.5244
G01 X92.0390 Y51.5274
G01 X91.9657 Y51.5479
G01 X91.9537 Y51.5525
G01 X91.9395 Y51.5599
G01 X91.9263 Y51.5689
G01 X91.9166 Y51.5772
G01 X91.9098 Y51.5840
G01 X91.8604 Y51.6379
G01 X91.8523 Y51.6482
G01 X91.8452 Y51.6593
G01 X91.8407 Y51.6680
G01 X91.8368 Y51.6770
G01 X91.8326 Y51.6895
G01 X91.8303 Y51.6991
G01 X91.8169 Y51.7776
G01 X91.8159 Y51.7940
G01 X91.8169 Y51.8104
G01 X91.8200 Y51.8265
G01 X91.8251 Y51.8421
G01 X91.8535 Y51.9095
G01 X91.8592 Y51.9213
G01 X91.8679 Y51.9352
G01 X91.8783 Y51.9479
G01 X91.8902 Y51.9592
G01 X91.9006 Y51.9671
G01 X91.9610 Y52.0083
G01 X91.9692 Y52.0132
G01 X91.9777 Y52.0176
G01 X91.9921 Y52.0232
G01 X92.1590 Y52.0774
G01 X92.3509 Y52.1752
G01 X92.5251 Y52.3017
G01 X92.6773 Y52.4540
G01 X92.8039 Y52.6281
G01 X92.8471 Y52.7129
G01 X92.5731 Y52.7129
G01 X92.5131 Y52.6319
G01 X92.5049 Y52.6219
G01 X92.4345 Y52.5445
G01 X92.3571 Y52.4741
G01 X92.3471 Y52.4659
G01 X92.2630 Y52.4037
G01 X92.1677 Y52.3466
G01 X92.0671 Y52.2990
G01 X91.9688 Y52.2637
G01 X91.9564 Y52.2599
G01 X91.8548 Y52.2347
G01 X91.7514 Y52.2191
G01 X91.7385 Y52.2179
G01 X91.6340 Y52.2129
G01 X91.1340 Y52.2129
G01 X91.0295 Y52.2179
G01 X91.0166 Y52.2191
G01 X90.9131 Y52.2347
G01 X90.8056 Y52.2616
G01 X90.7007 Y52.2991
G01 X90.6061 Y52.3437
G01 X90.5946 Y52.3498
G01 X90.5105 Y52.4002
G01 X90.4997 Y52.4074
G01 X90.4157 Y52.4699
G01 X90.3334 Y52.5445
G01 X90.2588 Y52.6268
G01 X90.1948 Y52.7129
G01 X89.9209 Y52.7129
G01 X89.9641 Y52.6281
G01 X90.0906 Y52.4540
G01 X90.2429 Y52.3017
G01 X90.4171 Y52.1752
G01 X90.6089 Y52.0774
G01 X90.7759 Y52.0232
G01 X90.7850 Y52.0198
G01 X90.7940 Y52.0158
G01 X90.8081 Y52.0076
G01 X90.8687 Y51.9672
G01 X90.8810 Y51.9570
G01 X90.8877 Y51.9502
G01 X90.8940 Y51.9429
G01 X90.9014 Y51.9325
G01 X90.9093 Y51.9185
G01 X90.9397 Y51.8521
G01 X90.9445 Y51.8399
G01 X90.9488 Y51.8241
G01 X90.9509 Y51.8111
G01 X90.9516 Y51.7947
G01 X90.9507 Y51.7816
G01 X90.9392 Y51.7028
G01 X90.9370 Y51.6932
G01 X90.9340 Y51.6838
G01 X90.9276 Y51.6687
G01 X90.9193 Y51.6545
G01 X90.9115 Y51.6440
G01 X90.8614 Y51.5862
G01 X90.8546 Y51.5792
G01 X90.8472 Y51.5727
G01 X90.8393 Y51.5668
G01 X90.8282 Y51.5598
G01 X90.8164 Y51.5540
G01 X90.8072 Y51.5504
G01 X90.7279 Y51.5271
G01 X90.7124 Y51.5243
G01 X90.6999 Y51.5234
G01 X84.8384 Y51.5234
G01 X84.6707 Y51.4900
G01 X84.5127 Y51.4246
G01 X84.3704 Y51.3295
G01 X82.0666 Y49.0257
G01 X82.0598 Y49.0194
G01 X82.0527 Y49.0136
G01 X82.0044 Y48.9806
G01 X81.9929 Y48.9743
G01 X81.9778 Y48.9681
G01 X81.9652 Y48.9645
G01 X81.9555 Y48.9627
G01 X81.8767 Y48.9526
G01 X81.8610 Y48.9523
G01 X81.8485 Y48.9534
G01 X81.7217 Y48.9734
G01 X81.5063 Y48.9734
G01 X81.2936 Y48.9397
G01 X81.0887 Y48.8731
G01 X80.8968 Y48.7754
G01 X80.7226 Y48.6488
G01 X80.5703 Y48.4965
G01 X80.4486 Y48.3290
G01 X80.4389 Y48.3171
G01 X80.4324 Y48.3106
G01 X80.3991 Y48.2792
G01 X80.3917 Y48.2727
G01 X80.3839 Y48.2668
G01 X80.3756 Y48.2615
G01 X80.3670 Y48.2568
G01 X80.3580 Y48.2527
G01 X80.3456 Y48.2484
G01 X80.2755 Y48.2279
G01 X80.2602 Y48.2247
G01 X80.2445 Y48.2234
G01 X79.5835 Y48.2234
G01 X79.5744 Y48.2240
G01 X79.5622 Y48.2257
G01 X79.5140 Y48.2348
G01 X79.4982 Y48.2392
G01 X79.4891 Y48.2427
G01 X79.4802 Y48.2470
G01 X79.4662 Y48.2555
G01 X79.4031 Y48.3040
G01 X79.3915 Y48.3146
G01 X79.3852 Y48.3216
G01 X79.3794 Y48.3290
G01 X79.2577 Y48.4965
G01 X79.1054 Y48.6488
G01 X78.9311 Y48.7754
G01 X78.7392 Y48.8731
G01 X78.5344 Y48.9397
G01 X78.3217 Y48.9734
G01 X78.1063 Y48.9734
G01 X77.8936 Y48.9397
G01 X77.6887 Y48.8731
G01 X77.4968 Y48.7754
G01 X77.3226 Y48.6488
G01 X77.1703 Y48.4965
G01 X77.0437 Y48.3222
G01 X76.9459 Y48.1303
G01 X76.8793 Y47.9255
G01 X76.8456 Y47.7127
G01 X76.8456 Y46.9974
G01 X76.8793 Y46.7846
G01 X76.9459 Y46.5798
G01 X77.0437 Y46.3879
G01 X77.1703 Y46.2136
G01 X77.2731 Y46.1108
G01 X77.2801 Y46.1028
G01 X77.2967 Y46.0821
G01 X77.3061 Y46.0689
G01 X77.3138 Y46.0546
G01 X77.3196 Y46.0395
G01 X77.3403 Y45.9694
G01 X77.3438 Y45.9541
G01 X77.3450 Y45.9447
G01 X77.3456 Y45.9322
G01 X77.3456 Y44.0108
G01 X77.3449 Y43.9967
G01 X77.3416 Y43.9671
G01 X77.3400 Y43.9575
G01 X77.3377 Y43.9481
G01 X77.3347 Y43.9388
G01 X77.3310 Y43.9298
G01 X77.3266 Y43.9211
G01 X77.2900 Y43.8544
G01 X77.2810 Y43.8415
G01 X77.2728 Y43.8320
G01 X75.9993 Y42.5584
G01 X75.9888 Y42.5490
G01 X75.9630 Y42.5284
G01 X75.9522 Y42.5213
G01 X75.9407 Y42.5153
G01 X75.9317 Y42.5115
G01 X75.9225 Y42.5084
G01 X75.8554 Y42.4888
G01 X75.8463 Y42.4864
G01 X75.8339 Y42.4843
G01 X75.8182 Y42.4834
G01 X75.2469 Y42.4834
G01 X75.2363 Y42.4838
G01 X75.2069 Y42.4866
G01 X75.1904 Y42.4897
G01 X75.1779 Y42.4933
G01 X75.1629 Y42.4994
G01 X75.1308 Y42.5168
G01 X75.1010 Y42.5317
G01 X75.0901 Y42.5381
G01 X75.0800 Y42.5455
G01 X75.0674 Y42.5567
G01 X74.9654 Y42.6588
G01 X74.9282 Y42.6860
G01 X74.9157 Y42.6971
G01 X74.9063 Y42.7063
G01 X74.8978 Y42.7158
G01 X74.8921 Y42.7234
G01 X74.8880 Y42.7299
G01 X74.8775 Y42.7423
G01 X74.8720 Y42.7502
G01 X74.8656 Y42.7614
G01 X74.8591 Y42.7762
G01 X74.8561 Y42.7854
G01 X74.8539 Y42.7938
G01 X74.8484 Y42.8046
G01 X74.8446 Y42.8137
G01 X74.8415 Y42.8230
G01 X74.8384 Y42.8358
G01 X74.8366 Y42.8488
G01 X74.8361 Y42.8638
G01 X74.8344 Y42.8755
G01 X74.8337 Y42.8853
G01 X74.8340 Y42.8984
G01 X74.8361 Y42.9147
G01 X74.8384 Y42.9242
G01 X74.8420 Y42.9358
G01 X74.8428 Y42.9446
G01 X74.8443 Y42.9543
G01 X74.8465 Y42.9639
G01 X74.8493 Y42.9734
G01 X74.8557 Y42.9885
G01 X74.8603 Y42.9972
G01 X74.8649 Y43.0043
G01 X74.8697 Y43.0151
G01 X74.8762 Y43.0265
G01 X74.8818 Y43.0346
G01 X74.8902 Y43.0447
G01 X74.8995 Y43.0539
G01 X74.9088 Y43.0617
G01 X74.9162 Y43.0710
G01 X74.9247 Y43.0801
G01 X74.9366 Y43.0904
G01 X74.9654 Y43.1113
G01 X75.1177 Y43.2636
G01 X75.2443 Y43.4379
G01 X75.3421 Y43.6298
G01 X75.4086 Y43.8346
G01 X75.4423 Y44.0474
G01 X75.4423 Y44.2627
G01 X75.4086 Y44.4755
G01 X75.3421 Y44.6803
G01 X75.2443 Y44.8722
G01 X75.1177 Y45.0465
G01 X74.9654 Y45.1988
G01 X74.7930 Y45.3242
G01 X74.7816 Y45.3344
G01 X74.7437 Y45.3748
G01 X74.7376 Y45.3825
G01 X74.7304 Y45.3934
G01 X74.7257 Y45.4021
G01 X74.7205 Y45.4141
G01 X74.7174 Y45.4234
G01 X74.6977 Y45.4904
G01 X74.6947 Y45.5027
G01 X74.6929 Y45.5151
G01 X74.6923 Y45.5277
G01 X74.6923 Y48.6206
G01 X74.6590 Y48.7883
G01 X74.5935 Y48.9464
G01 X74.4985 Y49.0886
G01 X74.4881 Y49.0997
G01 X74.4686 Y49.1242
G01 X74.4627 Y49.1322
G01 X74.4575 Y49.1406
G01 X74.4529 Y49.1494
G01 X74.4489 Y49.1585
G01 X74.4457 Y49.1678
G01 X74.4261 Y49.2383
G01 X74.4238 Y49.2479
G01 X74.4216 Y49.2642
G01 X74.4212 Y49.2740
G01 X74.4216 Y49.2838
G01 X74.4233 Y49.2968
G01 X74.4262 Y49.3096
G01 X74.4478 Y49.3795
G01 X74.4536 Y49.3949
G01 X74.4613 Y49.4094
G01 X74.4667 Y49.4176
G01 X74.4727 Y49.4253
G01 X74.4840 Y49.4372
G01 X74.5476 Y49.4907
G01 X74.5585 Y49.4982
G01 X74.5702 Y49.5045
G01 X74.5824 Y49.5097
G01 X74.5950 Y49.5136
G01 X74.6080 Y49.5162
G01 X74.6715 Y49.5256
G01 X74.6848 Y49.5269
G01 X74.9217 Y49.5267
G01 X75.1344 Y49.5604
G01 X75.3392 Y49.6270
G01 X75.5311 Y49.7247
G01 X75.7054 Y49.8513
G01 X75.8577 Y50.0036
G01 X75.8767 Y50.0299
G01 X75.8838 Y50.0387
G01 X75.9021 Y50.0596
G01 X75.9091 Y50.0664
G01 X75.9167 Y50.0727
G01 X75.9246 Y50.0784
G01 X75.9330 Y50.0835
G01 X76.0036 Y50.1206
G01 X76.0157 Y50.1256
G01 X76.0251 Y50.1285
G01 X76.0347 Y50.1307
G01 X76.0477 Y50.1325
G01 X76.0575 Y50.1330
G01 X76.0674 Y50.1327
G01 X76.1403 Y50.1265
G01 X76.1533 Y50.1247
G01 X76.1660 Y50.1217
G01 X76.1815 Y50.1161
G01 X76.1932 Y50.1103
G01 X76.2044 Y50.1034
G01 X76.2650 Y50.0568
G01 X76.2768 Y50.0465
G01 X76.2833 Y50.0397
G01 X76.2893 Y50.0324
G01 X76.3103 Y50.0036
G01 X76.4626 Y49.8513
G01 X76.6368 Y49.7247
G01 X76.8287 Y49.6270
G01 X77.0336 Y49.5604
G01 X77.2463 Y49.5267
G01 X77.4617 Y49.5267
G01 X77.6744 Y49.5604
G01 X77.8792 Y49.6270
G01 X78.0711 Y49.7247
G01 X78.2454 Y49.8513
G01 X78.3977 Y50.0036
G01 X78.5243 Y50.1779
G01 X78.5675 Y50.2623
G01 X78.5776 Y50.2793
G01 X78.5831 Y50.2877
G01 X78.5891 Y50.2957
G01 X78.5981 Y50.3055
G01 X78.6081 Y50.3144
G01 X78.6625 Y50.3582
G01 X78.6701 Y50.3639
G01 X78.6808 Y50.3706
G01 X78.6898 Y50.3752
G01 X78.8325 Y50.4706
G01 X80.3303 Y51.9684
G01 X80.3422 Y51.9789
G01 X80.3552 Y51.9879
G01 X80.4141 Y52.0218
G01 X80.4289 Y52.0291
G01 X80.4413 Y52.0336
G01 X80.4541 Y52.0368
G01 X80.4672 Y52.0387
G01 X80.4804 Y52.0393
G01 X80.5567 Y52.0371
G01 X80.5723 Y52.0354
G01 X80.5876 Y52.0318
G01 X80.6536 Y52.0104
G01 X80.8663 Y51.9767
G01 X81.5817 Y51.9767
G01 X81.7944 Y52.0104
G01 X81.9992 Y52.0770
G01 X82.1911 Y52.1747
G01 X82.3654 Y52.3013
G01 X82.5177 Y52.4536
G01 X82.6443 Y52.6279
G01 X82.7421 Y52.8198
G01 X82.8086 Y53.0246
G01 X82.8423 Y53.2374
G01 X82.8423 Y53.4527
G01 X82.8086 Y53.6655
G01 X82.7421 Y53.8703
G01 X82.6443 Y54.0622
G01 X82.5177 Y54.2365
G01 X82.3654 Y54.3888
G01 X82.1911 Y54.5154
G01 X81.9992 Y54.6131
G01 X81.7944 Y54.6797
G01 X81.5817 Y54.7134
G01 X80.8663 Y54.7134
G01 X80.6536 Y54.6797
G01 X80.4487 Y54.6131
G01 X80.2568 Y54.5154
G01 X80.0826 Y54.3888
G01 X79.9303 Y54.2365
G01 X79.8037 Y54.0622
G01 X79.7059 Y53.8703
G01 X79.6900 Y53.8217
G01 X79.6866 Y53.8130
G01 X79.6826 Y53.8045
G01 X79.6780 Y53.7964
G01 X79.6461 Y53.7444
G01 X79.6389 Y53.7343
G01 X79.6328 Y53.7272
G01 X78.4576 Y52.5517
G01 X78.4464 Y52.5417
G01 X78.4174 Y52.5196
G01 X78.4093 Y52.5140
G01 X78.4009 Y52.5089
G01 X78.3861 Y52.5020
G01 X78.3737 Y52.4978
G01 X78.2929 Y52.4790
G01 X78.2799 Y52.4773
G01 X78.2668 Y52.4769
G01 X78.2537 Y52.4778
G01 X78.2407 Y52.4800
G01 X78.2250 Y52.4846
G01 X78.1592 Y52.5080
G01 X78.1447 Y52.5142
G01 X78.1364 Y52.5187
G01 X78.1285 Y52.5238
G01 X78.0711 Y52.5654
G01 X77.8792 Y52.6631
G01 X77.6744 Y52.7297
G01 X77.4617 Y52.7634
G01 X77.2463 Y52.7634
G01 X77.0336 Y52.7297
G01 X76.8287 Y52.6631
G01 X76.6368 Y52.5654
G01 X76.4626 Y52.4388
G01 X76.3103 Y52.2865
G01 X76.2912 Y52.2602
G01 X76.2842 Y52.2514
G01 X76.2659 Y52.2305
G01 X76.2588 Y52.2237
G01 X76.2513 Y52.2174
G01 X76.2434 Y52.2117
G01 X76.2322 Y52.2051
G01 X76.1703 Y52.1724
G01 X76.1553 Y52.1657
G01 X76.1428 Y52.1616
G01 X76.1268 Y52.1584
G01 X76.1104 Y52.1571
G01 X76.0973 Y52.1576
G01 X76.0277 Y52.1636
G01 X76.0115 Y52.1660
G01 X76.0019 Y52.1684
G01 X75.9895 Y52.1727
G01 X75.9776 Y52.1782
G01 X75.9663 Y52.1849
G01 X75.9583 Y52.1906
G01 X75.9030 Y52.2333
G01 X75.8911 Y52.2436
G01 X75.8846 Y52.2504
G01 X75.8786 Y52.2577
G01 X75.8577 Y52.2865
G01 X75.7054 Y52.4388
G01 X75.5311 Y52.5654
G01 X75.3392 Y52.6631
G01 X75.1344 Y52.7297
G01 X74.9217 Y52.7634
G01 X74.8477 Y52.7636
G01 X74.8111 Y52.7674
G01 X74.7951 Y52.7705
G01 X74.7828 Y52.7744
G01 X74.7679 Y52.7809
G01 X74.7010 Y52.8174
G01 X74.6930 Y52.8224
G01 X74.6854 Y52.8280
G01 X74.6736 Y52.8384
G01 X73.3111 Y54.2010
G01 X73.3046 Y54.2080
G01 X73.2949 Y54.2206
G01 X73.2684 Y54.2600
G01 X73.2631 Y54.2685
G01 X73.2585 Y54.2774
G01 X73.2558 Y54.2835
G01 X73.2523 Y54.2928
G01 X73.2496 Y54.3024
G01 X73.2476 Y54.3122
G01 X73.2467 Y54.3188
G01 X73.2387 Y54.3882
G01 X73.2379 Y54.4013
G01 X73.2383 Y54.4144
G01 X73.2401 Y54.4274
G01 X73.2431 Y54.4402
G01 X73.2474 Y54.4526
G01 X73.2514 Y54.4616
G01 X73.2853 Y54.5301
G01 X73.2904 Y54.5385
G01 X73.2961 Y54.5465
G01 X73.3024 Y54.5541
G01 X73.3092 Y54.5612
G01 X73.3191 Y54.5698
G01 X73.3298 Y54.5774
G01 X73.3981 Y54.6185
G01 X73.4070 Y54.6228
G01 X73.4161 Y54.6265
G01 X73.4287 Y54.6303
G01 X73.4383 Y54.6323
G01 X73.4481 Y54.6336
G01 X73.4612 Y54.6342
G01 X73.5343 Y54.6321
G01 X73.5499 Y54.6308
G01 X73.5592 Y54.6290
G01 X73.5683 Y54.6267
G01 X73.6186 Y54.6104
G01 X73.8313 Y54.5767
G01 X74.0467 Y54.5767
G01 X74.2594 Y54.6104
G01 X74.4642 Y54.6770
G01 X74.6561 Y54.7747
G01 X74.8304 Y54.9013
G01 X74.9827 Y55.0536
G01 X75.0017 Y55.0799
G01 X75.0088 Y55.0887
G01 X75.0271 Y55.1096
G01 X75.0341 Y55.1164
G01 X75.0417 Y55.1227
G01 X75.0496 Y55.1284
G01 X75.0580 Y55.1335
G01 X75.1227 Y55.1677
G01 X75.1316 Y55.1720
G01 X75.1407 Y55.1756
G01 X75.1533 Y55.1793
G01 X75.1662 Y55.1817
G01 X75.1793 Y55.1829
G01 X75.1957 Y55.1825
G01 X75.2653 Y55.1765
G01 X75.2783 Y55.1747
G01 X75.2910 Y55.1717
G01 X75.3034 Y55.1674
G01 X75.3153 Y55.1619
G01 X75.3266 Y55.1552
G01 X75.3347 Y55.1495
G01 X75.3900 Y55.1068
G01 X75.4018 Y55.0965
G01 X75.4083 Y55.0897
G01 X75.4143 Y55.0824
G01 X75.4353 Y55.0536
G01 X75.5876 Y54.9013
G01 X75.7618 Y54.7747
G01 X75.9537 Y54.6770
G01 X76.1586 Y54.6104
G01 X76.3713 Y54.5767
G01 X76.5867 Y54.5767
G01 X76.7994 Y54.6104
G01 X77.0042 Y54.6770
G01 X77.1961 Y54.7747
G01 X77.3704 Y54.9013
G01 X77.5227 Y55.0536
G01 X77.6444 Y55.2211
G01 X77.6541 Y55.2330
G01 X77.6606 Y55.2395
G01 X77.6987 Y55.2753
G01 X77.7118 Y55.2852
G01 X77.7260 Y55.2933
G01 X77.7350 Y55.2974
G01 X77.7442 Y55.3007
G01 X77.8144 Y55.3213
G01 X77.8266 Y55.3243
G01 X77.8422 Y55.3264
G01 X77.8516 Y55.3267
G01 X78.4145 Y55.3267
G01 X78.5823 Y55.3601
G01 X78.7403 Y55.4255
G01 X78.8825 Y55.5206
G01 X79.1636 Y55.8017
G01 X79.1714 Y55.8089
G01 X79.1948 Y55.8278
G01 X79.2053 Y55.8354
G01 X79.2201 Y55.8443
G01 X79.2289 Y55.8489
G01 X79.2412 Y55.8540
G01 X79.2540 Y55.8578
G01 X79.2826 Y55.8640
G01 X79.3136 Y55.8730
G01 X79.3291 Y55.8758
G01 X79.3448 Y55.8767
G01 X79.8046 Y55.8767
G01 X79.8152 Y55.8759
G01 X79.8448 Y55.8727
G01 X79.8575 Y55.8704
G01 X79.8669 Y55.8678
G01 X79.8791 Y55.8634
G01 X79.8908 Y55.8577
G01 X79.9548 Y55.8227
G01 X79.9680 Y55.8140
G01 X79.9753 Y55.8081
G01 X79.9822 Y55.8017
G01 X80.0826 Y55.7013
G01 X80.2568 Y55.5747
G01 X80.4487 Y55.4770
G01 X80.6536 Y55.4104
G01 X80.8663 Y55.3767
G01 X81.5817 Y55.3767
G01 X81.7944 Y55.4104
G01 X81.9992 Y55.4770
G01 X82.1911 Y55.5747
G01 X82.3654 Y55.7013
G01 X82.5177 Y55.8536
G01 X82.6443 Y56.0279
G01 X82.7421 Y56.2198
G01 X82.8086 Y56.4246
G01 X82.8423 Y56.6374
G01 X82.8423 Y56.8527
G01 X82.8086 Y57.0655
G01 X82.7421 Y57.2703
G01 X82.6443 Y57.4622
G01 X82.5177 Y57.6365
G01 X82.3654 Y57.7888
G01 X82.1911 Y57.9154
G01 X81.9992 Y58.0131
G01 X81.7944 Y58.0797
G01 X81.5817 Y58.1134
G01 X80.8663 Y58.1134
G01 X80.6536 Y58.0797
G01 X80.4487 Y58.0131
G01 X80.2568 Y57.9154
G01 X80.0826 Y57.7888
G01 X79.9797 Y57.6860
G01 X79.9717 Y57.6790
G01 X79.9510 Y57.6623
G01 X79.9432 Y57.6565
G01 X79.9294 Y57.6481
G01 X79.9206 Y57.6439
G01 X79.9115 Y57.6404
G01 X79.8322 Y57.6171
G01 X79.8168 Y57.6143
G01 X79.8011 Y57.6134
G01 X78.7934 Y57.6134
G01 X78.6257 Y57.5800
G01 X78.4677 Y57.5146
G01 X78.3254 Y57.4195
G01 X78.0443 Y57.1384
G01 X78.0338 Y57.1290
G01 X78.0131 Y57.1123
G01 X78.0054 Y57.1065
G01 X77.9972 Y57.1013
G01 X77.9886 Y57.0967
G01 X77.9797 Y57.0927
G01 X77.9706 Y57.0894
G01 X77.8943 Y57.0671
G01 X77.8789 Y57.0643
G01 X77.8663 Y57.0634
G01 X77.8485 Y57.0634
G01 X77.8390 Y57.0640
G01 X77.7946 Y57.0703
G01 X77.7848 Y57.0723
G01 X77.7784 Y57.0741
G01 X77.7602 Y57.0803
G01 X77.7481 Y57.0855
G01 X77.7339 Y57.0936
G01 X77.7259 Y57.0994
G01 X77.7068 Y57.1141
G01 X77.6864 Y57.1272
G01 X77.6784 Y57.1328
G01 X77.6683 Y57.1412
G01 X77.6613 Y57.1482
G01 X77.6549 Y57.1556
G01 X77.6463 Y57.1665
G01 X77.5227 Y57.3365
G01 X77.3704 Y57.4888
G01 X77.1961 Y57.6154
G01 X77.0042 Y57.7131
G01 X76.7994 Y57.7797
G01 X76.5867 Y57.8134
G01 X76.3713 Y57.8134
G01 X76.1586 Y57.7797
G01 X75.9537 Y57.7131
G01 X75.7618 Y57.6154
G01 X75.5876 Y57.4888
G01 X75.4353 Y57.3365
G01 X75.4139 Y57.3072
G01 X75.3909 Y57.2805
G01 X75.3789 Y57.2695
G01 X75.3656 Y57.2600
G01 X75.3572 Y57.2551
G01 X75.2894 Y57.2195
G01 X75.2741 Y57.2135
G01 X75.2615 Y57.2101
G01 X75.2452 Y57.2076
G01 X75.2288 Y57.2072
G01 X75.1527 Y57.2136
G01 X75.1397 Y57.2154
G01 X75.1269 Y57.2184
G01 X75.1115 Y57.2240
G01 X75.0997 Y57.2298
G01 X75.0859 Y57.2386
G01 X75.0255 Y57.2852
G01 X75.0161 Y57.2936
G01 X75.0076 Y57.3028
G01 X75.0018 Y57.3102
G01 X74.9827 Y57.3365
G01 X74.8304 Y57.4888
G01 X74.6561 Y57.6154
G01 X74.4642 Y57.7131
G01 X74.2594 Y57.7797
G01 X74.0467 Y57.8134
G01 X73.8313 Y57.8134
G01 X73.7162 Y57.7952
G01 X73.7071 Y57.7941
G01 X73.6918 Y57.7936
G01 X73.6395 Y57.7953
G01 X73.6265 Y57.7969
G01 X73.6169 Y57.7990
G01 X73.6043 Y57.8029
G01 X73.5952 Y57.8066
G01 X73.5864 Y57.8110
G01 X73.5251 Y57.8445
G01 X73.5144 Y57.8511
G01 X73.5043 Y57.8586
G01 X73.4950 Y57.8670
G01 X71.5425 Y59.8195
G01 X71.4003 Y59.9146
G01 X71.2423 Y59.9800
G01 X71.0745 Y60.0134
G01 X62.2275 Y60.0134
G01 X62.2178 Y60.0138
G01 X62.2049 Y60.0153
G01 X62.1543 Y60.0254
G01 X62.1417 Y60.0285
G01 X62.1295 Y60.0329
G01 X62.0157 Y60.0800
G01 X61.8479 Y60.1134
G01 X59.5200 Y60.1134
G01 X59.3523 Y60.0800
G01 X59.2385 Y60.0329
G01 X59.2294 Y60.0295
G01 X59.2137 Y60.0254
G01 X59.1662 Y60.0159
G01 X59.1566 Y60.0144
G01 X59.1404 Y60.0134
G01 X58.5284 Y60.0134
G01 X58.3607 Y59.9800
G01 X58.2027 Y59.9146
G01 X58.0604 Y59.8195
G01 X56.9395 Y58.6986
G01 X56.8445 Y58.5564
G01 X56.7790 Y58.3983
G01 X56.7456 Y58.2306
G01 X56.7456 Y55.0595
G01 X56.7790 Y54.8918
G01 X56.8445 Y54.7337
G01 X56.9395 Y54.5915
G01 X58.5204 Y53.0106
G01 X58.6627 Y52.9155
G01 X58.8207 Y52.8501
G01 X58.9884 Y52.8167
G01 X60.6682 Y52.8167
G01 X60.6886 Y52.8158
G01 X60.7012 Y52.8139
G01 X60.7167 Y52.8098
G01 X60.7885 Y52.7842
G01 X60.8028 Y52.7777
G01 X60.8109 Y52.7730
G01 X60.8188 Y52.7678
G01 X60.9316 Y52.6858
G01 X61.0955 Y52.6023
G01 X61.2704 Y52.5455
G01 X61.4520 Y52.5167
G01 X62.0359 Y52.5167
G01 X62.2176 Y52.5455
G01 X62.3925 Y52.6023
G01 X62.5563 Y52.6858
G01 X62.7051 Y52.7939
G01 X62.8351 Y52.9239
G01 X62.9432 Y53.0727
G01 X63.0267 Y53.2366
G01 X63.0836 Y53.4115
G01 X63.1123 Y53.5931
G01 X63.1123 Y53.7770
G01 X63.0836 Y53.9586
G01 X63.0267 Y54.1335
G01 X62.9432 Y54.2974
G01 X62.8351 Y54.4462
G01 X62.7051 Y54.5762
G01 X62.5563 Y54.6843
G01 X62.3925 Y54.7678
G01 X62.2176 Y54.8246
G01 X62.0359 Y54.8534
G01 X61.4520 Y54.8534
G01 X61.2704 Y54.8246
G01 X61.0955 Y54.7678
G01 X60.9316 Y54.6843
G01 X60.8188 Y54.6023
G01 X60.8072 Y54.5944
G01 X60.7962 Y54.5880
G01 X60.7846 Y54.5826
G01 X60.7726 Y54.5785
G01 X60.7024 Y54.5579
G01 X60.6932 Y54.5558
G01 X60.6808 Y54.5540
G01 X60.6682 Y54.5534
G01 X59.5327 Y54.5536
G01 X59.4993 Y54.5570
G01 X59.4896 Y54.5584
G01 X59.4770 Y54.5613
G01 X59.4647 Y54.5655
G01 X59.4501 Y54.5724
G01 X59.3887 Y54.6059
G01 X59.3806 Y54.6107
G01 X59.3704 Y54.6180
G01 X59.3586 Y54.6284
G01 X58.5525 Y55.4348
G01 X58.5273 Y55.4660
G01 X58.5202 Y55.4769
G01 X58.5142 Y55.4884
G01 X58.5083 Y55.5035
G01 X58.4868 Y55.5766
G01 X58.4837 Y55.5920
G01 X58.4827 Y55.6014
G01 X58.4823 Y55.6108
G01 X58.4824 Y57.6828
G01 X58.4831 Y57.6934
G01 X58.4868 Y57.7262
G01 X58.4894 Y57.7389
G01 X58.4933 Y57.7513
G01 X58.4970 Y57.7603
G01 X58.5013 Y57.7690
G01 X58.5348 Y57.8303
G01 X58.5396 Y57.8384
G01 X58.5469 Y57.8486
G01 X58.5573 Y57.8604
G01 X58.7535 Y58.0563
G01 X58.7613 Y58.0628
G01 X58.7696 Y58.0687
G01 X58.8210 Y58.1005
G01 X58.8324 Y58.1068
G01 X58.8475 Y58.1131
G01 X58.8632 Y58.1174
G01 X58.8793 Y58.1198
G01 X58.9556 Y58.1227
G01 X58.9654 Y58.1226
G01 X58.9753 Y58.1219
G01 X58.9850 Y58.1204
G01 X58.9946 Y58.1182
G01 X59.0071 Y58.1142
G01 X59.0220 Y58.1075
G01 X59.0906 Y58.0669
G01 X59.1014 Y58.0594
G01 X59.1089 Y58.0531
G01 X59.1160 Y58.0462
G01 X59.1225 Y58.0388
G01 X59.1303 Y58.0283
G01 X59.1371 Y58.0170
G01 X59.1699 Y57.9516
G01 X59.1739 Y57.9428
G01 X59.1782 Y57.9305
G01 X59.1819 Y57.9147
G01 X59.1835 Y57.9018
G01 X59.1837 Y57.8856
G01 X59.1760 Y57.8090
G01 X59.1743 Y57.7990
G01 X59.1721 Y57.7898
G01 X59.0993 Y57.5655
G01 X59.0656 Y57.3527
G01 X59.0656 Y57.1374
G01 X59.0993 Y56.9246
G01 X59.1659 Y56.7198
G01 X59.2637 Y56.5279
G01 X59.3903 Y56.3536
G01 X59.5426 Y56.2013
G01 X59.7168 Y56.0747
G01 X59.9087 Y55.9770
G01 X60.1136 Y55.9104
G01 X60.3263 Y55.8767
G01 X61.0417 Y55.8767
G01 X61.2544 Y55.9104
G01 X61.4592 Y55.9770
G01 X61.6511 Y56.0747
G01 X61.8254 Y56.2013
G01 X61.9283 Y56.3041
G01 X61.9363 Y56.3111
G01 X61.9569 Y56.3278
G01 X61.9647 Y56.3336
G01 X61.9729 Y56.3388
G01 X61.9815 Y56.3434
G01 X61.9903 Y56.3474
G01 X61.9995 Y56.3507
G01 X62.0727 Y56.3722
G01 X62.0849 Y56.3749
G01 X62.0943 Y56.3761
G01 X62.1069 Y56.3767
G01 X64.6277 Y56.3767
G01 X64.6399 Y56.3761
G01 X64.6490 Y56.3750
G01 X64.7003 Y56.3653
G01 X64.7129 Y56.3620
G01 X64.7222 Y56.3586
G01 X64.7311 Y56.3546
G01 X64.7398 Y56.3499
G01 X64.7481 Y56.3446
G01 X64.8087 Y56.2981
G01 X64.8183 Y56.2899
G01 X64.8270 Y56.2809
G01 X64.8330 Y56.2736
G01 X64.9203 Y56.1536
G01 X65.0726 Y56.0013
G01 X65.2400 Y55.8796
G01 X65.2473 Y55.8740
G01 X65.2584 Y55.8635
G01 X65.2942 Y55.8253
G01 X65.3041 Y55.8122
G01 X65.3122 Y55.7980
G01 X65.3163 Y55.7891
G01 X65.3196 Y55.7798
G01 X65.3411 Y55.7066
G01 X65.3443 Y55.6912
G01 X65.3456 Y55.6756
G01 X65.3456 Y55.1208
G01 X65.3452 Y55.1102
G01 X65.3416 Y55.0771
G01 X65.3400 Y55.0675
G01 X65.3377 Y55.0581
G01 X65.3323 Y55.0428
G01 X65.3266 Y55.0311
G01 X65.2916 Y54.9671
G01 X65.2866 Y54.9591
G01 X65.2810 Y54.9515
G01 X65.2706 Y54.9397
G01 X65.2568 Y54.9260
G01 X65.2488 Y54.9190
G01 X65.2281 Y54.9023
G01 X65.2204 Y54.8965
G01 X65.2122 Y54.8913
G01 X65.1970 Y54.8827
G01 X65.1848 Y54.8773
G01 X65.1722 Y54.8732
G01 X65.1403 Y54.8661
G01 X65.1124 Y54.8579
G01 X65.0970 Y54.8547
G01 X65.0876 Y54.8537
G01 X65.0782 Y54.8534
G01 X64.9520 Y54.8534
G01 X64.7704 Y54.8246
G01 X64.5955 Y54.7678
G01 X64.4316 Y54.6843
G01 X64.2829 Y54.5762
G01 X64.1528 Y54.4462
G01 X64.0447 Y54.2974
G01 X63.9612 Y54.1335
G01 X63.9044 Y53.9586
G01 X63.8756 Y53.7770
G01 X63.8756 Y53.5931
G01 X63.9044 Y53.4115
G01 X63.9612 Y53.2366
G01 X64.0447 Y53.0727
G01 X64.1528 Y52.9239
G01 X64.2829 Y52.7939
G01 X64.4316 Y52.6858
G01 X64.5955 Y52.6023
G01 X64.7704 Y52.5455
