(G-CODE GENERATED BY FLATCAM v8.994 - www.flatcam.org - Version Date: 2020/11/7)

(Name: Overdrive-B_Cu.gbr_iso_combined_cnc)
(Type: G-code from Geometry)
(Units: MM)

(Created on Wednesday, 13 May 2026 at 19:20)

(This preprocessor is the default preprocessor used by FlatCAM.)
(It is made to work with MACH3 compatible motion controllers.)

(TOOL DIAMETER: 0.4 mm)
(Feedrate_XY: 70.0 mm/min)
(Feedrate_Z: 60.0 mm/min)
(Feedrate rapids 300.0 mm/min)

(Z_Cut: -0.1 mm)
(Z_Move: 3.0 mm)
(Z Start: None mm)
(Z End: 15.0 mm)
(X,Y End: 0.0000, 0.0000 mm)
(Steps per circle: 64)
(Preprocessor Geometry: Default_no_M6)

(X range:    0.4006 ...   99.7995  mm)
(Y range:    0.4006 ...   64.7995  mm)

(Spindle Speed: 0.0 RPM)
G21
G90
G94

G01 F70.00

M5
G00 Z15.0000
G00 X0.0000 Y0.0000
T1
(MSG, Change to Tool Dia = 0.4000)
M0
G00 Z15.0000
        
M03
G01 F70.00
G00 X5.8598 Y3.5371
G01 F60.00
G01 Z-0.1000
G01 F70.00
G01 X6.0032 Y3.3088
G01 X6.1713 Y3.0980
G01 X6.3620 Y2.9073
G01 X6.5728 Y2.7392
G01 X6.8011 Y2.5958
G01 X7.0440 Y2.4788
G01 X7.2985 Y2.3897
G01 X7.5613 Y2.3297
G01 X7.8292 Y2.2995
G01 X8.0989 Y2.2996
G01 X8.3668 Y2.3297
G01 X8.6296 Y2.3897
G01 X8.8841 Y2.4788
G01 X9.1270 Y2.5958
G01 X9.3553 Y2.7392
G01 X9.5661 Y2.9073
G01 X9.7568 Y3.0980
G01 X9.9249 Y3.3088
G01 X10.0683 Y3.5371
G01 X10.1853 Y3.7800
G01 X10.2744 Y4.0345
G01 X10.3344 Y4.2973
G01 X10.3646 Y4.5652
G01 X10.3646 Y4.8349
G01 X10.3344 Y5.1028
G01 X10.2744 Y5.3656
G01 X10.1853 Y5.6201
G01 X10.0683 Y5.8630
G01 X9.9249 Y6.0913
G01 X9.7568 Y6.3021
G01 X9.5661 Y6.4928
G01 X9.3553 Y6.6609
G01 X9.1270 Y6.8043
G01 X8.8841 Y6.9213
G01 X8.6296 Y7.0104
G01 X8.3668 Y7.0704
G01 X8.0989 Y7.1006
G01 X7.8292 Y7.1006
G01 X7.5613 Y7.0704
G01 X7.2985 Y7.0104
G01 X7.0440 Y6.9213
G01 X6.8011 Y6.8043
G01 X6.5728 Y6.6609
G01 X6.3620 Y6.4928
G01 X6.1713 Y6.3021
G01 X6.0032 Y6.0913
G01 X5.8598 Y5.8630
G01 X5.7428 Y5.6201
G01 X5.6537 Y5.3656
G01 X5.5937 Y5.1028
G01 X5.5636 Y4.8349
G01 X5.5636 Y4.5652
G01 X5.5937 Y4.2973
G01 X5.6537 Y4.0345
G01 X5.7428 Y3.7800
G01 X5.8598 Y3.5371
G00 Z3.0000
G00 X5.6744 Y4.4844
G01 F60.00
G01 Z-0.1000
G01 F70.00
G01 X5.6763 Y4.4649
G01 X5.7082 Y4.2513
G01 X5.7631 Y4.0324
G01 X5.8391 Y3.8199
G01 X5.9356 Y3.6158
G01 X6.0517 Y3.4222
G01 X6.1861 Y3.2409
G01 X6.3377 Y3.0737
G01 X6.5049 Y2.9221
G01 X6.6862 Y2.7877
G01 X6.8798 Y2.6716
G01 X7.0839 Y2.5751
G01 X7.2964 Y2.4991
G01 X7.5153 Y2.4442
G01 X7.7386 Y2.4111
G01 X7.9641 Y2.4001
G01 X8.1895 Y2.4111
G01 X8.4128 Y2.4442
G01 X8.6317 Y2.4991
G01 X8.8442 Y2.5751
G01 X9.0483 Y2.6716
G01 X9.2419 Y2.7877
G01 X9.4232 Y2.9221
G01 X9.5904 Y3.0737
G01 X9.7420 Y3.2409
G01 X9.8708 Y3.4142
G01 X9.8767 Y3.4226
G01 X9.9925 Y3.6158
G01 X10.0890 Y3.8199
G01 X10.1650 Y4.0324
G01 X10.2199 Y4.2513
G01 X10.2530 Y4.4746
G01 X10.2641 Y4.7000
G01 X10.2530 Y4.9255
G01 X10.2199 Y5.1488
G01 X10.1651 Y5.3673
G01 X10.1619 Y5.3770
G01 X10.0890 Y5.5802
G01 X9.9925 Y5.7843
G01 X9.8764 Y5.9779
G01 X9.7420 Y6.1592
G01 X9.5904 Y6.3264
G01 X9.4232 Y6.4780
G01 X9.2499 Y6.6068
G01 X9.2415 Y6.6127
G01 X9.0483 Y6.7285
G01 X8.8442 Y6.8250
G01 X8.6410 Y6.8979
G01 X8.6313 Y6.9011
G01 X8.4128 Y6.9559
G01 X8.1895 Y6.9890
G01 X7.9641 Y7.0000
G01 X7.7386 Y6.9890
G01 X7.5153 Y6.9559
G01 X7.2964 Y6.9010
G01 X7.0839 Y6.8250
G01 X6.8798 Y6.7285
G01 X6.6862 Y6.6124
G01 X6.5049 Y6.4780
G01 X6.3377 Y6.3264
G01 X6.1861 Y6.1592
G01 X6.0519 Y5.9782
G01 X6.0464 Y5.9696
G01 X5.9356 Y5.7843
G01 X5.8391 Y5.5802
G01 X5.7662 Y5.3770
G01 X5.7628 Y5.3668
G01 X5.7082 Y5.1488
G01 X5.6751 Y4.9255
G01 X5.6641 Y4.7000
G01 X5.6744 Y4.4844
G00 Z3.0000
G00 X4.6542 Y10.2658
G01 F60.00
G01 Z-0.1000
G01 F70.00
G01 X4.7218 Y10.1563
G01 X4.8128 Y10.0653
G01 X4.9223 Y9.9977
G01 X5.0459 Y9.9568
G01 X5.1167 Y9.9495
G01 X7.4964 Y9.9495
G01 X7.5672 Y9.9568
G01 X7.6908 Y9.9977
G01 X7.8003 Y10.0653
G01 X7.8913 Y10.1563
G01 X7.9589 Y10.2658
G01 X7.9998 Y10.3894
G01 X8.0071 Y10.4602
G01 X8.0071 Y10.5303
G01 X8.0076 Y10.5398
G01 X8.0091 Y10.5540
G01 X8.0116 Y10.5681
G01 X8.0252 Y10.6293
G01 X8.0296 Y10.6436
G01 X8.0372 Y10.6621
G01 X8.0441 Y10.6754
G01 X8.0492 Y10.6840
G01 X8.0608 Y10.7003
G01 X8.1129 Y10.7608
G01 X8.1266 Y10.7752
G01 X8.1340 Y10.7818
G01 X8.1457 Y10.7911
G01 X8.1580 Y10.7994
G01 X8.1665 Y10.8045
G01 X8.1798 Y10.8113
G01 X8.1889 Y10.8152
G01 X8.2077 Y10.8218
G01 X8.2747 Y10.8414
G01 X8.2885 Y10.8450
G01 X8.3073 Y10.8481
G01 X8.3168 Y10.8490
G01 X8.3311 Y10.8495
G01 X10.2583 Y10.8495
G01 X10.2690 Y10.8493
G01 X10.2796 Y10.8484
G01 X10.3109 Y10.8450
G01 X10.3254 Y10.8425
G01 X10.3397 Y10.8390
G01 X10.3491 Y10.8361
G01 X10.3583 Y10.8327
G01 X10.3717 Y10.8267
G01 X10.4500 Y10.7840
G01 X10.4620 Y10.7761
G01 X10.4696 Y10.7704
G01 X10.4805 Y10.7612
G01 X10.4874 Y10.7547
G01 X12.5463 Y8.6957
G01 X12.5572 Y8.6839
G01 X12.5773 Y8.6591
G01 X12.5861 Y8.6473
G01 X12.5915 Y8.6391
G01 X12.5988 Y8.6263
G01 X12.6051 Y8.6130
G01 X12.6104 Y8.5993
G01 X12.6134 Y8.5900
G01 X12.6331 Y8.5229
G01 X12.6367 Y8.5091
G01 X12.6392 Y8.4951
G01 X12.6403 Y8.4856
G01 X12.6412 Y8.4666
G01 X12.6412 Y7.0727
G01 X12.6407 Y7.0588
G01 X12.6386 Y7.0403
G01 X12.6293 Y6.9908
G01 X12.6261 Y6.9763
G01 X12.6217 Y6.9620
G01 X12.6163 Y6.9482
G01 X12.6099 Y6.9348
G01 X12.6025 Y6.9219
G01 X12.5912 Y6.9056
G01 X12.5485 Y6.8502
G01 X12.5362 Y6.8357
G01 X12.5225 Y6.8225
G01 X12.5115 Y6.8134
G01 X12.3445 Y6.6920
G01 X12.1998 Y6.5473
G01 X12.0794 Y6.3817
G01 X11.9865 Y6.1993
G01 X11.9233 Y6.0046
G01 X11.8912 Y5.8024
G01 X11.8912 Y5.5977
G01 X11.9233 Y5.3955
G01 X11.9865 Y5.2008
G01 X12.0794 Y5.0184
G01 X12.1998 Y4.8528
G01 X12.3445 Y4.7081
G01 X12.5101 Y4.5878
G01 X12.6925 Y4.4948
G01 X12.8872 Y4.4316
G01 X13.0894 Y4.3995
G01 X13.7941 Y4.3995
G01 X13.9963 Y4.4316
G01 X14.1910 Y4.4948
G01 X14.3733 Y4.5878
G01 X14.5389 Y4.7081
G01 X14.6837 Y4.8528
G01 X14.8040 Y5.0184
G01 X14.8969 Y5.2008
G01 X14.9602 Y5.3955
G01 X14.9922 Y5.5977
G01 X14.9922 Y5.8024
G01 X14.9602 Y6.0046
G01 X14.8969 Y6.1993
G01 X14.8040 Y6.3817
G01 X14.6837 Y6.5473
G01 X14.5389 Y6.6920
G01 X14.3684 Y6.8162
G01 X14.3578 Y6.8253
G01 X14.3479 Y6.8350
G01 X14.3131 Y6.8720
G01 X14.3036 Y6.8834
G01 X14.2950 Y6.8955
G01 X14.2872 Y6.9082
G01 X14.2805 Y6.9215
G01 X14.2747 Y6.9352
G01 X14.2700 Y6.9493
G01 X14.2503 Y7.0163
G01 X14.2458 Y7.0348
G01 X14.2431 Y7.0537
G01 X14.2422 Y7.0727
G01 X14.2422 Y9.0112
G01 X14.2115 Y9.1659
G01 X14.1511 Y9.3116
G01 X14.0635 Y9.4427
G01 X11.2343 Y12.2718
G01 X11.1032 Y12.3594
G01 X10.9575 Y12.4198
G01 X10.8029 Y12.4506
G01 X8.3311 Y12.4506
G01 X8.3168 Y12.4511
G01 X8.2979 Y12.4533
G01 X8.2273 Y12.4687
G01 X8.2083 Y12.4749
G01 X8.1900 Y12.4829
G01 X8.1769 Y12.4901
G01 X8.1684 Y12.4955
G01 X8.1524 Y12.5074
G01 X8.0958 Y12.5564
G01 X8.0814 Y12.5701
G01 X8.0716 Y12.5813
G01 X8.0626 Y12.5932
G01 X8.0546 Y12.6057
G01 X8.0475 Y12.6188
G01 X8.0414 Y12.6324
G01 X8.0363 Y12.6464
G01 X8.0139 Y12.7228
G01 X8.0098 Y12.7414
G01 X8.0080 Y12.7555
G01 X8.0071 Y12.7698
G01 X8.0071 Y12.8399
G01 X7.9998 Y12.9107
G01 X7.9589 Y13.0343
G01 X7.8913 Y13.1438
G01 X7.8003 Y13.2348
G01 X7.6908 Y13.3024
G01 X7.5672 Y13.3433
G01 X7.4964 Y13.3506
G01 X5.1167 Y13.3506
G01 X5.0459 Y13.3433
G01 X4.9223 Y13.3024
G01 X4.8128 Y13.2348
G01 X4.7218 Y13.1438
G01 X4.6542 Y13.0343
G01 X4.6133 Y12.9107
G01 X4.6061 Y12.8399
G01 X4.6061 Y10.4602
G01 X4.6133 Y10.3894
G01 X4.6542 Y10.2658
G00 Z3.0000
G00 X4.9935 Y13.2193
G01 F60.00
G01 Z-0.1000
G01 F70.00
G01 X4.9754 Y13.2118
G01 X4.9488 Y13.1992
G01 X4.9401 Y13.1945
G01 X4.9065 Y13.1742
G01 X4.8749 Y13.1510
G01 X4.8673 Y13.1447
G01 X4.8455 Y13.1250
G01 X4.8316 Y13.1111
G01 X4.8087 Y13.0855
G01 X4.7852 Y13.0541
G01 X4.7797 Y13.0459
G01 X4.7645 Y13.0207
G01 X4.7553 Y13.0034
G01 X4.7408 Y12.9723
G01 X4.7274 Y12.9354
G01 X4.7246 Y12.9260
G01 X4.7173 Y12.8974
G01 X4.7143 Y12.8830
G01 X4.7087 Y12.8442
G01 X4.7068 Y12.8099
G01 X4.7066 Y10.5001
G01 X4.7080 Y10.4657
G01 X4.7093 Y10.4511
G01 X4.7143 Y10.4171
G01 X4.7173 Y10.4027
G01 X4.7246 Y10.3741
G01 X4.7290 Y10.3601
G01 X4.7408 Y10.3278
G01 X4.7574 Y10.2923
G01 X4.7645 Y10.2794
G01 X4.7824 Y10.2500
G01 X4.8087 Y10.2146
G01 X4.8384 Y10.1819
G01 X4.8673 Y10.1554
G01 X4.8788 Y10.1462
G01 X4.9025 Y10.1287
G01 X4.9107 Y10.1232
G01 X4.9359 Y10.1080
G01 X4.9532 Y10.0988
G01 X4.9798 Y10.0862
G01 X4.9889 Y10.0825
G01 X5.0259 Y10.0694
G01 X5.0688 Y10.0587
G01 X5.1124 Y10.0522
G01 X5.1467 Y10.0503
G01 X7.4565 Y10.0501
G01 X7.4958 Y10.0518
G01 X7.5104 Y10.0534
G01 X7.5443 Y10.0587
G01 X7.5777 Y10.0668
G01 X7.5919 Y10.0709
G01 X7.6288 Y10.0843
G01 X7.6643 Y10.1009
G01 X7.6772 Y10.1080
G01 X7.7066 Y10.1259
G01 X7.7343 Y10.1462
G01 X7.7458 Y10.1554
G01 X7.7747 Y10.1819
G01 X7.7980 Y10.2071
G01 X7.8075 Y10.2184
G01 X7.8307 Y10.2500
G01 X7.8486 Y10.2794
G01 X7.8557 Y10.2923
G01 X7.8704 Y10.3233
G01 X7.8758 Y10.3370
G01 X7.8857 Y10.3647
G01 X7.8885 Y10.3741
G01 X7.8958 Y10.4027
G01 X7.8988 Y10.4171
G01 X7.9032 Y10.4462
G01 X7.9051 Y10.4657
G01 X7.9066 Y10.5001
G01 X7.9066 Y10.9498
G01 X10.4340 Y10.9498
G01 X12.7415 Y8.6423
G01 X12.7415 Y6.8122
G01 X12.7235 Y6.8047
G01 X12.6261 Y6.7584
G01 X12.5333 Y6.7031
G01 X12.5170 Y6.6922
G01 X12.4305 Y6.6277
G01 X12.3503 Y6.5553
G01 X12.3364 Y6.5415
G01 X12.2641 Y6.4613
G01 X12.1996 Y6.3748
G01 X12.1887 Y6.3584
G01 X12.1334 Y6.2657
G01 X12.0871 Y6.1682
G01 X12.0795 Y6.1501
G01 X12.0434 Y6.0484
G01 X12.0169 Y5.9437
G01 X12.0131 Y5.9245
G01 X11.9975 Y5.8177
G01 X11.9917 Y5.7000
G01 X11.9975 Y5.5824
G01 X12.0148 Y5.4659
G01 X12.0434 Y5.3517
G01 X12.0830 Y5.2409
G01 X12.1334 Y5.1344
G01 X12.1887 Y5.0417
G01 X12.1967 Y5.0293
G01 X12.2581 Y4.9465
G01 X12.2705 Y4.9313
G01 X12.3432 Y4.8515
G01 X12.4230 Y4.7788
G01 X12.4382 Y4.7664
G01 X12.5250 Y4.7023
G01 X12.6261 Y4.6417
G01 X12.7325 Y4.5914
G01 X12.8348 Y4.5545
G01 X12.8528 Y4.5491
G01 X12.9576 Y4.5231
G01 X13.0644 Y4.5070
G01 X13.0839 Y4.5051
G01 X13.1819 Y4.5003
G01 X13.6917 Y4.5001
G01 X13.7996 Y4.5051
G01 X13.8191 Y4.5070
G01 X13.9258 Y4.5231
G01 X14.0401 Y4.5517
G01 X14.1418 Y4.5879
G01 X14.1599 Y4.5954
G01 X14.2574 Y4.6417
G01 X14.3584 Y4.7023
G01 X14.4453 Y4.7664
G01 X14.4604 Y4.7788
G01 X14.5403 Y4.8515
G01 X14.6162 Y4.9350
G01 X14.6254 Y4.9465
G01 X14.6895 Y5.0334
G01 X14.7500 Y5.1344
G01 X14.8004 Y5.2408
G01 X14.8370 Y5.3424
G01 X14.8402 Y5.3521
G01 X14.8687 Y5.4659
G01 X14.8859 Y5.5824
G01 X14.8917 Y5.7000
G01 X14.8867 Y5.8079
G01 X14.8854 Y5.8225
G01 X14.8687 Y5.9342
G01 X14.8427 Y6.0389
G01 X14.8370 Y6.0577
G01 X14.8004 Y6.1593
G01 X14.7544 Y6.2570
G01 X14.7452 Y6.2743
G01 X14.6895 Y6.3667
G01 X14.6254 Y6.4536
G01 X14.6129 Y6.4688
G01 X14.5403 Y6.5486
G01 X14.4604 Y6.6213
G01 X14.4453 Y6.6337
G01 X14.3584 Y6.6978
G01 X14.2659 Y6.7535
G01 X14.2486 Y6.7628
G01 X14.1599 Y6.8047
G01 X14.1420 Y6.8122
G01 X14.1419 Y8.9373
G01 X14.1386 Y9.0010
G01 X14.1302 Y9.0593
G01 X14.1264 Y9.0786
G01 X14.1118 Y9.1356
G01 X14.0922 Y9.1912
G01 X14.0867 Y9.2049
G01 X14.0637 Y9.2537
G01 X14.0545 Y9.2710
G01 X14.0267 Y9.3172
G01 X14.0183 Y9.3294
G01 X13.9830 Y9.3766
G01 X13.9369 Y9.4275
G01 X11.2192 Y12.1452
G01 X11.1720 Y12.1882
G01 X11.1605 Y12.1974
G01 X11.1211 Y12.2266
G01 X11.1048 Y12.2375
G01 X11.0541 Y12.2676
G01 X10.9920 Y12.2970
G01 X10.9273 Y12.3201
G01 X10.8702 Y12.3347
G01 X10.8510 Y12.3385
G01 X10.7976 Y12.3464
G01 X10.7829 Y12.3477
G01 X10.7241 Y12.3503
G01 X7.9066 Y12.3503
G01 X7.9066 Y12.8000
G01 X7.9051 Y12.8344
G01 X7.9032 Y12.8539
G01 X7.8988 Y12.8830
G01 X7.8958 Y12.8974
G01 X7.8872 Y12.9307
G01 X7.8724 Y12.9720
G01 X7.8534 Y13.0122
G01 X7.8334 Y13.0459
G01 X7.8251 Y13.0581
G01 X7.8044 Y13.0855
G01 X7.7815 Y13.1111
G01 X7.7712 Y13.1217
G01 X7.7420 Y13.1479
G01 X7.7106 Y13.1714
G01 X7.6983 Y13.1795
G01 X7.6687 Y13.1969
G01 X7.6377 Y13.2118
G01 X7.6242 Y13.2176
G01 X7.5872 Y13.2307
G01 X7.5539 Y13.2393
G01 X7.5395 Y13.2423
G01 X7.5007 Y13.2479
G01 X7.4565 Y13.2500
G01 X5.1566 Y13.2500
G01 X5.1124 Y13.2479
G01 X5.0688 Y13.2414
G01 X5.0259 Y13.2307
G01 X4.9935 Y13.2193
G00 Z3.0000
G00 X5.0859 Y15.9500
G01 F60.00
G01 Z-0.1000
G01 F70.00
G01 X5.1018 Y15.9010
G01 X5.1947 Y15.7187
G01 X5.3150 Y15.5532
G01 X5.4597 Y15.4085
G01 X5.6066 Y15.3017
G01 X5.6066 Y15.4267
G01 X5.5453 Y15.4724
G01 X5.4615 Y15.5481
G01 X5.4513 Y15.5586
G01 X5.3854 Y15.6313
G01 X5.3759 Y15.6426
G01 X5.3088 Y15.7334
G01 X5.2531 Y15.8258
G01 X5.2438 Y15.8431
G01 X5.2019 Y15.9319
G01 X5.1943 Y15.9500
G01 X5.0859 Y15.9500
G00 Z3.0000
G00 X5.0859 Y17.3500
G01 F60.00
G01 Z-0.1000
G01 F70.00
G01 X5.1943 Y17.3500
G01 X5.2019 Y17.3682
G01 X5.2438 Y17.4570
G01 X5.2531 Y17.4743
G01 X5.3088 Y17.5667
G01 X5.3759 Y17.6575
G01 X5.3854 Y17.6688
G01 X5.4513 Y17.7415
G01 X5.4615 Y17.7520
G01 X5.5453 Y17.8277
G01 X5.6066 Y17.8734
G01 X5.6066 Y17.9984
G01 X5.4597 Y17.8916
G01 X5.3150 Y17.7469
G01 X5.1947 Y17.5814
G01 X5.1018 Y17.3991
G01 X5.0859 Y17.3500
G00 Z3.0000
G00 X7.0066 Y17.9984
G01 F60.00
G01 Z-0.1000
G01 F70.00
G01 X7.0066 Y17.8734
G01 X7.0678 Y17.8277
G01 X7.1516 Y17.7520
G01 X7.1618 Y17.7415
G01 X7.2278 Y17.6688
G01 X7.2372 Y17.6575
G01 X7.3043 Y17.5667
G01 X7.3600 Y17.4743
G01 X7.3693 Y17.4570
G01 X7.4112 Y17.3682
G01 X7.4188 Y17.3500
G01 X7.5272 Y17.3500
G01 X7.5113 Y17.3991
G01 X7.4184 Y17.5814
G01 X7.2981 Y17.7469
G01 X7.1534 Y17.8916
G01 X7.0066 Y17.9984
G00 Z3.0000
G00 X7.0066 Y15.3017
G01 F60.00
G01 Z-0.1000
G01 F70.00
G01 X7.1534 Y15.4085
G01 X7.2981 Y15.5532
G01 X7.4184 Y15.7187
G01 X7.5113 Y15.9010
G01 X7.5272 Y15.9500
G01 X7.4188 Y15.9500
G01 X7.4112 Y15.9319
G01 X7.3693 Y15.8431
G01 X7.3600 Y15.8258
G01 X7.3043 Y15.7334
G01 X7.2372 Y15.6426
G01 X7.2278 Y15.6313
G01 X7.1618 Y15.5586
G01 X7.1516 Y15.5481
G01 X7.0678 Y15.4724
G01 X7.0066 Y15.4267
G01 X7.0066 Y15.3017
G00 Z3.0000
G00 X12.8118 Y15.8184
G01 F60.00
G01 Z-0.1000
G01 F70.00
G01 X12.9321 Y15.6528
G01 X13.0768 Y15.5081
G01 X13.2424 Y15.3878
G01 X13.4248 Y15.2948
G01 X13.6195 Y15.2316
G01 X13.8217 Y15.1995
G01 X14.5264 Y15.1995
G01 X14.7286 Y15.2316
G01 X14.9233 Y15.2948
G01 X15.1057 Y15.3878
G01 X15.2713 Y15.5081
G01 X15.4160 Y15.6528
G01 X15.5363 Y15.8184
G01 X15.6293 Y16.0008
G01 X15.6925 Y16.1955
G01 X15.7246 Y16.3977
G01 X15.7246 Y16.6024
G01 X15.7072 Y16.7122
G01 X15.7055 Y16.7260
G01 X15.7047 Y16.7399
G01 X15.7048 Y16.7492
G01 X15.7061 Y16.7950
G01 X15.7071 Y16.8098
G01 X15.7091 Y16.8245
G01 X15.7123 Y16.8391
G01 X15.7166 Y16.8533
G01 X15.7218 Y16.8672
G01 X15.7305 Y16.8851
G01 X15.7640 Y16.9464
G01 X15.7712 Y16.9587
G01 X15.7794 Y16.9704
G01 X15.7883 Y16.9815
G01 X15.7981 Y16.9920
G01 X16.5758 Y17.7698
G01 X16.6634 Y17.9009
G01 X16.7238 Y18.0466
G01 X16.7546 Y18.2012
G01 X16.7546 Y20.9274
G01 X16.7554 Y20.9460
G01 X16.7572 Y20.9598
G01 X16.7685 Y21.0190
G01 X16.7741 Y21.0381
G01 X16.7815 Y21.0564
G01 X16.7907 Y21.0740
G01 X16.7988 Y21.0865
G01 X16.8473 Y21.1499
G01 X16.8564 Y21.1609
G01 X16.8663 Y21.1712
G01 X16.8769 Y21.1807
G01 X16.8843 Y21.1867
G01 X17.0513 Y21.3081
G01 X17.1960 Y21.4528
G01 X17.3163 Y21.6184
G01 X17.4093 Y21.8008
G01 X17.4725 Y21.9955
G01 X17.5046 Y22.1977
G01 X17.5046 Y22.4024
G01 X17.4865 Y22.5168
G01 X17.4851 Y22.5306
G01 X17.4847 Y22.5446
G01 X17.4863 Y22.5999
G01 X17.4876 Y22.6147
G01 X17.4891 Y22.6245
G01 X17.4923 Y22.6391
G01 X17.4966 Y22.6533
G01 X17.5018 Y22.6672
G01 X17.5081 Y22.6807
G01 X17.5487 Y22.7547
G01 X17.5594 Y22.7704
G01 X17.5653 Y22.7779
G01 X17.5747 Y22.7886
G01 X18.1089 Y23.3227
G01 X18.1274 Y23.3392
G01 X18.1389 Y23.3483
G01 X18.1510 Y23.3565
G01 X18.1637 Y23.3638
G01 X18.1815 Y23.3720
G01 X18.2463 Y23.3983
G01 X18.2556 Y23.4018
G01 X18.2698 Y23.4062
G01 X18.2893 Y23.4104
G01 X18.3040 Y23.4122
G01 X18.3189 Y23.4130
G01 X18.3388 Y23.4123
G01 X18.3584 Y23.4096
G01 X18.4271 Y23.3967
G01 X18.4410 Y23.3935
G01 X18.4592 Y23.3878
G01 X18.4767 Y23.3804
G01 X18.6448 Y23.2948
G01 X18.8395 Y23.2316
G01 X19.0417 Y23.1995
G01 X19.7464 Y23.1995
G01 X19.9486 Y23.2316
G01 X20.1433 Y23.2948
G01 X20.3257 Y23.3878
G01 X20.4913 Y23.5081
G01 X20.6360 Y23.6528
G01 X20.7563 Y23.8184
G01 X20.8493 Y24.0008
G01 X20.9125 Y24.1955
G01 X20.9446 Y24.3977
G01 X20.9446 Y24.6024
G01 X20.9125 Y24.8046
G01 X20.8493 Y24.9993
G01 X20.7563 Y25.1817
G01 X20.6360 Y25.3473
G01 X20.4913 Y25.4920
G01 X20.3257 Y25.6123
G01 X20.1433 Y25.7053
G01 X19.9486 Y25.7685
G01 X19.7464 Y25.8006
G01 X19.0417 Y25.8006
G01 X18.8395 Y25.7685
G01 X18.6448 Y25.7053
G01 X18.4624 Y25.6123
G01 X18.2968 Y25.4920
G01 X18.1760 Y25.3713
G01 X18.1649 Y25.3617
G01 X18.1571 Y25.3558
G01 X18.1407 Y25.3450
G01 X18.0701 Y25.3078
G01 X18.0616 Y25.3036
G01 X18.0485 Y25.2981
G01 X18.0349 Y25.2935
G01 X18.0211 Y25.2899
G01 X17.9206 Y25.2698
G01 X17.7749 Y25.2094
G01 X17.6438 Y25.1218
G01 X16.2174 Y23.6954
G01 X16.2096 Y23.6881
G01 X16.2014 Y23.6811
G01 X16.1769 Y23.6615
G01 X16.1649 Y23.6530
G01 X16.1523 Y23.6453
G01 X16.1436 Y23.6408
G01 X16.1302 Y23.6348
G01 X16.1163 Y23.6298
G01 X16.0400 Y23.6074
G01 X16.0214 Y23.6033
G01 X16.0073 Y23.6015
G01 X15.9883 Y23.6006
G01 X15.6017 Y23.6006
G01 X15.3995 Y23.5685
G01 X15.2048 Y23.5053
G01 X15.0224 Y23.4123
G01 X14.8568 Y23.2920
G01 X14.7121 Y23.1473
G01 X14.5918 Y22.9817
G01 X14.4988 Y22.7993
G01 X14.4356 Y22.6046
G01 X14.4036 Y22.4024
G01 X14.4036 Y22.1977
G01 X14.4356 Y21.9955
G01 X14.4988 Y21.8008
G01 X14.5918 Y21.6184
G01 X14.7121 Y21.4528
G01 X14.8568 Y21.3081
G01 X15.0274 Y21.1839
G01 X15.0379 Y21.1748
G01 X15.0446 Y21.1684
G01 X15.0859 Y21.1244
G01 X15.0951 Y21.1127
G01 X15.1035 Y21.1004
G01 X15.1131 Y21.0831
G01 X15.1192 Y21.0695
G01 X15.1258 Y21.0508
G01 X15.1454 Y20.9838
G01 X15.1490 Y20.9699
G01 X15.1521 Y20.9512
G01 X15.1533 Y20.9369
G01 X15.1536 Y20.9274
G01 X15.1536 Y18.7458
G01 X15.1529 Y18.7298
G01 X15.1490 Y18.6932
G01 X15.1465 Y18.6787
G01 X15.1443 Y18.6691
G01 X15.1384 Y18.6504
G01 X15.1307 Y18.6324
G01 X15.0928 Y18.5623
G01 X15.0855 Y18.5500
G01 X15.0773 Y18.5383
G01 X15.0684 Y18.5272
G01 X15.0620 Y18.5201
G01 X14.4374 Y17.8954
G01 X14.4256 Y17.8846
G01 X14.3969 Y17.8615
G01 X14.3849 Y17.8530
G01 X14.3766 Y17.8478
G01 X14.3592 Y17.8387
G01 X14.3456 Y17.8330
G01 X14.3363 Y17.8298
G01 X14.2600 Y17.8074
G01 X14.2414 Y17.8033
G01 X14.2273 Y17.8015
G01 X14.2083 Y17.8006
G01 X13.8217 Y17.8006
G01 X13.6195 Y17.7685
G01 X13.4248 Y17.7053
G01 X13.2424 Y17.6123
G01 X13.0768 Y17.4920
G01 X12.9321 Y17.3473
G01 X12.8118 Y17.1817
G01 X12.7188 Y16.9993
G01 X12.6556 Y16.8046
G01 X12.6236 Y16.6024
G01 X12.6236 Y16.3977
G01 X12.6556 Y16.1955
G01 X12.7188 Y16.0008
G01 X12.8118 Y15.8184
G00 Z3.0000
G00 X12.8119 Y16.0500
G01 F60.00
G01 Z-0.1000
G01 F70.00
G01 X12.8194 Y16.0319
G01 X12.8657 Y15.9344
G01 X12.9210 Y15.8417
G01 X12.9319 Y15.8253
G01 X12.9964 Y15.7388
G01 X13.0688 Y15.6586
G01 X13.0826 Y15.6448
G01 X13.1553 Y15.5788
G01 X13.1705 Y15.5664
G01 X13.2574 Y15.5023
G01 X13.3498 Y15.4466
G01 X13.3671 Y15.4373
G01 X13.4648 Y15.3914
G01 X13.5672 Y15.3545
G01 X13.5852 Y15.3491
G01 X13.6899 Y15.3231
G01 X13.8016 Y15.3064
G01 X13.8162 Y15.3051
G01 X13.9241 Y15.3001
G01 X14.4339 Y15.3003
G01 X14.5417 Y15.3058
G01 X14.6485 Y15.3214
G01 X14.6677 Y15.3253
G01 X14.7677 Y15.3504
G01 X14.7817 Y15.3548
G01 X14.8741 Y15.3879
G01 X14.8922 Y15.3954
G01 X14.9897 Y15.4417
G01 X15.0907 Y15.5023
G01 X15.1853 Y15.5724
G01 X15.2655 Y15.6448
G01 X15.2793 Y15.6586
G01 X15.3517 Y15.7388
G01 X15.4162 Y15.8253
G01 X15.4271 Y15.8417
G01 X15.4824 Y15.9344
G01 X15.5287 Y16.0319
G01 X15.5362 Y16.0500
G01 X15.5725 Y16.1521
G01 X15.5988 Y16.2564
G01 X15.6019 Y16.2708
G01 X15.6171 Y16.3727
G01 X15.6190 Y16.3922
G01 X15.6241 Y16.5000
G01 X15.6187 Y16.6128
G01 X15.6171 Y16.6274
G01 X15.6027 Y16.7245
G01 X15.6000 Y16.7390
G01 X15.5737 Y16.8437
G01 X15.5693 Y16.8577
G01 X15.5568 Y16.8925
G01 X16.4492 Y17.7849
G01 X16.4889 Y17.8284
G01 X16.5014 Y17.8436
G01 X16.5363 Y17.8910
G01 X16.5716 Y17.9500
G01 X16.6010 Y18.0121
G01 X16.6211 Y18.0675
G01 X16.6255 Y18.0815
G01 X16.6408 Y18.1434
G01 X16.6497 Y18.2017
G01 X16.6517 Y18.2212
G01 X16.6543 Y18.2800
G01 X16.6543 Y21.1879
G01 X16.6722 Y21.1954
G01 X16.7697 Y21.2417
G01 X16.8707 Y21.3023
G01 X16.9653 Y21.3724
G01 X17.0526 Y21.4515
G01 X17.1317 Y21.5388
G01 X17.2018 Y21.6334
G01 X17.2624 Y21.7344
G01 X17.3108 Y21.8363
G01 X17.3162 Y21.8500
G01 X17.3524 Y21.9517
G01 X17.3810 Y22.0659
G01 X17.3983 Y22.1824
G01 X17.4040 Y22.2951
G01 X17.4038 Y22.3099
G01 X17.3983 Y22.4177
G01 X17.3819 Y22.5293
G01 X17.3788 Y22.5437
G01 X17.3537 Y22.6437
G01 X17.3493 Y22.6577
G01 X17.3368 Y22.6925
G01 X18.2957 Y23.6514
G01 X18.3828 Y23.5724
G01 X18.4774 Y23.5023
G01 X18.5784 Y23.4417
G01 X18.6848 Y23.3914
G01 X18.7864 Y23.3548
G01 X18.7961 Y23.3516
G01 X18.9099 Y23.3231
G01 X19.0264 Y23.3058
G01 X19.1391 Y23.3001
G01 X19.6490 Y23.3001
G01 X19.7617 Y23.3058
G01 X19.8685 Y23.3214
G01 X19.8830 Y23.3241
G01 X19.9829 Y23.3491
G01 X20.0017 Y23.3548
G01 X20.1032 Y23.3914
G01 X20.2010 Y23.4373
G01 X20.2183 Y23.4466
G01 X20.3107 Y23.5023
G01 X20.3976 Y23.5664
G01 X20.4128 Y23.5788
G01 X20.4926 Y23.6515
G01 X20.5653 Y23.7313
G01 X20.5777 Y23.7465
G01 X20.6362 Y23.8253
G01 X20.6471 Y23.8417
G01 X20.7024 Y23.9344
G01 X20.7487 Y24.0319
G01 X20.7562 Y24.0500
G01 X20.7925 Y24.1521
G01 X20.8210 Y24.2659
G01 X20.8383 Y24.3824
G01 X20.8441 Y24.5000
G01 X20.8383 Y24.6177
G01 X20.8210 Y24.7342
G01 X20.7924 Y24.8484
G01 X20.7562 Y24.9501
G01 X20.7487 Y24.9682
G01 X20.7024 Y25.0657
G01 X20.6471 Y25.1584
G01 X20.6362 Y25.1748
G01 X20.5777 Y25.2536
G01 X20.5653 Y25.2688
G01 X20.4926 Y25.3486
G01 X20.4053 Y25.4277
G01 X20.3188 Y25.4922
G01 X20.3024 Y25.5031
G01 X20.2097 Y25.5584
G01 X20.1033 Y25.6087
G01 X20.0017 Y25.6453
G01 X19.9829 Y25.6510
G01 X19.8782 Y25.6770
G01 X19.7617 Y25.6943
G01 X19.6441 Y25.7000
G01 X19.1441 Y25.7000
G01 X19.0313 Y25.6947
G01 X19.0167 Y25.6931
G01 X18.9196 Y25.6787
G01 X18.9004 Y25.6748
G01 X18.7957 Y25.6484
G01 X18.6848 Y25.6087
G01 X18.5871 Y25.5628
G01 X18.5698 Y25.5535
G01 X18.4774 Y25.4978
G01 X18.3866 Y25.4307
G01 X18.3753 Y25.4213
G01 X18.3026 Y25.3553
G01 X18.2921 Y25.3451
G01 X18.2164 Y25.2613
G01 X18.1709 Y25.2003
G01 X18.1442 Y25.2001
G01 X18.0903 Y25.1973
G01 X18.0757 Y25.1957
G01 X18.0271 Y25.1885
G01 X18.0126 Y25.1858
G01 X17.9602 Y25.1728
G01 X17.9415 Y25.1671
G01 X17.8861 Y25.1470
G01 X17.8240 Y25.1176
G01 X17.7650 Y25.0823
G01 X17.7098 Y25.0414
G01 X17.6589 Y24.9952
G01 X16.1637 Y23.5000
G01 X15.7041 Y23.5000
G01 X15.5913 Y23.4947
G01 X15.5767 Y23.4931
G01 X15.4699 Y23.4770
G01 X15.3557 Y23.4484
G01 X15.2540 Y23.4122
G01 X15.2359 Y23.4047
G01 X15.1384 Y23.3584
G01 X15.0374 Y23.2978
G01 X14.9428 Y23.2277
G01 X14.8626 Y23.1553
G01 X14.8488 Y23.1415
G01 X14.7764 Y23.0613
G01 X14.7063 Y22.9667
G01 X14.6457 Y22.8657
G01 X14.5954 Y22.7593
G01 X14.5557 Y22.6484
G01 X14.5271 Y22.5342
G01 X14.5098 Y22.4177
G01 X14.5041 Y22.3000
G01 X14.5098 Y22.1824
G01 X14.5254 Y22.0756
G01 X14.5293 Y22.0564
G01 X14.5557 Y21.9517
G01 X14.5954 Y21.8409
G01 X14.6413 Y21.7431
G01 X14.6506 Y21.7258
G01 X14.7063 Y21.6334
G01 X14.7704 Y21.5465
G01 X14.7829 Y21.5313
G01 X14.8555 Y21.4515
G01 X14.9353 Y21.3788
G01 X14.9505 Y21.3664
G01 X15.0374 Y21.3023
G01 X15.1298 Y21.2466
G01 X15.1471 Y21.2373
G01 X15.2359 Y21.1954
G01 X15.2538 Y21.1879
G01 X15.2538 Y18.5701
G01 X14.3837 Y17.7000
G01 X13.9241 Y17.7000
G01 X13.8113 Y17.6947
G01 X13.7967 Y17.6931
G01 X13.6899 Y17.6770
G01 X13.5804 Y17.6497
G01 X13.5664 Y17.6453
G01 X13.4648 Y17.6087
G01 X13.3671 Y17.5628
G01 X13.3498 Y17.5535
G01 X13.2574 Y17.4978
G01 X13.1705 Y17.4337
G01 X13.1553 Y17.4213
G01 X13.0826 Y17.3553
G01 X13.0721 Y17.3451
G01 X12.9964 Y17.2613
G01 X12.9319 Y17.1748
G01 X12.9210 Y17.1584
G01 X12.8657 Y17.0657
G01 X12.8154 Y16.9593
G01 X12.7788 Y16.8577
G01 X12.7731 Y16.8389
G01 X12.7471 Y16.7342
G01 X12.7310 Y16.6274
G01 X12.7291 Y16.6079
G01 X12.7241 Y16.5000
G01 X12.7298 Y16.3824
G01 X12.7454 Y16.2756
G01 X12.7493 Y16.2564
G01 X12.7757 Y16.1517
G01 X12.8119 Y16.0500
G00 Z3.0000
G00 X17.8257 Y15.8000
G01 F60.00
G01 Z-0.1000
G01 F70.00
G01 X17.9325 Y15.6532
G01 X18.0772 Y15.5085
G01 X18.2427 Y15.3882
G01 X18.4250 Y15.2953
G01 X18.4741 Y15.2794
G01 X18.4741 Y15.3878
G01 X18.4559 Y15.3954
G01 X18.3671 Y15.4373
G01 X18.3498 Y15.4466
G01 X18.2574 Y15.5023
G01 X18.1666 Y15.5694
G01 X18.1553 Y15.5788
G01 X18.0826 Y15.6448
G01 X18.0721 Y15.6550
G01 X17.9964 Y15.7388
G01 X17.9507 Y15.8001
G01 X17.8257 Y15.8000
G00 Z3.0000
G00 X17.8257 Y17.2000
G01 F60.00
G01 Z-0.1000
G01 F70.00
G01 X17.9507 Y17.2000
G01 X17.9964 Y17.2613
G01 X18.0721 Y17.3451
G01 X18.0826 Y17.3553
G01 X18.1553 Y17.4213
G01 X18.1666 Y17.4307
G01 X18.2574 Y17.4978
G01 X18.3498 Y17.5535
G01 X18.3671 Y17.5628
G01 X18.4559 Y17.6047
G01 X18.4741 Y17.6123
G01 X18.4741 Y17.7207
G01 X18.4250 Y17.7048
G01 X18.2427 Y17.6119
G01 X18.0772 Y17.4916
G01 X17.9325 Y17.3469
G01 X17.8257 Y17.2000
G00 Z3.0000
G00 X19.8741 Y17.7207
G01 F60.00
G01 Z-0.1000
G01 F70.00
G01 X19.8741 Y17.6123
G01 X19.8922 Y17.6047
G01 X19.9810 Y17.5628
G01 X19.9983 Y17.5535
G01 X20.0907 Y17.4978
G01 X20.1815 Y17.4307
G01 X20.1928 Y17.4213
G01 X20.2655 Y17.3553
G01 X20.2760 Y17.3451
G01 X20.3517 Y17.2613
G01 X20.3974 Y17.2001
G01 X20.5224 Y17.2001
G01 X20.4156 Y17.3469
G01 X20.2709 Y17.4916
G01 X20.1054 Y17.6119
G01 X19.9231 Y17.7048
G01 X19.8741 Y17.7207
G00 Z3.0000
G00 X19.8741 Y15.3879
G01 F60.00
G01 Z-0.1000
G01 F70.00
G01 X19.8741 Y15.2794
G01 X19.9231 Y15.2953
G01 X20.1054 Y15.3882
G01 X20.2709 Y15.5085
G01 X20.4156 Y15.6532
G01 X20.5224 Y15.8001
G01 X20.3974 Y15.8000
G01 X20.3517 Y15.7388
G01 X20.2760 Y15.6550
G01 X20.2655 Y15.6448
G01 X20.1928 Y15.5788
G01 X20.1815 Y15.5694
G01 X20.0907 Y15.5023
G01 X19.9983 Y15.4466
G01 X19.9810 Y15.4373
G01 X19.8922 Y15.3954
G01 X19.8741 Y15.3879
G00 Z3.0000
G00 X23.2141 Y12.7207
G01 F60.00
G01 Z-0.1000
G01 F70.00
G01 X23.2141 Y12.6123
G01 X23.2322 Y12.6047
G01 X23.3210 Y12.5628
G01 X23.3383 Y12.5535
G01 X23.4307 Y12.4978
G01 X23.5215 Y12.4307
G01 X23.5328 Y12.4213
G01 X23.6055 Y12.3553
G01 X23.6160 Y12.3451
G01 X23.6917 Y12.2613
G01 X23.7374 Y12.2001
G01 X23.8624 Y12.2001
G01 X23.7556 Y12.3469
G01 X23.6109 Y12.4916
G01 X23.4454 Y12.6119
G01 X23.2631 Y12.7048
G01 X23.2141 Y12.7207
G00 Z3.0000
G00 X23.2141 Y10.3878
G01 F60.00
G01 Z-0.1000
G01 F70.00
G01 X23.2141 Y10.2794
G01 X23.2631 Y10.2953
G01 X23.4454 Y10.3882
G01 X23.6109 Y10.5085
G01 X23.7556 Y10.6532
G01 X23.8624 Y10.8001
G01 X23.7374 Y10.8000
G01 X23.6917 Y10.7388
G01 X23.6160 Y10.6550
G01 X23.6055 Y10.6448
G01 X23.5328 Y10.5788
G01 X23.5215 Y10.5694
G01 X23.4307 Y10.5023
G01 X23.3383 Y10.4466
G01 X23.3210 Y10.4373
G01 X23.2322 Y10.3954
G01 X23.2141 Y10.3878
G00 Z3.0000
G00 X21.1657 Y10.8000
G01 F60.00
G01 Z-0.1000
G01 F70.00
G01 X21.2725 Y10.6532
G01 X21.4172 Y10.5085
G01 X21.5827 Y10.3882
G01 X21.7650 Y10.2953
G01 X21.8141 Y10.2794
G01 X21.8141 Y10.3878
G01 X21.7959 Y10.3954
G01 X21.7071 Y10.4373
G01 X21.6898 Y10.4466
G01 X21.5974 Y10.5023
G01 X21.5066 Y10.5694
G01 X21.4953 Y10.5788
G01 X21.4226 Y10.6448
G01 X21.4121 Y10.6550
G01 X21.3364 Y10.7388
G01 X21.2907 Y10.8001
G01 X21.1657 Y10.8000
G00 Z3.0000
G00 X21.1388 Y8.3993
G01 F60.00
G01 Z-0.1000
G01 F70.00
G01 X21.0756 Y8.2046
G01 X21.0436 Y8.0024
G01 X21.0436 Y7.7977
G01 X21.0756 Y7.5955
G01 X21.1388 Y7.4008
G01 X21.2318 Y7.2184
G01 X21.3521 Y7.0528
G01 X21.4968 Y6.9081
G01 X21.6624 Y6.7878
G01 X21.8448 Y6.6948
G01 X22.0395 Y6.6316
G01 X22.2417 Y6.5995
G01 X22.9464 Y6.5995
G01 X23.1486 Y6.6316
G01 X23.3433 Y6.6948
G01 X23.5257 Y6.7878
G01 X23.6913 Y6.9081
G01 X23.8360 Y7.0528
G01 X23.9563 Y7.2184
G01 X24.0493 Y7.4008
G01 X24.1125 Y7.5955
G01 X24.1446 Y7.7977
G01 X24.1446 Y8.0024
G01 X24.1125 Y8.2046
G01 X24.0493 Y8.3993
G01 X23.9563 Y8.5817
G01 X23.8360 Y8.7473
G01 X23.6913 Y8.8920
G01 X23.5257 Y9.0123
G01 X23.3433 Y9.1053
G01 X23.1486 Y9.1685
G01 X22.9464 Y9.2006
G01 X22.2417 Y9.2006
G01 X22.0395 Y9.1685
G01 X21.8448 Y9.1053
G01 X21.6624 Y9.0123
G01 X21.4968 Y8.8920
G01 X21.3521 Y8.7473
G01 X21.2318 Y8.5817
G01 X21.1388 Y8.3993
G00 Z3.0000
G00 X21.1988 Y8.2577
G01 F60.00
G01 Z-0.1000
G01 F70.00
G01 X21.1931 Y8.2389
G01 X21.1671 Y8.1342
G01 X21.1498 Y8.0177
G01 X21.1441 Y7.9000
G01 X21.1498 Y7.7824
G01 X21.1671 Y7.6659
G01 X21.1957 Y7.5517
G01 X21.2354 Y7.4409
G01 X21.2813 Y7.3431
G01 X21.2906 Y7.3258
G01 X21.3410 Y7.2417
G01 X21.3519 Y7.2253
G01 X21.4164 Y7.1388
G01 X21.4888 Y7.0586
G01 X21.5026 Y7.0448
G01 X21.5828 Y6.9724
G01 X21.6693 Y6.9079
G01 X21.6857 Y6.8970
G01 X21.7784 Y6.8417
G01 X21.8848 Y6.7914
G01 X21.9864 Y6.7548
G01 X21.9961 Y6.7516
G01 X22.1099 Y6.7231
G01 X22.2264 Y6.7058
G01 X22.3391 Y6.7001
G01 X22.8441 Y6.7001
G01 X22.9617 Y6.7058
G01 X23.0782 Y6.7231
G01 X23.1924 Y6.7517
G01 X23.3032 Y6.7914
G01 X23.4054 Y6.8395
G01 X23.4183 Y6.8466
G01 X23.5107 Y6.9023
G01 X23.6053 Y6.9724
G01 X23.6926 Y7.0515
G01 X23.7653 Y7.1313
G01 X23.7777 Y7.1465
G01 X23.8362 Y7.2253
G01 X23.8471 Y7.2417
G01 X23.9024 Y7.3344
G01 X23.9487 Y7.4319
G01 X23.9562 Y7.4500
G01 X23.9925 Y7.5521
G01 X24.0210 Y7.6659
G01 X24.0383 Y7.7824
G01 X24.0441 Y7.9000
G01 X24.0383 Y8.0177
G01 X24.0210 Y8.1342
G01 X23.9924 Y8.2484
G01 X23.9527 Y8.3593
G01 X23.9024 Y8.4657
G01 X23.8418 Y8.5667
G01 X23.7717 Y8.6613
G01 X23.6926 Y8.7486
G01 X23.6053 Y8.8277
G01 X23.5107 Y8.8978
G01 X23.4097 Y8.9584
G01 X23.3033 Y9.0087
G01 X23.1924 Y9.0484
G01 X23.0782 Y9.0770
G01 X22.9617 Y9.0943
G01 X22.8490 Y9.1000
G01 X22.3441 Y9.1000
G01 X22.2362 Y9.0950
G01 X22.2167 Y9.0931
G01 X22.1196 Y9.0787
G01 X22.1004 Y9.0748
G01 X21.9957 Y9.0484
G01 X21.8940 Y9.0122
G01 X21.8803 Y9.0068
G01 X21.7784 Y8.9584
G01 X21.6774 Y8.8978
G01 X21.5828 Y8.8277
G01 X21.5026 Y8.7553
G01 X21.4888 Y8.7415
G01 X21.4164 Y8.6613
G01 X21.3519 Y8.5748
G01 X21.3410 Y8.5584
G01 X21.2906 Y8.4743
G01 X21.2813 Y8.4570
G01 X21.2354 Y8.3593
G01 X21.1988 Y8.2577
G00 Z3.0000
G00 X21.2457 Y5.0000
G01 F60.00
G01 Z-0.1000
G01 F70.00
G01 X21.3707 Y5.0000
G01 X21.4164 Y5.0613
G01 X21.4921 Y5.1451
G01 X21.5026 Y5.1553
G01 X21.5753 Y5.2213
G01 X21.5866 Y5.2307
G01 X21.6774 Y5.2978
G01 X21.7698 Y5.3535
G01 X21.7871 Y5.3628
G01 X21.8759 Y5.4047
G01 X21.8941 Y5.4123
G01 X21.8941 Y5.5207
G01 X21.8450 Y5.5048
G01 X21.6627 Y5.4119
G01 X21.4972 Y5.2916
G01 X21.3525 Y5.1469
G01 X21.2457 Y5.0000
G00 Z3.0000
G00 X21.2457 Y3.6000
G01 F60.00
G01 Z-0.1000
G01 F70.00
G01 X21.3525 Y3.4532
G01 X21.4972 Y3.3085
G01 X21.6627 Y3.1882
G01 X21.8450 Y3.0953
G01 X21.8941 Y3.0794
G01 X21.8941 Y3.1878
G01 X21.8759 Y3.1954
G01 X21.7871 Y3.2373
G01 X21.7698 Y3.2466
G01 X21.6774 Y3.3023
G01 X21.5866 Y3.3694
G01 X21.5753 Y3.3788
G01 X21.5026 Y3.4448
G01 X21.4921 Y3.4550
G01 X21.4164 Y3.5388
G01 X21.3707 Y3.6001
G01 X21.2457 Y3.6000
G00 Z3.0000
G00 X23.2941 Y3.1879
G01 F60.00
G01 Z-0.1000
G01 F70.00
G01 X23.2941 Y3.0794
G01 X23.3431 Y3.0953
G01 X23.5254 Y3.1882
G01 X23.6909 Y3.3085
G01 X23.8356 Y3.4532
G01 X23.9424 Y3.6001
G01 X23.8174 Y3.6000
G01 X23.7717 Y3.5388
G01 X23.6960 Y3.4550
G01 X23.6855 Y3.4448
G01 X23.6128 Y3.3788
G01 X23.6015 Y3.3694
G01 X23.5107 Y3.3023
G01 X23.4183 Y3.2466
G01 X23.4010 Y3.2373
G01 X23.3122 Y3.1954
G01 X23.2941 Y3.1879
G00 Z3.0000
G00 X23.2941 Y5.5207
G01 F60.00
G01 Z-0.1000
G01 F70.00
G01 X23.2941 Y5.4123
G01 X23.3122 Y5.4047
G01 X23.4010 Y5.3628
G01 X23.4183 Y5.3535
G01 X23.5107 Y5.2978
G01 X23.6015 Y5.2307
G01 X23.6128 Y5.2213
G01 X23.6855 Y5.1553
G01 X23.6960 Y5.1451
G01 X23.7717 Y5.0613
G01 X23.8174 Y5.0001
G01 X23.9424 Y5.0001
G01 X23.8356 Y5.1469
G01 X23.6909 Y5.2916
G01 X23.5254 Y5.4119
G01 X23.3431 Y5.5048
G01 X23.2941 Y5.5207
G00 Z3.0000
G00 X17.0795 Y5.2500
G01 F60.00
G01 Z-0.1000
G01 F70.00
G01 X17.0871 Y5.2319
G01 X17.1290 Y5.1431
G01 X17.1383 Y5.1258
G01 X17.1940 Y5.0334
G01 X17.2641 Y4.9388
G01 X17.3364 Y4.8586
G01 X17.3503 Y4.8448
G01 X17.4305 Y4.7724
G01 X17.5250 Y4.7023
G01 X17.6261 Y4.6417
G01 X17.7235 Y4.5954
G01 X17.7417 Y4.5879
G01 X17.8438 Y4.5516
G01 X17.9576 Y4.5231
G01 X18.0644 Y4.5070
G01 X18.0839 Y4.5051
G01 X18.1917 Y4.5001
G01 X18.6917 Y4.5001
G01 X18.8093 Y4.5058
G01 X18.9258 Y4.5231
G01 X19.0306 Y4.5491
G01 X19.0494 Y4.5548
G01 X19.1418 Y4.5879
G01 X19.1599 Y4.5954
G01 X19.2574 Y4.6417
G01 X19.3584 Y4.7023
G01 X19.4530 Y4.7724
G01 X19.5403 Y4.8515
G01 X19.6193 Y4.9388
G01 X19.6895 Y5.0334
G01 X19.7500 Y5.1344
G01 X19.7964 Y5.2319
G01 X19.8022 Y5.2454
G01 X19.8402 Y5.3521
G01 X19.8687 Y5.4659
G01 X19.8859 Y5.5824
G01 X19.8917 Y5.7000
G01 X19.8859 Y5.8177
G01 X19.8687 Y5.9342
G01 X19.8401 Y6.0484
G01 X19.8004 Y6.1593
G01 X19.7500 Y6.2657
G01 X19.6895 Y6.3667
G01 X19.6193 Y6.4613
G01 X19.5403 Y6.5486
G01 X19.4530 Y6.6277
G01 X19.3584 Y6.6978
G01 X19.2574 Y6.7584
G01 X19.1599 Y6.8047
G01 X19.1420 Y6.8122
G01 X19.1420 Y10.9777
G01 X23.7692 Y15.6049
G01 X23.8154 Y15.6558
G01 X23.8563 Y15.7110
G01 X23.8916 Y15.7700
G01 X23.9210 Y15.8321
G01 X23.9441 Y15.8968
G01 X23.9608 Y15.9634
G01 X23.9709 Y16.0314
G01 X23.9743 Y16.1000
G01 X23.9743 Y22.6100
G01 X27.9641 Y26.5998
G01 X37.0790 Y26.5999
G01 X37.1427 Y26.6032
G01 X37.2107 Y26.6133
G01 X37.2773 Y26.6300
G01 X37.3420 Y26.6531
G01 X37.4041 Y26.6825
G01 X37.4631 Y26.7178
G01 X37.5183 Y26.7587
G01 X37.5657 Y26.8015
G01 X39.0660 Y28.3020
G01 X39.1054 Y28.3458
G01 X39.1406 Y28.3930
G01 X39.1515 Y28.4093
G01 X39.1816 Y28.4600
G01 X39.2070 Y28.5131
G01 X39.2145 Y28.5312
G01 X39.2341 Y28.5868
G01 X39.2498 Y28.6486
G01 X39.2525 Y28.6631
G01 X39.2609 Y28.7214
G01 X39.2643 Y28.7900
G01 X39.2643 Y34.6100
G01 X39.8595 Y35.2052
G01 X39.8705 Y35.1964
G01 X39.9493 Y35.1379
G01 X39.9657 Y35.1270
G01 X40.0584 Y35.0717
G01 X40.1648 Y35.0214
G01 X40.2672 Y34.9845
G01 X40.2852 Y34.9791
G01 X40.3899 Y34.9531
G01 X40.5064 Y34.9358
G01 X40.6241 Y34.9301
G01 X41.1241 Y34.9301
G01 X41.2368 Y34.9354
G01 X41.2514 Y34.9370
G01 X41.3485 Y34.9514
G01 X41.3677 Y34.9553
G01 X41.4724 Y34.9817
G01 X41.5786 Y35.0195
G01 X41.5922 Y35.0254
G01 X41.6897 Y35.0717
G01 X41.7907 Y35.1323
G01 X41.8853 Y35.2024
G01 X41.9655 Y35.2748
G01 X41.9793 Y35.2886
G01 X42.0517 Y35.3688
G01 X42.1162 Y35.4553
G01 X42.1271 Y35.4717
G01 X42.1775 Y35.5558
G01 X42.1868 Y35.5731
G01 X42.2327 Y35.6708
G01 X42.2711 Y35.7776
G01 X42.2750 Y35.7912
G01 X42.3010 Y35.8959
G01 X42.3183 Y36.0124
G01 X42.3241 Y36.1300
G01 X42.3183 Y36.2477
G01 X42.3010 Y36.3642
G01 X42.2724 Y36.4784
G01 X42.2327 Y36.5893
G01 X42.1868 Y36.6870
G01 X42.1775 Y36.7043
G01 X42.1271 Y36.7884
G01 X42.1162 Y36.8048
G01 X42.0517 Y36.8913
G01 X41.9793 Y36.9715
G01 X41.9655 Y36.9853
G01 X41.8853 Y37.0577
G01 X41.7907 Y37.1278
G01 X41.6897 Y37.1884
G01 X41.5922 Y37.2347
G01 X41.5743 Y37.2422
G01 X41.5743 Y37.5579
G01 X41.5922 Y37.5654
G01 X41.6810 Y37.6073
G01 X41.6983 Y37.6166
G01 X41.7907 Y37.6723
G01 X41.8776 Y37.7364
G01 X41.8928 Y37.7488
G01 X41.9726 Y37.8215
G01 X42.0453 Y37.9013
G01 X42.0577 Y37.9165
G01 X42.1218 Y38.0034
G01 X42.1775 Y38.0958
G01 X42.1868 Y38.1131
G01 X42.2327 Y38.2108
G01 X42.2696 Y38.3131
G01 X42.2750 Y38.3312
G01 X42.3010 Y38.4359
G01 X42.3183 Y38.5524
G01 X42.3238 Y38.6602
G01 X42.3238 Y38.6799
G01 X42.3183 Y38.7877
G01 X42.3027 Y38.8945
G01 X42.2988 Y38.9137
G01 X42.2724 Y39.0184
G01 X42.2362 Y39.1201
G01 X42.2287 Y39.1382
G01 X42.1824 Y39.2357
G01 X42.1271 Y39.3284
G01 X42.1162 Y39.3448
G01 X42.0517 Y39.4313
G01 X41.9793 Y39.5115
G01 X41.9655 Y39.5253
G01 X41.8853 Y39.5977
G01 X41.7948 Y39.6650
G01 X41.7824 Y39.6731
G01 X41.6897 Y39.7284
G01 X41.5922 Y39.7747
G01 X41.5741 Y39.7822
G01 X41.4724 Y39.8184
G01 X41.3677 Y39.8448
G01 X41.3485 Y39.8487
G01 X41.2466 Y39.8637
G01 X41.2319 Y39.8650
G01 X41.1241 Y39.8700
G01 X40.6191 Y39.8700
G01 X40.5064 Y39.8643
G01 X40.3996 Y39.8487
G01 X40.3851 Y39.8460
G01 X40.2852 Y39.8210
G01 X40.2664 Y39.8153
G01 X40.1648 Y39.7787
G01 X40.0671 Y39.7328
G01 X40.0498 Y39.7235
G01 X39.9574 Y39.6678
G01 X39.8628 Y39.5977
G01 X39.7755 Y39.5186
G01 X39.7029 Y39.4388
G01 X39.6904 Y39.4236
G01 X39.6263 Y39.3367
G01 X39.5706 Y39.2443
G01 X39.5613 Y39.2270
G01 X39.5173 Y39.1338
G01 X39.5119 Y39.1201
G01 X39.4756 Y39.0180
G01 X39.4471 Y38.9042
G01 X39.4298 Y38.7877
G01 X39.4243 Y38.6799
G01 X39.4243 Y38.6602
G01 X39.4291 Y38.5622
G01 X39.4310 Y38.5427
G01 X39.4471 Y38.4359
G01 X39.4731 Y38.3312
G01 X39.4788 Y38.3124
G01 X39.5154 Y38.2109
G01 X39.5613 Y38.1131
G01 X39.5706 Y38.0958
G01 X39.6210 Y38.0117
G01 X39.6319 Y37.9953
G01 X39.6964 Y37.9088
G01 X39.7688 Y37.8286
G01 X39.7826 Y37.8148
G01 X39.8628 Y37.7424
G01 X39.9574 Y37.6723
G01 X40.0584 Y37.6117
G01 X40.1559 Y37.5654
G01 X40.1738 Y37.5579
G01 X40.1738 Y37.2422
G01 X40.1559 Y37.2347
G01 X40.0671 Y37.1928
G01 X40.0498 Y37.1835
G01 X39.9574 Y37.1278
G01 X39.8628 Y37.0577
G01 X39.7826 Y36.9853
G01 X39.7688 Y36.9715
G01 X39.6964 Y36.8913
G01 X39.6374 Y36.8121
G01 X39.5908 Y36.8001
G01 X39.5352 Y36.7805
G01 X39.5171 Y36.7730
G01 X39.4640 Y36.7476
G01 X39.4133 Y36.7175
G01 X39.3970 Y36.7066
G01 X39.3498 Y36.6714
G01 X39.3060 Y36.6320
G01 X38.0655 Y35.3917
G01 X38.0228 Y35.3443
G01 X37.9818 Y35.2891
G01 X37.9465 Y35.2301
G01 X37.9211 Y35.1770
G01 X37.9136 Y35.1589
G01 X37.8940 Y35.1033
G01 X37.8773 Y35.0367
G01 X37.8672 Y34.9687
G01 X37.8638 Y34.9000
G01 X37.8638 Y29.0801
G01 X36.7840 Y28.0003
G01 X27.6741 Y28.0003
G01 X27.6054 Y27.9969
G01 X27.5471 Y27.9885
G01 X27.5279 Y27.9847
G01 X27.4802 Y27.9728
G01 X27.4661 Y27.9687
G01 X27.4152 Y27.9505
G01 X27.3971 Y27.9430
G01 X27.3440 Y27.9176
G01 X27.2933 Y27.8875
G01 X27.2770 Y27.8766
G01 X27.2298 Y27.8414
G01 X27.1789 Y27.7952
G01 X22.7789 Y23.3952
G01 X22.7328 Y23.3443
G01 X22.6946 Y23.2931
G01 X22.6866 Y23.2808
G01 X22.6613 Y23.2387
G01 X22.6521 Y23.2214
G01 X22.6271 Y23.1680
G01 X22.6040 Y23.1033
G01 X22.5894 Y23.0462
G01 X22.5856 Y23.0270
G01 X22.5772 Y22.9687
G01 X22.5739 Y22.9050
G01 X22.5738 Y16.3901
G01 X17.9466 Y11.7629
G01 X17.9004 Y11.7120
G01 X17.8651 Y11.6648
G01 X17.8542 Y11.6485
G01 X17.8290 Y11.6064
G01 X17.8219 Y11.5935
G01 X17.7988 Y11.5447
G01 X17.7912 Y11.5265
G01 X17.7716 Y11.4710
G01 X17.7571 Y11.4139
G01 X17.7533 Y11.3947
G01 X17.7448 Y11.3364
G01 X17.7415 Y11.2726
G01 X17.7415 Y6.8122
G01 X17.7235 Y6.8047
G01 X17.6261 Y6.7584
G01 X17.5250 Y6.6978
G01 X17.4305 Y6.6277
G01 X17.3432 Y6.5486
G01 X17.2641 Y6.4613
G01 X17.1940 Y6.3667
G01 X17.1334 Y6.2657
G01 X17.0831 Y6.1593
G01 X17.0434 Y6.0484
G01 X17.0148 Y5.9342
G01 X16.9975 Y5.8177
G01 X16.9917 Y5.7000
G01 X16.9975 Y5.5824
G01 X17.0148 Y5.4659
G01 X17.0434 Y5.3517
G01 X17.0795 Y5.2500
G00 Z3.0000
G00 X31.3919 Y3.8500
G01 F60.00
G01 Z-0.1000
G01 F70.00
G01 X31.3994 Y3.8319
G01 X31.4457 Y3.7344
G01 X31.5010 Y3.6417
G01 X31.5119 Y3.6253
G01 X31.5764 Y3.5388
G01 X31.6488 Y3.4586
G01 X31.6626 Y3.4448
G01 X31.7428 Y3.3724
G01 X31.8374 Y3.3023
G01 X31.9298 Y3.2466
G01 X31.9471 Y3.2373
G01 X32.0359 Y3.1954
G01 X32.0540 Y3.1879
G01 X32.1561 Y3.1516
G01 X32.2604 Y3.1253
G01 X32.2796 Y3.1214
G01 X32.3864 Y3.1058
G01 X32.5041 Y3.1001
G01 X33.0090 Y3.1001
G01 X33.1217 Y3.1058
G01 X33.2333 Y3.1222
G01 X33.2477 Y3.1253
G01 X33.3429 Y3.1491
G01 X33.3617 Y3.1548
G01 X33.4632 Y3.1914
G01 X33.5654 Y3.2395
G01 X33.5783 Y3.2466
G01 X33.6624 Y3.2970
G01 X33.6748 Y3.3051
G01 X33.7615 Y3.3694
G01 X33.7728 Y3.3788
G01 X33.7959 Y3.3998
G01 X35.0969 Y3.3998
G01 X35.1044 Y3.3819
G01 X35.1463 Y3.2931
G01 X35.1556 Y3.2758
G01 X35.2113 Y3.1834
G01 X35.2814 Y3.0888
G01 X35.3605 Y3.0015
G01 X35.4403 Y2.9288
G01 X35.4555 Y2.9164
G01 X35.5343 Y2.8579
G01 X35.5507 Y2.8470
G01 X35.6434 Y2.7917
G01 X35.7498 Y2.7414
G01 X35.8514 Y2.7048
G01 X35.8611 Y2.7016
G01 X35.9654 Y2.6753
G01 X35.9846 Y2.6714
G01 X36.0817 Y2.6570
G01 X36.1012 Y2.6551
G01 X36.2091 Y2.6501
G01 X36.3267 Y2.6558
G01 X36.4432 Y2.6731
G01 X36.5479 Y2.6991
G01 X36.5667 Y2.7048
G01 X36.6682 Y2.7414
G01 X36.7660 Y2.7873
G01 X36.7833 Y2.7966
G01 X36.8757 Y2.8523
G01 X36.9703 Y2.9224
G01 X37.0505 Y2.9948
G01 X37.0643 Y3.0086
G01 X37.1367 Y3.0888
G01 X37.2012 Y3.1753
G01 X37.2121 Y3.1917
G01 X37.2625 Y3.2758
G01 X37.2718 Y3.2931
G01 X37.3177 Y3.3908
G01 X37.3543 Y3.4924
G01 X37.3575 Y3.5021
G01 X37.3860 Y3.6159
G01 X37.4027 Y3.7276
G01 X37.4040 Y3.7422
G01 X37.4091 Y3.8500
G01 X37.4091 Y4.3500
G01 X37.4033 Y4.4677
G01 X37.3860 Y4.5842
G01 X37.3600 Y4.6889
G01 X37.3543 Y4.7077
G01 X37.3212 Y4.8001
G01 X37.3137 Y4.8182
G01 X37.2674 Y4.9157
G01 X37.2068 Y5.0167
G01 X37.1367 Y5.1113
G01 X37.0643 Y5.1915
G01 X37.0505 Y5.2053
G01 X36.9778 Y5.2713
G01 X36.9626 Y5.2837
G01 X36.8757 Y5.3478
G01 X36.7747 Y5.4084
G01 X36.6683 Y5.4587
G01 X36.5667 Y5.4953
G01 X36.5479 Y5.5010
G01 X36.4432 Y5.5270
G01 X36.3267 Y5.5443
G01 X36.2189 Y5.5498
G01 X36.1992 Y5.5498
G01 X36.1012 Y5.5450
G01 X36.0817 Y5.5431
G01 X35.9749 Y5.5270
G01 X35.8607 Y5.4984
G01 X35.7498 Y5.4587
G01 X35.6434 Y5.4084
G01 X35.5424 Y5.3478
G01 X35.4478 Y5.2777
G01 X35.3605 Y5.1986
G01 X35.2879 Y5.1188
G01 X35.2754 Y5.1036
G01 X35.2169 Y5.0248
G01 X35.2060 Y5.0084
G01 X35.1507 Y4.9157
G01 X35.1044 Y4.8182
G01 X35.0969 Y4.8003
G01 X34.0936 Y4.8003
G01 X34.0668 Y4.8570
G01 X34.0600 Y4.8700
G01 X34.0071 Y4.9584
G01 X33.9990 Y4.9708
G01 X33.9317 Y5.0613
G01 X33.8593 Y5.1415
G01 X33.8491 Y5.1520
G01 X33.7653 Y5.2277
G01 X33.6707 Y5.2978
G01 X33.5697 Y5.3584
G01 X33.4633 Y5.4087
G01 X33.3524 Y5.4484
G01 X33.2477 Y5.4748
G01 X33.2285 Y5.4787
G01 X33.1314 Y5.4931
G01 X33.1168 Y5.4947
G01 X33.0041 Y5.5000
G01 X32.5041 Y5.5000
G01 X32.3864 Y5.4943
G01 X32.2699 Y5.4770
G01 X32.1652 Y5.4510
G01 X32.1464 Y5.4453
G01 X32.0540 Y5.4122
G01 X32.0359 Y5.4047
G01 X31.9384 Y5.3584
G01 X31.8457 Y5.3031
G01 X31.8293 Y5.2922
G01 X31.7428 Y5.2277
G01 X31.6555 Y5.1486
G01 X31.5764 Y5.0613
G01 X31.5119 Y4.9748
G01 X31.5010 Y4.9584
G01 X31.4457 Y4.8657
G01 X31.3994 Y4.7682
G01 X31.3919 Y4.7501
G01 X31.3588 Y4.6577
G01 X31.3531 Y4.6389
G01 X31.3271 Y4.5342
G01 X31.3098 Y4.4177
G01 X31.3041 Y4.3000
G01 X31.3091 Y4.1922
G01 X31.3110 Y4.1727
G01 X31.3271 Y4.0659
G01 X31.3531 Y3.9612
G01 X31.3588 Y3.9424
G01 X31.3919 Y3.8500
G00 Z3.0000
G00 X31.3919 Y7.4500
G01 F60.00
G01 Z-0.1000
G01 F70.00
G01 X31.3994 Y7.4319
G01 X31.4413 Y7.3431
G01 X31.4506 Y7.3258
G01 X31.5063 Y7.2334
G01 X31.5764 Y7.1388
G01 X31.6488 Y7.0586
G01 X31.6626 Y7.0448
G01 X31.7428 Y6.9724
G01 X31.8374 Y6.9023
G01 X31.9384 Y6.8417
G01 X32.0359 Y6.7954
G01 X32.0540 Y6.7879
G01 X32.1561 Y6.7516
G01 X32.2604 Y6.7253
G01 X32.2796 Y6.7214
G01 X32.3864 Y6.7058
G01 X32.4991 Y6.7001
G01 X33.0041 Y6.7001
G01 X33.1168 Y6.7054
G01 X33.1314 Y6.7070
G01 X33.2382 Y6.7231
G01 X33.3429 Y6.7491
G01 X33.3571 Y6.7532
G01 X33.4632 Y6.7914
G01 X33.5610 Y6.8373
G01 X33.5783 Y6.8466
G01 X33.6624 Y6.8970
G01 X33.6748 Y6.9051
G01 X33.7653 Y6.9724
G01 X33.8491 Y7.0481
G01 X33.8593 Y7.0586
G01 X33.9285 Y7.1350
G01 X33.9377 Y7.1465
G01 X33.9772 Y7.1998
G01 X34.0790 Y7.1999
G01 X34.1427 Y7.2032
G01 X34.2107 Y7.2133
G01 X34.2773 Y7.2300
G01 X34.3420 Y7.2531
G01 X34.4041 Y7.2825
G01 X34.4631 Y7.3178
G01 X34.5105 Y7.3527
G01 X34.5220 Y7.3619
G01 X34.5692 Y7.4049
G01 X36.7042 Y9.5399
G01 X36.7472 Y9.5871
G01 X36.7564 Y9.5986
G01 X36.7913 Y9.6460
G01 X36.8266 Y9.7050
G01 X36.8560 Y9.7671
G01 X36.8777 Y9.8271
G01 X36.8818 Y9.8412
G01 X36.8958 Y9.8984
G01 X36.9054 Y9.9615
G01 X36.9067 Y9.9762
G01 X36.9092 Y10.0301
G01 X36.9093 Y10.0769
G01 X36.9703 Y10.1224
G01 X37.0505 Y10.1948
G01 X37.0643 Y10.2086
G01 X37.1335 Y10.2850
G01 X37.1427 Y10.2965
G01 X37.2068 Y10.3834
G01 X37.2674 Y10.4844
G01 X37.3177 Y10.5908
G01 X37.3543 Y10.6924
G01 X37.3575 Y10.7021
G01 X37.3860 Y10.8159
G01 X37.4027 Y10.9276
G01 X37.4040 Y10.9422
G01 X37.4091 Y11.0500
G01 X37.4091 Y11.5500
G01 X37.4037 Y11.6628
G01 X37.4021 Y11.6774
G01 X37.3877 Y11.7745
G01 X37.3838 Y11.7937
G01 X37.3574 Y11.8984
G01 X37.3177 Y12.0093
G01 X37.2674 Y12.1157
G01 X37.2121 Y12.2084
G01 X37.2012 Y12.2248
G01 X37.1427 Y12.3036
G01 X37.1335 Y12.3151
G01 X37.0576 Y12.3986
G01 X36.9703 Y12.4777
G01 X36.8757 Y12.5478
G01 X36.7747 Y12.6084
G01 X36.6683 Y12.6587
G01 X36.5574 Y12.6984
G01 X36.4432 Y12.7270
G01 X36.3267 Y12.7443
G01 X36.2091 Y12.7500
G01 X36.0914 Y12.7443
G01 X35.9749 Y12.7270
G01 X35.8607 Y12.6984
G01 X35.7498 Y12.6587
G01 X35.6434 Y12.6084
G01 X35.5424 Y12.5478
G01 X35.4555 Y12.4837
G01 X35.4440 Y12.4745
G01 X35.3605 Y12.3986
G01 X35.2879 Y12.3188
G01 X35.2754 Y12.3036
G01 X35.2169 Y12.2248
G01 X35.2060 Y12.2084
G01 X35.1507 Y12.1157
G01 X35.1044 Y12.0182
G01 X35.0969 Y12.0001
G01 X35.0607 Y11.8984
G01 X35.0321 Y11.7842
G01 X35.0148 Y11.6677
G01 X35.0091 Y11.5550
G01 X35.0091 Y11.0500
G01 X35.0141 Y10.9422
G01 X35.0160 Y10.9227
G01 X35.0321 Y10.8159
G01 X35.0594 Y10.7064
G01 X35.0638 Y10.6924
G01 X35.0969 Y10.6000
G01 X35.1044 Y10.5819
G01 X35.1507 Y10.4844
G01 X35.2060 Y10.3917
G01 X35.2169 Y10.3753
G01 X35.2814 Y10.2888
G01 X35.3538 Y10.2086
G01 X35.3640 Y10.1981
G01 X35.3733 Y10.1896
G01 X33.8906 Y8.7069
G01 X33.8593 Y8.7415
G01 X33.8491 Y8.7520
G01 X33.7728 Y8.8213
G01 X33.7615 Y8.8307
G01 X33.6707 Y8.8978
G01 X33.5783 Y8.9535
G01 X33.5654 Y8.9606
G01 X33.4633 Y9.0087
G01 X33.3524 Y9.0484
G01 X33.2382 Y9.0770
G01 X33.1217 Y9.0943
G01 X33.0041 Y9.1000
G01 X32.4991 Y9.1000
G01 X32.3864 Y9.0943
G01 X32.2796 Y9.0787
G01 X32.2604 Y9.0748
G01 X32.1557 Y9.0484
G01 X32.0449 Y9.0087
G01 X31.9384 Y8.9584
G01 X31.8457 Y8.9031
G01 X31.8333 Y8.8950
G01 X31.7428 Y8.8277
G01 X31.6555 Y8.7486
G01 X31.5764 Y8.6613
G01 X31.5119 Y8.5748
G01 X31.5010 Y8.5584
G01 X31.4506 Y8.4743
G01 X31.4413 Y8.4570
G01 X31.3954 Y8.3593
G01 X31.3557 Y8.2484
G01 X31.3271 Y8.1342
G01 X31.3110 Y8.0274
G01 X31.3091 Y8.0079
G01 X31.3043 Y7.9099
G01 X31.3043 Y7.8902
G01 X31.3098 Y7.7824
G01 X31.3271 Y7.6659
G01 X31.3557 Y7.5517
G01 X31.3919 Y7.4500
G00 Z3.0000
G00 X37.6038 Y4.7077
G01 F60.00
G01 Z-0.1000
G01 F70.00
G01 X37.5981 Y4.6889
G01 X37.5743 Y4.5937
G01 X37.5704 Y4.5745
G01 X37.5548 Y4.4677
G01 X37.5491 Y4.3550
G01 X37.5491 Y3.8451
G01 X37.5548 Y3.7324
G01 X37.5712 Y3.6208
G01 X37.5743 Y3.6064
G01 X37.5981 Y3.5112
G01 X37.6038 Y3.4924
G01 X37.6404 Y3.3909
G01 X37.6907 Y3.2844
G01 X37.7460 Y3.1917
G01 X37.7569 Y3.1753
G01 X37.8214 Y3.0888
G01 X37.8971 Y3.0050
G01 X37.9076 Y2.9948
G01 X37.9803 Y2.9288
G01 X37.9955 Y2.9164
G01 X38.0824 Y2.8523
G01 X38.1834 Y2.7917
G01 X38.2809 Y2.7454
G01 X38.2990 Y2.7379
G01 X38.4011 Y2.7016
G01 X38.5149 Y2.6731
G01 X38.6217 Y2.6570
G01 X38.6412 Y2.6551
G01 X38.7491 Y2.6501
G01 X38.8667 Y2.6558
G01 X38.9832 Y2.6731
G01 X39.0927 Y2.7004
G01 X39.1067 Y2.7048
G01 X39.2036 Y2.7395
G01 X39.2127 Y2.7433
G01 X39.2316 Y2.7522
G01 X41.1860 Y0.7981
G01 X41.2298 Y0.7587
G01 X41.2850 Y0.7178
G01 X41.3440 Y0.6825
G01 X41.3971 Y0.6571
G01 X41.4152 Y0.6496
G01 X41.4661 Y0.6314
G01 X41.4802 Y0.6273
G01 X41.5374 Y0.6133
G01 X41.6005 Y0.6037
G01 X41.6152 Y0.6024
G01 X41.6741 Y0.5998
G01 X71.8741 Y0.5998
G01 X71.9378 Y0.6028
G01 X71.9524 Y0.6044
G01 X72.0107 Y0.6133
G01 X72.0679 Y0.6273
G01 X72.0820 Y0.6314
G01 X72.1329 Y0.6496
G01 X72.1510 Y0.6571
G01 X72.2041 Y0.6825
G01 X72.2631 Y0.7178
G01 X72.3183 Y0.7587
G01 X72.3657 Y0.8015
G01 X73.9326 Y2.3684
G01 X73.9754 Y2.4158
G01 X74.0163 Y2.4710
G01 X74.0516 Y2.5300
G01 X74.0770 Y2.5831
G01 X74.0828 Y2.5966
G01 X74.1041 Y2.6568
G01 X74.1208 Y2.7234
G01 X74.1309 Y2.7914
G01 X74.1342 Y2.8551
G01 X74.1343 Y6.0969
G01 X74.1876 Y6.1364
G01 X74.1991 Y6.1456
G01 X74.2755 Y6.2148
G01 X74.2860 Y6.2250
G01 X74.3617 Y6.3088
G01 X74.4290 Y6.3993
G01 X74.4371 Y6.4117
G01 X74.4875 Y6.4958
G01 X74.4968 Y6.5131
G01 X74.5427 Y6.6108
G01 X74.5793 Y6.7124
G01 X74.5825 Y6.7221
G01 X74.6088 Y6.8264
G01 X74.6127 Y6.8456
G01 X74.6283 Y6.9524
G01 X74.6338 Y7.0602
G01 X74.6341 Y7.5700
G01 X74.6287 Y7.6828
G01 X74.6271 Y7.6974
G01 X74.6127 Y7.7945
G01 X74.6088 Y7.8137
G01 X74.5824 Y7.9184
G01 X74.5427 Y8.0293
G01 X74.4924 Y8.1357
G01 X74.4371 Y8.2284
G01 X74.4262 Y8.2448
G01 X74.3677 Y8.3236
G01 X74.3553 Y8.3388
G01 X74.2826 Y8.4186
G01 X74.1953 Y8.4977
G01 X74.1007 Y8.5678
G01 X74.0083 Y8.6235
G01 X73.9910 Y8.6328
G01 X73.9022 Y8.6747
G01 X73.8841 Y8.6822
G01 X73.7824 Y8.7184
G01 X73.6682 Y8.7470
G01 X73.5614 Y8.7631
G01 X73.5419 Y8.7650
G01 X73.4341 Y8.7700
G01 X73.3164 Y8.7643
G01 X73.1999 Y8.7470
G01 X73.0952 Y8.7210
G01 X73.0764 Y8.7153
G01 X72.9840 Y8.6822
G01 X72.9659 Y8.6747
G01 X72.8684 Y8.6284
G01 X72.7674 Y8.5678
G01 X72.6728 Y8.4977
G01 X72.5926 Y8.4253
G01 X72.5788 Y8.4115
G01 X72.5129 Y8.3388
G01 X72.5004 Y8.3236
G01 X72.4363 Y8.2367
G01 X72.3757 Y8.1357
G01 X72.3254 Y8.0293
G01 X72.2857 Y7.9184
G01 X72.2571 Y7.8042
G01 X72.2404 Y7.6925
G01 X72.2391 Y7.6779
G01 X72.2341 Y7.5700
G01 X72.2341 Y7.0700
G01 X72.2394 Y6.9573
G01 X72.2410 Y6.9427
G01 X72.2571 Y6.8359
G01 X72.2857 Y6.7217
G01 X72.3254 Y6.6109
G01 X72.3713 Y6.5131
G01 X72.3781 Y6.5001
G01 X72.4363 Y6.4034
G01 X72.5004 Y6.3165
G01 X72.5096 Y6.3050
G01 X72.5788 Y6.2286
G01 X72.5926 Y6.2148
G01 X72.6728 Y6.1424
G01 X72.7338 Y6.0969
G01 X72.7338 Y3.1501
G01 X71.5840 Y2.0003
G01 X41.9641 Y2.0003
G01 X39.9491 Y4.0154
G01 X39.9490 Y4.3550
G01 X39.9440 Y4.4579
G01 X39.9427 Y4.4725
G01 X39.9260 Y4.5842
G01 X39.9000 Y4.6889
G01 X39.8943 Y4.7077
G01 X39.8577 Y4.8093
G01 X39.8074 Y4.9157
G01 X39.7521 Y5.0084
G01 X39.7412 Y5.0248
G01 X39.6767 Y5.1113
G01 X39.5976 Y5.1986
G01 X39.5178 Y5.2713
G01 X39.5026 Y5.2837
G01 X39.4238 Y5.3422
G01 X39.4116 Y5.3505
G01 X39.3147 Y5.4084
G01 X39.2172 Y5.4547
G01 X39.1991 Y5.4622
G01 X39.1067 Y5.4953
G01 X39.0879 Y5.5010
G01 X38.9832 Y5.5270
G01 X38.8764 Y5.5431
G01 X38.8569 Y5.5450
G01 X38.7491 Y5.5500
G01 X38.6314 Y5.5443
G01 X38.5149 Y5.5270
G01 X38.4102 Y5.5010
G01 X38.3914 Y5.4953
G01 X38.2990 Y5.4622
G01 X38.2809 Y5.4547
G01 X38.1834 Y5.4084
G01 X38.0907 Y5.3531
G01 X38.0743 Y5.3422
G01 X37.9878 Y5.2777
G01 X37.9005 Y5.1986
G01 X37.8214 Y5.1113
G01 X37.7569 Y5.0248
G01 X37.7460 Y5.0084
G01 X37.6907 Y4.9157
G01 X37.6444 Y4.8182
G01 X37.6369 Y4.8001
G01 X37.6038 Y4.7077
G00 Z3.0000
G00 X44.3819 Y6.6200
G01 F60.00
G01 Z-0.1000
G01 F70.00
G01 X44.3894 Y6.6019
G01 X44.4357 Y6.5044
G01 X44.4963 Y6.4034
G01 X44.5664 Y6.3088
G01 X44.6388 Y6.2286
G01 X44.6526 Y6.2148
G01 X44.7328 Y6.1424
G01 X44.8193 Y6.0779
G01 X44.8357 Y6.0670
G01 X44.9198 Y6.0166
G01 X44.9371 Y6.0073
G01 X45.0348 Y5.9614
G01 X45.1372 Y5.9245
G01 X45.1552 Y5.9191
G01 X45.2599 Y5.8931
G01 X45.3667 Y5.8770
G01 X45.3862 Y5.8751
G01 X45.4842 Y5.8703
G01 X45.5039 Y5.8703
G01 X45.6117 Y5.8758
G01 X45.7282 Y5.8931
G01 X45.8424 Y5.9217
G01 X45.9441 Y5.9579
G01 X45.9622 Y5.9654
G01 X46.0597 Y6.0117
G01 X46.1524 Y6.0670
G01 X46.1688 Y6.0779
G01 X46.2553 Y6.1424
G01 X46.3426 Y6.2215
G01 X46.4217 Y6.3088
G01 X46.4918 Y6.4034
G01 X46.5524 Y6.5044
G01 X46.6027 Y6.6108
G01 X46.6393 Y6.7124
G01 X46.6425 Y6.7221
G01 X46.6710 Y6.8359
G01 X46.6871 Y6.9427
G01 X46.6887 Y6.9573
G01 X46.6941 Y7.0700
G01 X46.6940 Y7.5750
G01 X46.6883 Y7.6877
G01 X46.6710 Y7.8042
G01 X46.6424 Y7.9184
G01 X46.6062 Y8.0201
G01 X46.5987 Y8.0382
G01 X46.5524 Y8.1357
G01 X46.4971 Y8.2284
G01 X46.4862 Y8.2448
G01 X46.4217 Y8.3313
G01 X46.3426 Y8.4186
G01 X46.2553 Y8.4977
G01 X46.1607 Y8.5678
G01 X46.0597 Y8.6284
G01 X45.9533 Y8.6787
G01 X45.8424 Y8.7184
G01 X45.7282 Y8.7470
G01 X45.6117 Y8.7643
G01 X45.4941 Y8.7700
G01 X45.3764 Y8.7643
G01 X45.2599 Y8.7470
G01 X45.1457 Y8.7184
G01 X45.0348 Y8.6787
G01 X44.9284 Y8.6284
G01 X44.8274 Y8.5678
G01 X44.7328 Y8.4977
G01 X44.6455 Y8.4186
G01 X44.5664 Y8.3313
G01 X44.4963 Y8.2367
G01 X44.4406 Y8.1443
G01 X44.4313 Y8.1270
G01 X44.3894 Y8.0382
G01 X44.3819 Y8.0201
G01 X44.3457 Y7.9184
G01 X44.3171 Y7.8042
G01 X44.2998 Y7.6877
G01 X44.2941 Y7.5750
G01 X44.2941 Y7.0700
G01 X44.2991 Y6.9622
G01 X44.3010 Y6.9427
G01 X44.3154 Y6.8456
G01 X44.3193 Y6.8264
G01 X44.3457 Y6.7217
G01 X44.3819 Y6.6200
G00 Z3.0000
G00 X51.2741 Y5.9717
G01 F60.00
G01 Z-0.1000
G01 F70.00
G01 X51.4209 Y6.0785
G01 X51.5656 Y6.2232
G01 X51.5886 Y6.2542
G01 X51.6095 Y6.2783
G01 X51.6235 Y6.2923
G01 X51.6388 Y6.3048
G01 X51.6511 Y6.3131
G01 X51.6640 Y6.3205
G01 X51.7302 Y6.3554
G01 X51.7484 Y6.3633
G01 X51.7673 Y6.3694
G01 X51.7867 Y6.3736
G01 X51.8065 Y6.3758
G01 X51.8214 Y6.3762
G01 X51.8362 Y6.3755
G01 X51.9108 Y6.3690
G01 X51.9206 Y6.3677
G01 X51.9352 Y6.3648
G01 X51.9543 Y6.3592
G01 X51.9727 Y6.3518
G01 X51.9860 Y6.3450
G01 X52.0028 Y6.3345
G01 X52.0662 Y6.2860
G01 X52.0736 Y6.2800
G01 X52.0841 Y6.2704
G01 X52.0908 Y6.2635
G01 X52.1001 Y6.2527
G01 X52.1221 Y6.2228
G01 X52.2668 Y6.0781
G01 X52.4324 Y5.9578
G01 X52.6148 Y5.8648
G01 X52.8095 Y5.8016
G01 X53.0117 Y5.7695
G01 X53.2164 Y5.7695
G01 X53.4186 Y5.8016
G01 X53.6133 Y5.8648
G01 X53.7957 Y5.9578
G01 X53.9613 Y6.0781
G01 X54.1060 Y6.2228
G01 X54.1289 Y6.2538
G01 X54.1531 Y6.2815
G01 X54.1675 Y6.2951
G01 X54.1832 Y6.3072
G01 X54.1957 Y6.3153
G01 X54.2043 Y6.3201
G01 X54.2661 Y6.3527
G01 X54.2841 Y6.3611
G01 X54.3028 Y6.3677
G01 X54.3173 Y6.3713
G01 X54.3369 Y6.3745
G01 X54.3567 Y6.3758
G01 X54.3765 Y6.3751
G01 X54.4462 Y6.3691
G01 X54.4609 Y6.3673
G01 X54.4707 Y6.3655
G01 X54.4899 Y6.3604
G01 X54.5039 Y6.3553
G01 X54.5175 Y6.3492
G01 X54.5349 Y6.3396
G01 X54.5512 Y6.3282
G01 X54.6065 Y6.2856
G01 X54.6175 Y6.2764
G01 X54.6244 Y6.2699
G01 X54.6343 Y6.2596
G01 X54.6404 Y6.2523
G01 X54.6621 Y6.2228
G01 X54.8068 Y6.0781
G01 X54.9724 Y5.9578
G01 X55.1548 Y5.8648
G01 X55.3495 Y5.8016
G01 X55.5517 Y5.7695
G01 X55.7564 Y5.7695
G01 X55.9586 Y5.8016
G01 X56.1533 Y5.8648
G01 X56.3357 Y5.9578
G01 X56.5013 Y6.0781
G01 X56.6460 Y6.2228
G01 X56.6689 Y6.2538
G01 X56.6931 Y6.2815
G01 X56.7075 Y6.2951
G01 X56.7232 Y6.3072
G01 X56.7357 Y6.3153
G01 X56.7443 Y6.3201
G01 X56.8061 Y6.3527
G01 X56.8241 Y6.3611
G01 X56.8428 Y6.3677
G01 X56.8573 Y6.3713
G01 X56.8719 Y6.3739
G01 X56.8917 Y6.3757
G01 X56.9017 Y6.3758
G01 X56.9165 Y6.3751
G01 X56.9862 Y6.3691
G01 X57.0058 Y6.3664
G01 X57.0251 Y6.3618
G01 X57.0393 Y6.3571
G01 X57.0575 Y6.3492
G01 X57.0749 Y6.3396
G01 X57.0912 Y6.3282
G01 X57.1465 Y6.2856
G01 X57.1575 Y6.2764
G01 X57.1644 Y6.2699
G01 X57.1743 Y6.2596
G01 X57.1804 Y6.2523
G01 X57.2021 Y6.2228
G01 X57.3468 Y6.0781
G01 X57.5124 Y5.9578
G01 X57.6948 Y5.8648
G01 X57.8895 Y5.8016
G01 X58.0917 Y5.7695
G01 X58.2964 Y5.7695
G01 X58.4986 Y5.8016
G01 X58.6933 Y5.8648
G01 X58.8757 Y5.9578
G01 X59.0413 Y6.0781
G01 X59.1860 Y6.2228
G01 X59.2089 Y6.2538
G01 X59.2331 Y6.2815
G01 X59.2475 Y6.2951
G01 X59.2632 Y6.3072
G01 X59.2757 Y6.3153
G01 X59.2843 Y6.3201
G01 X59.3461 Y6.3527
G01 X59.3641 Y6.3611
G01 X59.3828 Y6.3677
G01 X59.3973 Y6.3713
G01 X59.4119 Y6.3739
G01 X59.4317 Y6.3757
G01 X59.4417 Y6.3758
G01 X59.4565 Y6.3751
G01 X59.5262 Y6.3691
G01 X59.5458 Y6.3664
G01 X59.5651 Y6.3618
G01 X59.5839 Y6.3553
G01 X59.5975 Y6.3492
G01 X59.6149 Y6.3396
G01 X59.6312 Y6.3282
G01 X59.6865 Y6.2856
G01 X59.6975 Y6.2764
G01 X59.7044 Y6.2699
G01 X59.7143 Y6.2596
G01 X59.7204 Y6.2523
G01 X59.7421 Y6.2228
G01 X59.8868 Y6.0781
G01 X60.0524 Y5.9578
G01 X60.2348 Y5.8648
G01 X60.4295 Y5.8016
G01 X60.6317 Y5.7695
G01 X60.8364 Y5.7695
G01 X61.0386 Y5.8016
G01 X61.2333 Y5.8648
G01 X61.4157 Y5.9578
G01 X61.5813 Y6.0781
G01 X61.7260 Y6.2228
G01 X61.7492 Y6.2542
G01 X61.7735 Y6.2819
G01 X61.7878 Y6.2955
G01 X61.8035 Y6.3077
G01 X61.8160 Y6.3157
G01 X61.8246 Y6.3205
G01 X61.8864 Y6.3531
G01 X61.8998 Y6.3596
G01 X61.9137 Y6.3650
G01 X61.9279 Y6.3694
G01 X61.9425 Y6.3727
G01 X61.9572 Y6.3750
G01 X61.9770 Y6.3762
G01 X61.9919 Y6.3759
G01 X62.0665 Y6.3695
G01 X62.0861 Y6.3669
G01 X62.1055 Y6.3622
G01 X62.1242 Y6.3557
G01 X62.1422 Y6.3474
G01 X62.1594 Y6.3373
G01 X62.1715 Y6.3286
G01 X62.2268 Y6.2860
G01 X62.2342 Y6.2800
G01 X62.2448 Y6.2704
G01 X62.2546 Y6.2600
G01 X62.2607 Y6.2527
G01 X62.2825 Y6.2232
G01 X62.4272 Y6.0785
G01 X62.5741 Y5.9717
G01 X62.5741 Y6.0967
G01 X62.5128 Y6.1424
G01 X62.4290 Y6.2181
G01 X62.4188 Y6.2286
G01 X62.3529 Y6.3013
G01 X62.3434 Y6.3126
G01 X62.2763 Y6.4034
G01 X62.2206 Y6.4958
G01 X62.2113 Y6.5131
G01 X62.1673 Y6.6064
G01 X62.1619 Y6.6200
G01 X62.1257 Y6.7217
G01 X62.0971 Y6.8359
G01 X62.0798 Y6.9524
G01 X62.0741 Y7.0700
G01 X62.0741 Y7.5700
G01 X62.0791 Y7.6779
G01 X62.0810 Y7.6974
G01 X62.0971 Y7.8042
G01 X62.1257 Y7.9184
G01 X62.1654 Y8.0293
G01 X62.2113 Y8.1270
G01 X62.2206 Y8.1443
G01 X62.2710 Y8.2284
G01 X62.2791 Y8.2408
G01 X62.3464 Y8.3313
G01 X62.4221 Y8.4151
G01 X62.4326 Y8.4253
G01 X62.5090 Y8.4945
G01 X62.5205 Y8.5037
G01 X62.5741 Y8.5434
G01 X62.5741 Y8.6684
G01 X62.4272 Y8.5616
G01 X62.2825 Y8.4169
G01 X62.2595 Y8.3859
G01 X62.2353 Y8.3582
G01 X62.2283 Y8.3512
G01 X62.2171 Y8.3414
G01 X62.2093 Y8.3354
G01 X62.1971 Y8.3271
G01 X62.1843 Y8.3197
G01 X62.1134 Y8.2826
G01 X62.0997 Y8.2768
G01 X62.0903 Y8.2735
G01 X62.0711 Y8.2683
G01 X62.0565 Y8.2658
G01 X62.0466 Y8.2646
G01 X62.0268 Y8.2639
G01 X62.0119 Y8.2646
G01 X61.9373 Y8.2711
G01 X61.9177 Y8.2742
G01 X61.8985 Y8.2793
G01 X61.8845 Y8.2844
G01 X61.8665 Y8.2927
G01 X61.8536 Y8.3001
G01 X61.8412 Y8.3085
G01 X61.7819 Y8.3541
G01 X61.7674 Y8.3664
G01 X61.7541 Y8.3801
G01 X61.7451 Y8.3911
G01 X61.7260 Y8.4173
G01 X61.5813 Y8.5620
G01 X61.4157 Y8.6823
G01 X61.2333 Y8.7753
G01 X61.0386 Y8.8385
G01 X60.8364 Y8.8706
G01 X60.6317 Y8.8706
G01 X60.4295 Y8.8385
G01 X60.2348 Y8.7753
G01 X60.0524 Y8.6823
G01 X59.8868 Y8.5620
G01 X59.7421 Y8.4173
G01 X59.7192 Y8.3863
G01 X59.6983 Y8.3622
G01 X59.6843 Y8.3483
G01 X59.6690 Y8.3358
G01 X59.6568 Y8.3275
G01 X59.6440 Y8.3201
G01 X59.5776 Y8.2851
G01 X59.5594 Y8.2772
G01 X59.5405 Y8.2711
G01 X59.5211 Y8.2669
G01 X59.5013 Y8.2647
G01 X59.4815 Y8.2644
G01 X59.4019 Y8.2710
G01 X59.3921 Y8.2721
G01 X59.3774 Y8.2746
G01 X59.3582 Y8.2797
G01 X59.3442 Y8.2848
G01 X59.3262 Y8.2931
G01 X59.3091 Y8.3032
G01 X59.2969 Y8.3119
G01 X59.2416 Y8.3545
G01 X59.2306 Y8.3637
G01 X59.2237 Y8.3702
G01 X59.2170 Y8.3770
G01 X59.2077 Y8.3878
G01 X59.1860 Y8.4173
G01 X59.0413 Y8.5620
G01 X58.8757 Y8.6823
G01 X58.6933 Y8.7753
G01 X58.4986 Y8.8385
G01 X58.2964 Y8.8706
G01 X58.0917 Y8.8706
G01 X57.8895 Y8.8385
G01 X57.6948 Y8.7753
G01 X57.5124 Y8.6823
G01 X57.3468 Y8.5620
G01 X57.2021 Y8.4173
G01 X57.1792 Y8.3863
G01 X57.1583 Y8.3622
G01 X57.1443 Y8.3483
G01 X57.1290 Y8.3358
G01 X57.1168 Y8.3275
G01 X57.1040 Y8.3201
G01 X57.0376 Y8.2851
G01 X57.0194 Y8.2772
G01 X57.0005 Y8.2711
G01 X56.9811 Y8.2669
G01 X56.9613 Y8.2647
G01 X56.9415 Y8.2644
G01 X56.8619 Y8.2710
G01 X56.8472 Y8.2728
G01 X56.8374 Y8.2746
G01 X56.8182 Y8.2797
G01 X56.7996 Y8.2867
G01 X56.7862 Y8.2931
G01 X56.7691 Y8.3032
G01 X56.7569 Y8.3119
G01 X56.7016 Y8.3545
G01 X56.6906 Y8.3637
G01 X56.6837 Y8.3702
G01 X56.6770 Y8.3770
G01 X56.6677 Y8.3878
G01 X56.6460 Y8.4173
G01 X56.5013 Y8.5620
G01 X56.3357 Y8.6823
G01 X56.1533 Y8.7753
G01 X55.9586 Y8.8385
G01 X55.7564 Y8.8706
G01 X55.5517 Y8.8706
G01 X55.3495 Y8.8385
G01 X55.1548 Y8.7753
G01 X54.9724 Y8.6823
G01 X54.8068 Y8.5620
G01 X54.6621 Y8.4173
G01 X54.6392 Y8.3863
G01 X54.6183 Y8.3622
G01 X54.6043 Y8.3483
G01 X54.5890 Y8.3358
G01 X54.5768 Y8.3275
G01 X54.5640 Y8.3201
G01 X54.4976 Y8.2851
G01 X54.4794 Y8.2772
G01 X54.4653 Y8.2725
G01 X54.4460 Y8.2678
G01 X54.4263 Y8.2651
G01 X54.4064 Y8.2643
G01 X54.3916 Y8.2650
G01 X54.3219 Y8.2710
G01 X54.3072 Y8.2728
G01 X54.2974 Y8.2746
G01 X54.2782 Y8.2797
G01 X54.2596 Y8.2867
G01 X54.2462 Y8.2931
G01 X54.2291 Y8.3032
G01 X54.2169 Y8.3119
G01 X54.1616 Y8.3545
G01 X54.1506 Y8.3637
G01 X54.1437 Y8.3702
G01 X54.1370 Y8.3770
G01 X54.1277 Y8.3878
G01 X54.1060 Y8.4173
G01 X53.9613 Y8.5620
G01 X53.7957 Y8.6823
G01 X53.6133 Y8.7753
G01 X53.4186 Y8.8385
G01 X53.2164 Y8.8706
G01 X53.0117 Y8.8706
G01 X52.8095 Y8.8385
G01 X52.6148 Y8.7753
G01 X52.4324 Y8.6823
G01 X52.2668 Y8.5620
G01 X52.1221 Y8.4173
G01 X52.1024 Y8.3904
G01 X52.0780 Y8.3618
G01 X52.0640 Y8.3479
G01 X52.0487 Y8.3354
G01 X52.0365 Y8.3271
G01 X52.0237 Y8.3197
G01 X51.9573 Y8.2847
G01 X51.9391 Y8.2768
G01 X51.9202 Y8.2707
G01 X51.9008 Y8.2665
G01 X51.8860 Y8.2646
G01 X51.8661 Y8.2639
G01 X51.8513 Y8.2646
G01 X51.7767 Y8.2711
G01 X51.7620 Y8.2732
G01 X51.7523 Y8.2753
G01 X51.7332 Y8.2809
G01 X51.7148 Y8.2883
G01 X51.7015 Y8.2951
G01 X51.6846 Y8.3056
G01 X51.6213 Y8.3541
G01 X51.6139 Y8.3601
G01 X51.6034 Y8.3697
G01 X51.5935 Y8.3801
G01 X51.5874 Y8.3874
G01 X51.5656 Y8.4169
G01 X51.4209 Y8.5616
G01 X51.2741 Y8.6684
G01 X51.2741 Y8.5434
G01 X51.3353 Y8.4977
G01 X51.4191 Y8.4220
G01 X51.4293 Y8.4115
G01 X51.4953 Y8.3388
G01 X51.5047 Y8.3275
G01 X51.5662 Y8.2448
G01 X51.5771 Y8.2284
G01 X51.6324 Y8.1357
G01 X51.6808 Y8.0338
G01 X51.6862 Y8.0201
G01 X51.7224 Y7.9184
G01 X51.7510 Y7.8042
G01 X51.7683 Y7.6877
G01 X51.7741 Y7.5700
G01 X51.7741 Y7.0700
G01 X51.7690 Y6.9622
G01 X51.7671 Y6.9427
G01 X51.7510 Y6.8359
G01 X51.7225 Y6.7221
G01 X51.7193 Y6.7124
G01 X51.6827 Y6.6108
G01 X51.6368 Y6.5131
G01 X51.6275 Y6.4958
G01 X51.5771 Y6.4117
G01 X51.5690 Y6.3993
G01 X51.5017 Y6.3088
G01 X51.4260 Y6.2250
G01 X51.4155 Y6.2148
G01 X51.3391 Y6.1456
G01 X51.3276 Y6.1364
G01 X51.2741 Y6.0967
G01 X51.2741 Y5.9717
G00 Z3.0000
G00 X52.0019 Y6.6200
G01 F60.00
G01 Z-0.1000
G01 F70.00
G01 X52.0094 Y6.6019
G01 X52.0557 Y6.5044
G01 X52.1163 Y6.4034
G01 X52.1864 Y6.3088
G01 X52.2588 Y6.2286
G01 X52.2726 Y6.2148
G01 X52.3528 Y6.1424
G01 X52.4393 Y6.0779
G01 X52.4557 Y6.0670
G01 X52.5398 Y6.0166
G01 X52.5571 Y6.0073
G01 X52.6548 Y5.9614
G01 X52.7572 Y5.9245
G01 X52.7752 Y5.9191
G01 X52.8799 Y5.8931
G01 X52.9867 Y5.8770
G01 X53.0062 Y5.8751
G01 X53.1042 Y5.8703
G01 X53.1239 Y5.8703
G01 X53.2317 Y5.8758
G01 X53.3482 Y5.8931
G01 X53.4624 Y5.9217
G01 X53.5641 Y5.9579
G01 X53.5822 Y5.9654
G01 X53.6797 Y6.0117
G01 X53.7724 Y6.0670
G01 X53.7888 Y6.0779
G01 X53.8753 Y6.1424
G01 X53.9626 Y6.2215
G01 X54.0417 Y6.3088
G01 X54.1118 Y6.4034
G01 X54.1724 Y6.5044
G01 X54.2227 Y6.6108
G01 X54.2593 Y6.7124
G01 X54.2625 Y6.7221
G01 X54.2910 Y6.8359
G01 X54.3071 Y6.9427
G01 X54.3087 Y6.9573
G01 X54.3141 Y7.0700
G01 X54.3140 Y7.5750
G01 X54.3083 Y7.6877
G01 X54.2910 Y7.8042
G01 X54.2624 Y7.9184
G01 X54.2262 Y8.0201
G01 X54.2187 Y8.0382
G01 X54.1724 Y8.1357
G01 X54.1171 Y8.2284
G01 X54.1062 Y8.2448
G01 X54.0417 Y8.3313
G01 X53.9626 Y8.4186
G01 X53.8753 Y8.4977
G01 X53.7807 Y8.5678
G01 X53.6797 Y8.6284
G01 X53.5733 Y8.6787
G01 X53.4624 Y8.7184
G01 X53.3482 Y8.7470
G01 X53.2317 Y8.7643
G01 X53.1141 Y8.7700
G01 X52.9964 Y8.7643
G01 X52.8799 Y8.7470
G01 X52.7657 Y8.7184
G01 X52.6548 Y8.6787
G01 X52.5484 Y8.6284
G01 X52.4474 Y8.5678
G01 X52.3528 Y8.4977
G01 X52.2655 Y8.4186
G01 X52.1864 Y8.3313
G01 X52.1163 Y8.2367
G01 X52.0606 Y8.1443
G01 X52.0513 Y8.1270
G01 X52.0094 Y8.0382
G01 X52.0019 Y8.0201
G01 X51.9657 Y7.9184
G01 X51.9371 Y7.8042
G01 X51.9198 Y7.6877
G01 X51.9141 Y7.5750
G01 X51.9141 Y7.0700
G01 X51.9191 Y6.9622
G01 X51.9210 Y6.9427
G01 X51.9354 Y6.8456
G01 X51.9393 Y6.8264
G01 X51.9657 Y6.7217
G01 X52.0019 Y6.6200
G00 Z3.0000
G00 X54.5419 Y6.6200
G01 F60.00
G01 Z-0.1000
G01 F70.00
G01 X54.5494 Y6.6019
G01 X54.5957 Y6.5044
G01 X54.6563 Y6.4034
G01 X54.7264 Y6.3088
G01 X54.7988 Y6.2286
G01 X54.8126 Y6.2148
G01 X54.8928 Y6.1424
G01 X54.9793 Y6.0779
G01 X54.9957 Y6.0670
G01 X55.0798 Y6.0166
G01 X55.0971 Y6.0073
G01 X55.1948 Y5.9614
G01 X55.2972 Y5.9245
G01 X55.3152 Y5.9191
G01 X55.4199 Y5.8931
G01 X55.5267 Y5.8770
G01 X55.5462 Y5.8751
G01 X55.6442 Y5.8703
G01 X55.6639 Y5.8703
G01 X55.7717 Y5.8758
G01 X55.8882 Y5.8931
G01 X56.0024 Y5.9217
G01 X56.1041 Y5.9579
G01 X56.1222 Y5.9654
G01 X56.2197 Y6.0117
G01 X56.3124 Y6.0670
G01 X56.3288 Y6.0779
G01 X56.4153 Y6.1424
G01 X56.5026 Y6.2215
G01 X56.5817 Y6.3088
G01 X56.6518 Y6.4034
G01 X56.7124 Y6.5044
G01 X56.7627 Y6.6108
G01 X56.7993 Y6.7124
G01 X56.8025 Y6.7221
G01 X56.8310 Y6.8359
G01 X56.8471 Y6.9427
G01 X56.8487 Y6.9573
G01 X56.8541 Y7.0700
G01 X56.8540 Y7.5750
G01 X56.8483 Y7.6877
G01 X56.8310 Y7.8042
G01 X56.8024 Y7.9184
G01 X56.7662 Y8.0201
G01 X56.7587 Y8.0382
G01 X56.7124 Y8.1357
G01 X56.6571 Y8.2284
G01 X56.6462 Y8.2448
G01 X56.5817 Y8.3313
G01 X56.5026 Y8.4186
G01 X56.4153 Y8.4977
G01 X56.3207 Y8.5678
G01 X56.2197 Y8.6284
G01 X56.1133 Y8.6787
G01 X56.0024 Y8.7184
G01 X55.8882 Y8.7470
G01 X55.7717 Y8.7643
G01 X55.6541 Y8.7700
G01 X55.5364 Y8.7643
G01 X55.4199 Y8.7470
G01 X55.3057 Y8.7184
G01 X55.1948 Y8.6787
G01 X55.0884 Y8.6284
G01 X54.9874 Y8.5678
G01 X54.8928 Y8.4977
G01 X54.8055 Y8.4186
G01 X54.7264 Y8.3313
G01 X54.6563 Y8.2367
G01 X54.6006 Y8.1443
G01 X54.5913 Y8.1270
G01 X54.5494 Y8.0382
G01 X54.5419 Y8.0201
G01 X54.5057 Y7.9184
G01 X54.4771 Y7.8042
G01 X54.4598 Y7.6877
G01 X54.4541 Y7.5750
G01 X54.4541 Y7.0700
G01 X54.4591 Y6.9622
G01 X54.4610 Y6.9427
G01 X54.4754 Y6.8456
G01 X54.4793 Y6.8264
G01 X54.5057 Y6.7217
G01 X54.5419 Y6.6200
G00 Z3.0000
G00 X57.0819 Y6.6200
G01 F60.00
G01 Z-0.1000
G01 F70.00
G01 X57.0894 Y6.6019
G01 X57.1357 Y6.5044
G01 X57.1963 Y6.4034
G01 X57.2664 Y6.3088
G01 X57.3388 Y6.2286
G01 X57.3526 Y6.2148
G01 X57.4328 Y6.1424
G01 X57.5193 Y6.0779
G01 X57.5357 Y6.0670
G01 X57.6198 Y6.0166
G01 X57.6371 Y6.0073
G01 X57.7348 Y5.9614
G01 X57.8372 Y5.9245
G01 X57.8552 Y5.9191
G01 X57.9599 Y5.8931
G01 X58.0667 Y5.8770
G01 X58.0862 Y5.8751
G01 X58.1842 Y5.8703
G01 X58.2039 Y5.8703
G01 X58.3117 Y5.8758
G01 X58.4282 Y5.8931
G01 X58.5424 Y5.9217
G01 X58.6441 Y5.9579
G01 X58.6622 Y5.9654
G01 X58.7597 Y6.0117
G01 X58.8524 Y6.0670
G01 X58.8688 Y6.0779
G01 X58.9553 Y6.1424
G01 X59.0426 Y6.2215
G01 X59.1217 Y6.3088
G01 X59.1918 Y6.4034
G01 X59.2524 Y6.5044
G01 X59.3027 Y6.6108
G01 X59.3393 Y6.7124
G01 X59.3425 Y6.7221
G01 X59.3710 Y6.8359
G01 X59.3871 Y6.9427
G01 X59.3887 Y6.9573
G01 X59.3941 Y7.0700
G01 X59.3940 Y7.5750
G01 X59.3883 Y7.6877
G01 X59.3710 Y7.8042
G01 X59.3424 Y7.9184
G01 X59.3062 Y8.0201
G01 X59.2987 Y8.0382
G01 X59.2524 Y8.1357
G01 X59.1971 Y8.2284
G01 X59.1862 Y8.2448
G01 X59.1217 Y8.3313
G01 X59.0426 Y8.4186
G01 X58.9553 Y8.4977
G01 X58.8607 Y8.5678
G01 X58.7597 Y8.6284
G01 X58.6533 Y8.6787
G01 X58.5424 Y8.7184
G01 X58.4282 Y8.7470
G01 X58.3117 Y8.7643
G01 X58.1941 Y8.7700
G01 X58.0764 Y8.7643
G01 X57.9599 Y8.7470
G01 X57.8457 Y8.7184
G01 X57.7348 Y8.6787
G01 X57.6284 Y8.6284
G01 X57.5274 Y8.5678
G01 X57.4328 Y8.4977
G01 X57.3455 Y8.4186
G01 X57.2664 Y8.3313
G01 X57.1963 Y8.2367
G01 X57.1406 Y8.1443
G01 X57.1313 Y8.1270
G01 X57.0894 Y8.0382
G01 X57.0819 Y8.0201
G01 X57.0457 Y7.9184
G01 X57.0171 Y7.8042
G01 X56.9998 Y7.6877
G01 X56.9941 Y7.5750
G01 X56.9941 Y7.0700
G01 X56.9991 Y6.9622
G01 X57.0010 Y6.9427
G01 X57.0154 Y6.8456
G01 X57.0193 Y6.8264
G01 X57.0457 Y6.7217
G01 X57.0819 Y6.6200
G00 Z3.0000
G00 X59.6219 Y6.6200
G01 F60.00
G01 Z-0.1000
G01 F70.00
G01 X59.6294 Y6.6019
G01 X59.6757 Y6.5044
G01 X59.7363 Y6.4034
G01 X59.8064 Y6.3088
G01 X59.8788 Y6.2286
G01 X59.8926 Y6.2148
G01 X59.9728 Y6.1424
G01 X60.0593 Y6.0779
G01 X60.0757 Y6.0670
G01 X60.1598 Y6.0166
G01 X60.1771 Y6.0073
G01 X60.2748 Y5.9614
G01 X60.3772 Y5.9245
G01 X60.3952 Y5.9191
G01 X60.4999 Y5.8931
G01 X60.6067 Y5.8770
G01 X60.6262 Y5.8751
G01 X60.7242 Y5.8703
G01 X60.7439 Y5.8703
G01 X60.8517 Y5.8758
G01 X60.9682 Y5.8931
G01 X61.0824 Y5.9217
G01 X61.1841 Y5.9579
G01 X61.2022 Y5.9654
G01 X61.2997 Y6.0117
G01 X61.3924 Y6.0670
G01 X61.4088 Y6.0779
G01 X61.4953 Y6.1424
G01 X61.5826 Y6.2215
G01 X61.6617 Y6.3088
G01 X61.7318 Y6.4034
G01 X61.7924 Y6.5044
G01 X61.8427 Y6.6108
G01 X61.8793 Y6.7124
G01 X61.8825 Y6.7221
G01 X61.9110 Y6.8359
G01 X61.9271 Y6.9427
G01 X61.9287 Y6.9573
G01 X61.9341 Y7.0700
G01 X61.9340 Y7.5750
G01 X61.9283 Y7.6877
G01 X61.9110 Y7.8042
G01 X61.8824 Y7.9184
G01 X61.8462 Y8.0201
G01 X61.8387 Y8.0382
G01 X61.7924 Y8.1357
G01 X61.7371 Y8.2284
G01 X61.7262 Y8.2448
G01 X61.6617 Y8.3313
G01 X61.5826 Y8.4186
G01 X61.4953 Y8.4977
G01 X61.4007 Y8.5678
G01 X61.2997 Y8.6284
G01 X61.1933 Y8.6787
G01 X61.0824 Y8.7184
G01 X60.9682 Y8.7470
G01 X60.8517 Y8.7643
G01 X60.7341 Y8.7700
G01 X60.6164 Y8.7643
G01 X60.4999 Y8.7470
G01 X60.3857 Y8.7184
G01 X60.2748 Y8.6787
G01 X60.1684 Y8.6284
G01 X60.0674 Y8.5678
G01 X59.9728 Y8.4977
G01 X59.8855 Y8.4186
G01 X59.8064 Y8.3313
G01 X59.7363 Y8.2367
G01 X59.6806 Y8.1443
G01 X59.6713 Y8.1270
G01 X59.6294 Y8.0382
G01 X59.6219 Y8.0201
G01 X59.5857 Y7.9184
G01 X59.5571 Y7.8042
G01 X59.5398 Y7.6877
G01 X59.5341 Y7.5750
G01 X59.5341 Y7.0700
G01 X59.5391 Y6.9622
G01 X59.5410 Y6.9427
G01 X59.5554 Y6.8456
G01 X59.5593 Y6.8264
G01 X59.5857 Y6.7217
G01 X59.6219 Y6.6200
G00 Z3.0000
G00 X64.7019 Y6.6200
G01 F60.00
G01 Z-0.1000
G01 F70.00
G01 X64.7094 Y6.6019
G01 X64.7557 Y6.5044
G01 X64.8163 Y6.4034
G01 X64.8864 Y6.3088
G01 X64.9588 Y6.2286
G01 X64.9726 Y6.2148
G01 X65.0528 Y6.1424
G01 X65.1393 Y6.0779
G01 X65.1557 Y6.0670
G01 X65.2398 Y6.0166
G01 X65.2571 Y6.0073
G01 X65.3548 Y5.9614
G01 X65.4572 Y5.9245
G01 X65.4752 Y5.9191
G01 X65.5799 Y5.8931
G01 X65.6867 Y5.8770
G01 X65.7062 Y5.8751
G01 X65.8042 Y5.8703
G01 X65.8239 Y5.8703
G01 X65.9317 Y5.8758
G01 X66.0482 Y5.8931
G01 X66.1624 Y5.9217
G01 X66.2641 Y5.9579
G01 X66.2822 Y5.9654
G01 X66.3797 Y6.0117
G01 X66.4724 Y6.0670
G01 X66.4888 Y6.0779
G01 X66.5753 Y6.1424
G01 X66.6626 Y6.2215
G01 X66.7417 Y6.3088
G01 X66.8118 Y6.4034
G01 X66.8724 Y6.5044
G01 X66.9227 Y6.6108
G01 X66.9593 Y6.7124
G01 X66.9625 Y6.7221
G01 X66.9910 Y6.8359
G01 X67.0071 Y6.9427
G01 X67.0087 Y6.9573
G01 X67.0141 Y7.0700
G01 X67.0140 Y7.5750
G01 X67.0083 Y7.6877
G01 X66.9910 Y7.8042
G01 X66.9624 Y7.9184
G01 X66.9262 Y8.0201
G01 X66.9187 Y8.0382
G01 X66.8724 Y8.1357
G01 X66.8171 Y8.2284
G01 X66.8062 Y8.2448
G01 X66.7417 Y8.3313
G01 X66.6626 Y8.4186
G01 X66.5753 Y8.4977
G01 X66.4807 Y8.5678
G01 X66.3797 Y8.6284
G01 X66.2733 Y8.6787
G01 X66.1624 Y8.7184
G01 X66.0482 Y8.7470
G01 X65.9317 Y8.7643
G01 X65.8141 Y8.7700
G01 X65.6964 Y8.7643
G01 X65.5799 Y8.7470
G01 X65.4657 Y8.7184
G01 X65.3548 Y8.6787
G01 X65.2484 Y8.6284
G01 X65.1474 Y8.5678
G01 X65.0528 Y8.4977
G01 X64.9655 Y8.4186
G01 X64.8864 Y8.3313
G01 X64.8163 Y8.2367
G01 X64.7606 Y8.1443
G01 X64.7513 Y8.1270
G01 X64.7094 Y8.0382
G01 X64.7019 Y8.0201
G01 X64.6657 Y7.9184
G01 X64.6371 Y7.8042
G01 X64.6198 Y7.6877
G01 X64.6141 Y7.5750
G01 X64.6141 Y7.0700
G01 X64.6191 Y6.9622
G01 X64.6210 Y6.9427
G01 X64.6354 Y6.8456
G01 X64.6393 Y6.8264
G01 X64.6657 Y6.7217
G01 X64.7019 Y6.6200
G00 Z3.0000
G00 X64.7341 Y13.4648
G01 F60.00
G01 Z-0.1000
G01 F70.00
G01 X64.7397 Y13.4836
G01 X64.7426 Y13.4979
G01 X64.7440 Y13.5076
G01 X64.7452 Y13.5223
G01 X64.7454 Y13.5320
G01 X64.7443 Y13.5516
G01 X64.7422 Y13.5661
G01 X64.7403 Y13.5757
G01 X64.7350 Y13.5945
G01 X64.7316 Y13.6037
G01 X64.7258 Y13.6171
G01 X64.7165 Y13.6343
G01 X64.7056 Y13.6506
G01 X64.6931 Y13.6656
G01 X64.6793 Y13.6794
G01 X64.6718 Y13.6858
G01 X64.6602 Y13.6946
G01 X64.6478 Y13.7026
G01 X64.6393 Y13.7074
G01 X64.6216 Y13.7158
G01 X64.6032 Y13.7223
G01 X64.5890 Y13.7260
G01 X64.5794 Y13.7279
G01 X64.5600 Y13.7303
G01 X64.5454 Y13.7309
G01 X63.1642 Y13.7309
G01 X63.1494 Y13.7303
G01 X63.1395 Y13.7293
G01 X63.1298 Y13.7279
G01 X63.1153 Y13.7248
G01 X63.1058 Y13.7222
G01 X63.0918 Y13.7173
G01 X63.0738 Y13.7093
G01 X63.0651 Y13.7046
G01 X63.0525 Y13.6968
G01 X63.0405 Y13.6881
G01 X63.0329 Y13.6818
G01 X63.0256 Y13.6751
G01 X63.0153 Y13.6645
G01 X63.0029 Y13.6491
G01 X62.9972 Y13.6410
G01 X62.9896 Y13.6284
G01 X62.9808 Y13.6107
G01 X62.9754 Y13.5969
G01 X62.7919 Y13.0717
G01 X62.7883 Y13.0575
G01 X62.7857 Y13.0431
G01 X62.7842 Y13.0285
G01 X62.7838 Y13.0187
G01 X62.7838 Y13.0090
G01 X62.7848 Y12.9943
G01 X62.7869 Y12.9798
G01 X62.7900 Y12.9655
G01 X62.7941 Y12.9514
G01 X62.7993 Y12.9377
G01 X62.8055 Y12.9244
G01 X62.8126 Y12.9115
G01 X62.8206 Y12.8993
G01 X62.8296 Y12.8876
G01 X62.8393 Y12.8767
G01 X62.8535 Y12.8632
G01 X62.8650 Y12.8541
G01 X62.8771 Y12.8458
G01 X62.8941 Y12.8362
G01 X62.9075 Y12.8301
G01 X62.9212 Y12.8250
G01 X62.9353 Y12.8210
G01 X62.9497 Y12.8179
G01 X62.9642 Y12.8160
G01 X62.9837 Y12.8150
G01 X64.3649 Y12.8150
G01 X64.3797 Y12.8156
G01 X64.3896 Y12.8165
G01 X64.3993 Y12.8180
G01 X64.4138 Y12.8211
G01 X64.4327 Y12.8268
G01 X64.4509 Y12.8344
G01 X64.4597 Y12.8389
G01 X64.4725 Y12.8464
G01 X64.4886 Y12.8578
G01 X64.4999 Y12.8674
G01 X64.5070 Y12.8742
G01 X64.5202 Y12.8889
G01 X64.5262 Y12.8968
G01 X64.5345 Y12.9090
G01 X64.5441 Y12.9262
G01 X64.5483 Y12.9352
G01 X64.5537 Y12.9490
G01 X64.7341 Y13.4648
G00 Z3.0000
G00 X66.9646 Y14.3905
G01 F60.00
G01 Z-0.1000
G01 F70.00
G01 X66.9693 Y14.3812
G01 X66.9766 Y14.3688
G01 X66.9848 Y14.3569
G01 X66.9938 Y14.3456
G01 X67.0916 Y14.2374
G01 X67.1052 Y14.2237
G01 X67.1162 Y14.2144
G01 X67.1279 Y14.2059
G01 X67.2407 Y14.1295
G01 X67.2572 Y14.1194
G01 X67.2702 Y14.1129
G01 X67.2837 Y14.1074
G01 X67.4068 Y14.0621
G01 X67.4159 Y14.0589
G01 X67.4299 Y14.0551
G01 X67.4393 Y14.0531
G01 X67.4536 Y14.0510
G01 X67.5905 Y14.0355
G01 X67.6004 Y14.0347
G01 X67.6152 Y14.0343
G01 X67.6349 Y14.0355
G01 X67.7747 Y14.0510
G01 X67.7842 Y14.0522
G01 X67.7982 Y14.0550
G01 X67.8120 Y14.0587
G01 X67.8210 Y14.0618
G01 X67.9456 Y14.1070
G01 X67.9634 Y14.1145
G01 X67.9763 Y14.1213
G01 X67.9887 Y14.1289
G01 X68.1055 Y14.2074
G01 X68.1168 Y14.2160
G01 X68.1275 Y14.2254
G01 X68.1374 Y14.2355
G01 X68.2333 Y14.3399
G01 X68.2428 Y14.3511
G01 X68.2515 Y14.3630
G01 X68.2617 Y14.3798
G01 X68.2835 Y14.4245
G01 X68.2847 Y14.4117
G01 X68.2730 Y14.3192
G01 X68.2313 Y14.2060
G01 X68.1452 Y14.0627
G01 X67.9992 Y13.8863
G01 X67.7769 Y13.6745
G01 X67.4598 Y13.4248
G01 X67.1657 Y13.2385
G01 X66.8807 Y13.1015
G01 X66.8677 Y13.0946
G01 X66.8513 Y13.0841
G01 X66.8397 Y13.0752
G01 X66.8323 Y13.0687
G01 X66.8186 Y13.0549
G01 X66.8063 Y13.0397
G01 X66.7980 Y13.0276
G01 X66.7907 Y13.0149
G01 X66.7824 Y12.9972
G01 X66.7773 Y12.9835
G01 X66.5996 Y12.3926
G01 X66.5949 Y12.3736
G01 X66.5933 Y12.3639
G01 X66.5917 Y12.3493
G01 X66.5912 Y12.3346
G01 X66.5914 Y12.3248
G01 X66.5927 Y12.3102
G01 X66.5942 Y12.3005
G01 X66.5973 Y12.2861
G01 X66.5999 Y12.2767
G01 X66.6030 Y12.2674
G01 X66.6085 Y12.2537
G01 X66.6149 Y12.2405
G01 X66.6198 Y12.2320
G01 X66.6278 Y12.2197
G01 X66.6337 Y12.2118
G01 X66.6465 Y12.1970
G01 X66.6607 Y12.1835
G01 X66.6761 Y12.1714
G01 X66.6927 Y12.1610
G01 X66.7102 Y12.1522
G01 X66.7285 Y12.1451
G01 X66.7426 Y12.1410
G01 X66.7522 Y12.1389
G01 X66.7716 Y12.1360
G01 X66.7912 Y12.1351
G01 X68.9357 Y12.1351
G01 X68.9553 Y12.1366
G01 X68.9747 Y12.1399
G01 X68.9937 Y12.1452
G01 X69.0075 Y12.1504
G01 X69.0253 Y12.1588
G01 X69.0422 Y12.1690
G01 X69.0542 Y12.1777
G01 X69.0690 Y12.1906
G01 X69.0826 Y12.2049
G01 X69.0888 Y12.2125
G01 X69.0974 Y12.2245
G01 X69.1075 Y12.2414
G01 X69.1119 Y12.2503
G01 X69.1176 Y12.2639
G01 X69.3319 Y12.8710
G01 X69.3360 Y12.8852
G01 X69.3397 Y12.9044
G01 X69.3413 Y12.9190
G01 X69.3417 Y12.9386
G01 X69.3402 Y12.9581
G01 X69.3368 Y12.9774
G01 X69.3315 Y12.9962
G01 X69.3263 Y13.0100
G01 X69.3202 Y13.0233
G01 X69.3156 Y13.0320
G01 X69.3078 Y13.0444
G01 X69.3022 Y13.0524
G01 X69.2930 Y13.0639
G01 X69.2864 Y13.0711
G01 X69.2794 Y13.0780
G01 X69.2684 Y13.0878
G01 X69.2607 Y13.0938
G01 X69.2486 Y13.1021
G01 X69.2359 Y13.1094
G01 X69.2271 Y13.1138
G01 X69.2136 Y13.1196
G01 X69.2044 Y13.1229
G01 X69.1950 Y13.1257
G01 X69.1807 Y13.1291
G01 X69.1613 Y13.1320
G01 X69.1418 Y13.1330
G01 X68.6690 Y13.1330
G01 X68.6807 Y13.1400
G01 X68.6932 Y13.1487
G01 X68.9459 Y13.3393
G01 X68.9565 Y13.3488
G01 X69.1723 Y13.5558
G01 X69.1827 Y13.5665
G01 X69.1922 Y13.5780
G01 X69.3491 Y13.7815
G01 X69.3603 Y13.7975
G01 X69.3676 Y13.8102
G01 X69.4740 Y14.0120
G01 X69.4802 Y14.0248
G01 X69.4870 Y14.0424
G01 X69.5517 Y14.2545
G01 X69.5552 Y14.2689
G01 X69.5581 Y14.2885
G01 X69.5786 Y14.4958
G01 X69.5793 Y14.5060
G01 X69.5795 Y14.5163
G01 X69.5792 Y14.5266
G01 X69.5784 Y14.5368
G01 X69.5574 Y14.7319
G01 X69.5538 Y14.7514
G01 X69.5484 Y14.7704
G01 X69.4889 Y14.9313
G01 X69.4852 Y14.9404
G01 X69.4789 Y14.9536
G01 X69.4716 Y14.9664
G01 X69.4635 Y14.9785
G01 X69.3704 Y15.1068
G01 X69.3613 Y15.1184
G01 X69.3514 Y15.1293
G01 X69.3444 Y15.1361
G01 X69.3332 Y15.1457
G01 X69.2008 Y15.2512
G01 X69.1892 Y15.2598
G01 X69.1812 Y15.2650
G01 X69.1686 Y15.2722
G01 X69.1600 Y15.2764
G01 X68.9798 Y15.3596
G01 X68.9653 Y15.3656
G01 X68.9554 Y15.3690
G01 X68.9453 Y15.3719
G01 X68.7718 Y15.4160
G01 X68.7571 Y15.4192
G01 X68.4939 Y15.4522
G01 X68.4760 Y15.4536
G01 X68.1153 Y15.4660
G01 X67.7596 Y15.4539
G01 X67.7456 Y15.4526
G01 X67.5054 Y15.4215
G01 X67.4874 Y15.4175
G01 X67.3337 Y15.3755
G01 X67.3156 Y15.3691
G01 X67.3025 Y15.3631
G01 X67.1512 Y15.2832
G01 X67.1390 Y15.2758
G01 X67.1274 Y15.2675
G01 X67.1163 Y15.2584
G01 X67.1094 Y15.2519
G01 X67.0058 Y15.1461
G01 X66.9963 Y15.1353
G01 X66.9877 Y15.1238
G01 X66.9799 Y15.1117
G01 X66.9730 Y15.0990
G01 X66.9120 Y14.9692
G01 X66.9064 Y14.9561
G01 X66.9032 Y14.9471
G01 X66.8992 Y14.9335
G01 X66.8971 Y14.9242
G01 X66.8947 Y14.9101
G01 X66.8731 Y14.7446
G01 X66.8720 Y14.7250
G01 X66.8728 Y14.7054
G01 X66.8925 Y14.5640
G01 X66.8952 Y14.5492
G01 X66.8990 Y14.5345
G01 X66.9039 Y14.5203
G01 X66.9077 Y14.5110
G01 X66.9646 Y14.3905
G00 Z3.0000
G00 X69.8918 Y12.6888
G01 F60.00
G01 Z-0.1000
G01 F70.00
G01 X69.9020 Y12.6731
G01 X69.9110 Y12.6615
G01 X70.0325 Y12.5172
G01 X70.0452 Y12.5034
G01 X70.0556 Y12.4939
G01 X70.1990 Y12.3713
G01 X70.2103 Y12.3623
G01 X70.2264 Y12.3517
G01 X70.3863 Y12.2561
G01 X70.4031 Y12.2471
G01 X70.4163 Y12.2414
G01 X70.5949 Y12.1718
G01 X70.6100 Y12.1667
G01 X70.6254 Y12.1627
G01 X70.8260 Y12.1194
G01 X70.8355 Y12.1176
G01 X70.8500 Y12.1158
G01 X71.0812 Y12.1003
G01 X71.0951 Y12.0999
G01 X71.1090 Y12.1004
G01 X71.3878 Y12.1207
G01 X71.4036 Y12.1225
G01 X71.4192 Y12.1256
G01 X71.6723 Y12.1854
G01 X71.6863 Y12.1896
G01 X71.7000 Y12.1949
G01 X71.9228 Y12.2899
G01 X71.9365 Y12.2964
G01 X71.9454 Y12.3013
G01 X71.9539 Y12.3066
G01 X72.1551 Y12.4383
G01 X72.1670 Y12.4467
G01 X72.1786 Y12.4564
G01 X72.3645 Y12.6307
G01 X72.3744 Y12.6406
G01 X72.3864 Y12.6548
G01 X72.5331 Y12.8461
G01 X72.5420 Y12.8588
G01 X72.5500 Y12.8721
G01 X72.6645 Y13.0823
G01 X72.6713 Y13.0961
G01 X72.6771 Y13.1103
G01 X72.7604 Y13.3419
G01 X72.7648 Y13.3559
G01 X72.7683 Y13.3702
G01 X72.8198 Y13.6267
G01 X72.8226 Y13.6446
G01 X72.8413 Y13.9391
G01 X72.8416 Y13.9493
G01 X72.8412 Y13.9646
G01 X72.8264 Y14.1926
G01 X72.8249 Y14.2068
G01 X72.8225 Y14.2209
G01 X72.7798 Y14.4232
G01 X72.7774 Y14.4333
G01 X72.7744 Y14.4433
G01 X72.7710 Y14.4530
G01 X72.7023 Y14.6336
G01 X72.6951 Y14.6501
G01 X72.6882 Y14.6631
G01 X72.5940 Y14.8250
G01 X72.5837 Y14.8409
G01 X72.5750 Y14.8521
G01 X72.4481 Y15.0046
G01 X72.4383 Y15.0146
G01 X72.4314 Y15.0209
G01 X72.2887 Y15.1446
G01 X72.2734 Y15.1566
G01 X72.2612 Y15.1646
G01 X72.1017 Y15.2610
G01 X72.0848 Y15.2702
G01 X72.0715 Y15.2760
G01 X71.8929 Y15.3463
G01 X71.8755 Y15.3522
G01 X71.8622 Y15.3556
G01 X71.6613 Y15.3993
G01 X71.6468 Y15.4019
G01 X71.6322 Y15.4034
G01 X71.3956 Y15.4190
G01 X71.3768 Y15.4185
G01 X71.1003 Y15.3980
G01 X71.0865 Y15.3966
G01 X71.0685 Y15.3931
G01 X70.8213 Y15.3340
G01 X70.8071 Y15.3300
G01 X70.7886 Y15.3231
G01 X70.5661 Y15.2270
G01 X70.5514 Y15.2199
G01 X70.5350 Y15.2102
G01 X70.3333 Y15.0767
G01 X70.3212 Y15.0681
G01 X70.3098 Y15.0586
G01 X70.1228 Y14.8816
G01 X70.1118 Y14.8704
G01 X70.1017 Y14.8583
G01 X69.9532 Y14.6650
G01 X69.9442 Y14.6524
G01 X69.9363 Y14.6392
G01 X69.8206 Y14.4279
G01 X69.8138 Y14.4142
G01 X69.8080 Y14.4000
G01 X69.7240 Y14.1682
G01 X69.7195 Y14.1542
G01 X69.7161 Y14.1399
G01 X69.6633 Y13.8798
G01 X69.6619 Y13.8708
G01 X69.6606 Y13.8572
G01 X69.6427 Y13.5739
G01 X69.6423 Y13.5636
G01 X69.6427 Y13.5482
G01 X69.6577 Y13.3202
G01 X69.6591 Y13.3059
G01 X69.6607 Y13.2964
G01 X69.7046 Y13.0896
G01 X69.7085 Y13.0744
G01 X69.7135 Y13.0595
G01 X69.7826 Y12.8796
G01 X69.7882 Y12.8665
G01 X69.7970 Y12.8498
G01 X69.8918 Y12.6888
G00 Z3.0000
G00 X70.9738 Y12.9428
G01 F60.00
G01 Z-0.1000
G01 F70.00
G01 X70.9974 Y12.9183
G01 X71.0208 Y12.9065
G01 X71.0620 Y12.9007
G01 X71.1214 Y12.9102
G01 X71.1797 Y12.9405
G01 X71.2509 Y13.0096
G01 X71.3350 Y13.1412
G01 X71.4255 Y13.3595
G01 X71.5031 Y13.6373
G01 X71.5491 Y13.9131
G01 X71.5642 Y14.1862
G01 X71.5518 Y14.3772
G01 X71.5238 Y14.4939
G01 X71.4938 Y14.5536
G01 X71.4706 Y14.5779
G01 X71.4485 Y14.5892
G01 X71.4096 Y14.5947
G01 X71.3514 Y14.5854
G01 X71.2936 Y14.5552
G01 X71.2223 Y14.4859
G01 X71.1375 Y14.3533
G01 X71.0459 Y14.1335
G01 X70.9658 Y13.8512
G01 X70.9188 Y13.5751
G01 X70.9034 Y13.3052
G01 X70.9159 Y13.1168
G01 X70.9438 Y13.0018
G01 X70.9738 Y12.9428
G00 Z3.0000
G00 X73.2163 Y14.3905
G01 F60.00
G01 Z-0.1000
G01 F70.00
G01 X73.2210 Y14.3812
G01 X73.2283 Y14.3688
G01 X73.2365 Y14.3569
G01 X73.2455 Y14.3456
G01 X73.3432 Y14.2374
G01 X73.3568 Y14.2237
G01 X73.3678 Y14.2144
G01 X73.3795 Y14.2059
G01 X73.4923 Y14.1295
G01 X73.5089 Y14.1194
G01 X73.5219 Y14.1129
G01 X73.5353 Y14.1074
G01 X73.6585 Y14.0621
G01 X73.6676 Y14.0589
G01 X73.6815 Y14.0551
G01 X73.6909 Y14.0531
G01 X73.7052 Y14.0510
G01 X73.8422 Y14.0355
G01 X73.8520 Y14.0347
G01 X73.8668 Y14.0343
G01 X73.8866 Y14.0355
G01 X74.0264 Y14.0510
G01 X74.0358 Y14.0522
G01 X74.0499 Y14.0550
G01 X74.0591 Y14.0574
G01 X74.0727 Y14.0618
G01 X74.1972 Y14.1070
G01 X74.2107 Y14.1125
G01 X74.2280 Y14.1213
G01 X74.2403 Y14.1289
G01 X74.3571 Y14.2074
G01 X74.3684 Y14.2160
G01 X74.3791 Y14.2254
G01 X74.3891 Y14.2355
G01 X74.4849 Y14.3399
G01 X74.4945 Y14.3511
G01 X74.5032 Y14.3630
G01 X74.5134 Y14.3798
G01 X74.5351 Y14.4245
G01 X74.5364 Y14.4117
G01 X74.5247 Y14.3192
G01 X74.4829 Y14.2060
G01 X74.3968 Y14.0627
G01 X74.2508 Y13.8863
G01 X74.0285 Y13.6745
G01 X73.7114 Y13.4248
G01 X73.4173 Y13.2385
G01 X73.1323 Y13.1015
G01 X73.1194 Y13.0946
G01 X73.1029 Y13.0841
G01 X73.0913 Y13.0752
G01 X73.0840 Y13.0687
G01 X73.0702 Y13.0549
G01 X73.0579 Y13.0397
G01 X73.0497 Y13.0276
G01 X73.0423 Y13.0149
G01 X73.0340 Y12.9972
G01 X73.0290 Y12.9835
G01 X72.8513 Y12.3926
G01 X72.8466 Y12.3736
G01 X72.8449 Y12.3639
G01 X72.8433 Y12.3493
G01 X72.8428 Y12.3346
G01 X72.8431 Y12.3248
G01 X72.8444 Y12.3102
G01 X72.8458 Y12.3005
G01 X72.8489 Y12.2861
G01 X72.8515 Y12.2767
G01 X72.8546 Y12.2674
G01 X72.8601 Y12.2537
G01 X72.8666 Y12.2405
G01 X72.8714 Y12.2320
G01 X72.8794 Y12.2197
G01 X72.8853 Y12.2118
G01 X72.8981 Y12.1970
G01 X72.9123 Y12.1835
G01 X72.9278 Y12.1714
G01 X72.9444 Y12.1610
G01 X72.9619 Y12.1522
G01 X72.9802 Y12.1451
G01 X72.9943 Y12.1410
G01 X73.0038 Y12.1389
G01 X73.0232 Y12.1360
G01 X73.0428 Y12.1351
G01 X75.1873 Y12.1351
G01 X75.2070 Y12.1366
G01 X75.2264 Y12.1399
G01 X75.2453 Y12.1452
G01 X75.2592 Y12.1504
G01 X75.2770 Y12.1588
G01 X75.2938 Y12.1690
G01 X75.3058 Y12.1777
G01 X75.3207 Y12.1906
G01 X75.3342 Y12.2049
G01 X75.3404 Y12.2125
G01 X75.3491 Y12.2245
G01 X75.3591 Y12.2414
G01 X75.3656 Y12.2547
G01 X75.3693 Y12.2639
G01 X75.5836 Y12.8710
G01 X75.5876 Y12.8852
G01 X75.5914 Y12.9044
G01 X75.5929 Y12.9190
G01 X75.5933 Y12.9386
G01 X75.5918 Y12.9581
G01 X75.5884 Y12.9774
G01 X75.5831 Y12.9962
G01 X75.5780 Y13.0100
G01 X75.5740 Y13.0189
G01 X75.5672 Y13.0320
G01 X75.5595 Y13.0444
G01 X75.5538 Y13.0524
G01 X75.5446 Y13.0639
G01 X75.5380 Y13.0711
G01 X75.5311 Y13.0780
G01 X75.5200 Y13.0878
G01 X75.5123 Y13.0938
G01 X75.5002 Y13.1021
G01 X75.4875 Y13.1094
G01 X75.4787 Y13.1138
G01 X75.4652 Y13.1196
G01 X75.4560 Y13.1229
G01 X75.4466 Y13.1257
G01 X75.4323 Y13.1291
G01 X75.4130 Y13.1320
G01 X75.3934 Y13.1330
G01 X74.9207 Y13.1330
G01 X74.9323 Y13.1400
G01 X74.9449 Y13.1487
G01 X75.1975 Y13.3393
G01 X75.2082 Y13.3488
G01 X75.4239 Y13.5558
G01 X75.4343 Y13.5665
G01 X75.4439 Y13.5780
G01 X75.6007 Y13.7815
G01 X75.6119 Y13.7975
G01 X75.6192 Y13.8102
G01 X75.7257 Y14.0120
G01 X75.7318 Y14.0248
G01 X75.7386 Y14.0424
G01 X75.8034 Y14.2545
G01 X75.8068 Y14.2689
G01 X75.8097 Y14.2885
G01 X75.8302 Y14.4958
G01 X75.8310 Y14.5060
G01 X75.8312 Y14.5163
G01 X75.8309 Y14.5266
G01 X75.8300 Y14.5368
G01 X75.8090 Y14.7319
G01 X75.8055 Y14.7514
G01 X75.8000 Y14.7704
G01 X75.7405 Y14.9313
G01 X75.7368 Y14.9404
G01 X75.7305 Y14.9536
G01 X75.7233 Y14.9664
G01 X75.7151 Y14.9785
G01 X75.6221 Y15.1068
G01 X75.6130 Y15.1184
G01 X75.6031 Y15.1293
G01 X75.5960 Y15.1361
G01 X75.5848 Y15.1457
G01 X75.4525 Y15.2512
G01 X75.4409 Y15.2598
G01 X75.4328 Y15.2650
G01 X75.4245 Y15.2699
G01 X75.4116 Y15.2764
G01 X75.2314 Y15.3596
G01 X75.2169 Y15.3656
G01 X75.2070 Y15.3690
G01 X75.1969 Y15.3719
G01 X75.0235 Y15.4160
G01 X75.0087 Y15.4192
G01 X74.7455 Y15.4522
G01 X74.7277 Y15.4536
G01 X74.3669 Y15.4660
G01 X74.0112 Y15.4539
G01 X73.9973 Y15.4526
G01 X73.7570 Y15.4215
G01 X73.7390 Y15.4175
G01 X73.5854 Y15.3755
G01 X73.5717 Y15.3708
G01 X73.5541 Y15.3631
G01 X73.4029 Y15.2832
G01 X73.3907 Y15.2758
G01 X73.3828 Y15.2704
G01 X73.3716 Y15.2615
G01 X73.3610 Y15.2519
G01 X73.2574 Y15.1461
G01 X73.2480 Y15.1353
G01 X73.2393 Y15.1238
G01 X73.2316 Y15.1117
G01 X73.2247 Y15.0990
G01 X73.1636 Y14.9692
G01 X73.1580 Y14.9561
G01 X73.1548 Y14.9471
G01 X73.1508 Y14.9335
G01 X73.1487 Y14.9242
G01 X73.1463 Y14.9101
G01 X73.1247 Y14.7446
G01 X73.1236 Y14.7250
G01 X73.1245 Y14.7054
G01 X73.1442 Y14.5640
G01 X73.1468 Y14.5492
G01 X73.1506 Y14.5345
G01 X73.1555 Y14.5203
G01 X73.1593 Y14.5110
G01 X73.2163 Y14.3905
G00 Z3.0000
G00 X75.9848 Y12.9154
G01 F60.00
G01 Z-0.1000
G01 F70.00
G01 X75.9908 Y12.8972
G01 X75.9947 Y12.8878
G01 X75.9991 Y12.8786
G01 X76.0806 Y12.7181
G01 X76.0909 Y12.7012
G01 X76.0996 Y12.6892
G01 X76.2112 Y12.5477
G01 X76.2234 Y12.5336
G01 X76.2369 Y12.5207
G01 X76.3846 Y12.3920
G01 X76.3996 Y12.3801
G01 X76.4116 Y12.3722
G01 X76.5985 Y12.2578
G01 X76.6111 Y12.2507
G01 X76.6286 Y12.2427
G01 X76.8357 Y12.1598
G01 X76.8487 Y12.1551
G01 X76.8666 Y12.1503
G01 X77.0973 Y12.0990
G01 X77.1170 Y12.0956
G01 X77.3855 Y12.0769
G01 X77.3995 Y12.0764
G01 X77.4135 Y12.0769
G01 X77.6909 Y12.0967
G01 X77.7063 Y12.0984
G01 X77.7216 Y12.1013
G01 X77.9685 Y12.1583
G01 X77.9824 Y12.1620
G01 X78.0005 Y12.1685
G01 X78.2217 Y12.2606
G01 X78.2396 Y12.2692
G01 X78.2525 Y12.2767
G01 X78.4518 Y12.4041
G01 X78.4636 Y12.4123
G01 X78.4715 Y12.4184
G01 X78.4790 Y12.4250
G01 X78.6319 Y12.5648
G01 X78.6395 Y12.5721
G01 X78.6501 Y12.5837
G01 X78.6566 Y12.5919
G01 X78.7727 Y12.7458
G01 X78.7836 Y12.7617
G01 X78.7929 Y12.7786
G01 X78.8757 Y12.9484
G01 X78.8815 Y12.9615
G01 X78.8878 Y12.9796
G01 X78.9398 Y13.1730
G01 X78.9432 Y13.1881
G01 X78.9454 Y13.2033
G01 X78.9635 Y13.4206
G01 X78.9641 Y13.4348
G01 X78.9634 Y13.4537
G01 X78.9495 Y13.6188
G01 X78.9472 Y13.6325
G01 X78.9440 Y13.6460
G01 X78.9067 Y13.7817
G01 X78.9005 Y13.8005
G01 X78.8966 Y13.8099
G01 X78.8922 Y13.8191
G01 X78.8319 Y13.9382
G01 X78.8270 Y13.9472
G01 X78.8217 Y13.9560
G01 X78.8129 Y13.9686
G01 X78.7256 Y14.0778
G01 X78.7192 Y14.0855
G01 X78.7123 Y14.0929
G01 X78.7051 Y14.0999
G01 X78.6975 Y14.1065
G01 X78.5941 Y14.1927
G01 X78.5792 Y14.2040
G01 X78.5632 Y14.2139
G01 X78.4370 Y14.2802
G01 X78.4228 Y14.2865
G01 X78.4082 Y14.2917
G01 X78.2689 Y14.3313
G01 X78.2503 Y14.3356
G01 X78.2314 Y14.3382
G01 X78.0764 Y14.3515
G01 X78.0569 Y14.3522
G01 X78.0374 Y14.3510
G01 X77.8975 Y14.3356
G01 X77.8834 Y14.3336
G01 X77.8695 Y14.3305
G01 X77.8514 Y14.3249
G01 X77.7269 Y14.2799
G01 X77.7135 Y14.2745
G01 X77.7047 Y14.2703
G01 X77.6962 Y14.2658
G01 X77.6838 Y14.2581
G01 X77.5669 Y14.1800
G01 X77.5588 Y14.1740
G01 X77.5511 Y14.1676
G01 X77.5437 Y14.1608
G01 X77.5366 Y14.1537
G01 X77.4389 Y14.0449
G01 X77.4295 Y14.0337
G01 X77.4237 Y14.0258
G01 X77.4183 Y14.0176
G01 X77.4110 Y14.0049
G01 X77.3516 Y13.8784
G01 X77.3458 Y13.8646
G01 X77.3410 Y13.8504
G01 X77.3373 Y13.8359
G01 X77.3355 Y13.8261
G01 X77.3160 Y13.6862
G01 X77.3149 Y13.6762
G01 X77.3141 Y13.6611
G01 X77.3143 Y13.6510
G01 X77.3154 Y13.6359
G01 X77.3354 Y13.4938
G01 X77.3384 Y13.4791
G01 X77.3410 Y13.4694
G01 X77.3459 Y13.4551
G01 X77.3518 Y13.4413
G01 X77.4083 Y13.3215
G01 X77.4129 Y13.3127
G01 X77.4207 Y13.3000
G01 X77.4293 Y13.2879
G01 X77.4389 Y13.2765
G01 X77.5401 Y13.1644
G01 X77.5544 Y13.1513
G01 X77.5659 Y13.1424
G01 X77.6895 Y13.0588
G01 X77.7021 Y13.0518
G01 X77.7151 Y13.0456
G01 X77.7795 Y13.0215
G01 X77.7331 Y12.9595
G01 X77.6765 Y12.9168
G01 X77.6011 Y12.8882
G01 X77.4907 Y12.8761
G01 X77.4102 Y12.8843
G01 X77.3494 Y12.9050
G01 X77.2995 Y12.9373
G01 X77.2531 Y12.9865
G01 X77.2065 Y13.0664
G01 X77.1756 Y13.1676
G01 X77.1634 Y13.3027
G01 X77.1773 Y13.4839
G01 X77.2202 Y13.6692
G01 X77.2948 Y13.8610
G01 X77.4059 Y14.0620
G01 X77.5590 Y14.2739
G01 X77.7510 Y14.4866
G01 X78.0305 Y14.7468
G01 X78.4209 Y15.0638
G01 X78.4284 Y15.0702
G01 X78.4390 Y15.0804
G01 X78.4519 Y15.0953
G01 X78.4606 Y15.1072
G01 X78.4708 Y15.1240
G01 X78.4793 Y15.1417
G01 X78.4845 Y15.1556
G01 X78.4898 Y15.1745
G01 X78.4932 Y15.1939
G01 X78.4948 Y15.2135
G01 X78.4946 Y15.2282
G01 X78.4928 Y15.2478
G01 X78.4890 Y15.2671
G01 X78.4849 Y15.2813
G01 X78.4779 Y15.2997
G01 X78.4691 Y15.3173
G01 X78.4614 Y15.3298
G01 X78.4497 Y15.3457
G01 X78.4365 Y15.3603
G01 X78.4219 Y15.3735
G01 X78.4102 Y15.3824
G01 X78.3936 Y15.3930
G01 X78.3760 Y15.4018
G01 X78.3577 Y15.4089
G01 X78.3387 Y15.4142
G01 X78.3194 Y15.4176
G01 X78.3047 Y15.4188
G01 X77.6977 Y15.4190
G01 X77.6829 Y15.4181
G01 X77.6635 Y15.4152
G01 X77.6491 Y15.4118
G01 X77.6304 Y15.4056
G01 X77.6168 Y15.3997
G01 X77.6080 Y15.3953
G01 X77.2764 Y15.2173
G01 X77.2676 Y15.2120
G01 X76.9789 Y15.0272
G01 X76.9698 Y15.0206
G01 X76.7177 Y14.8275
G01 X76.4946 Y14.6220
G01 X76.4852 Y14.6118
G01 X76.2868 Y14.3809
G01 X76.2781 Y14.3702
G01 X76.2703 Y14.3588
G01 X76.1237 Y14.1312
G01 X76.1159 Y14.1181
G01 X76.1092 Y14.1043
G01 X76.0083 Y13.8781
G01 X76.0031 Y13.8650
G01 X76.0001 Y13.8561
G01 X75.9383 Y13.6197
G01 X75.9343 Y13.6007
G01 X75.9326 Y13.5863
G01 X75.9129 Y13.3549
G01 X75.9122 Y13.3403
G01 X75.9129 Y13.3209
G01 X75.9297 Y13.1257
G01 X75.9321 Y13.1072
G01 X75.9363 Y13.0891
G01 X75.9848 Y12.9154
G00 Z3.0000
G00 X79.0696 Y11.5137
G01 F60.00
G01 Z-0.1000
G01 F70.00
G01 X79.0696 Y20.6232
G01 X53.4567 Y20.6232
G01 X53.4567 Y11.5137
G01 X79.0696 Y11.5137
G00 Z3.0000
G00 X79.9419 Y6.6200
G01 F60.00
G01 Z-0.1000
G01 F70.00
G01 X79.9494 Y6.6019
G01 X79.9913 Y6.5131
G01 X80.0006 Y6.4958
G01 X80.0563 Y6.4034
G01 X80.1234 Y6.3126
G01 X80.1329 Y6.3013
G01 X80.1988 Y6.2286
G01 X80.2090 Y6.2181
G01 X80.2928 Y6.1424
G01 X80.3538 Y6.0969
G01 X80.3538 Y3.3860
G01 X80.2864 Y3.3113
G01 X80.2219 Y3.2248
G01 X80.2110 Y3.2084
G01 X80.1557 Y3.1157
G01 X80.1054 Y3.0093
G01 X80.0688 Y2.9077
G01 X80.0631 Y2.8889
G01 X80.0393 Y2.7937
G01 X80.0362 Y2.7793
G01 X80.0198 Y2.6677
G01 X80.0141 Y2.5550
G01 X80.0141 Y2.0451
G01 X80.0191 Y1.9422
G01 X80.0210 Y1.9227
G01 X80.0371 Y1.8159
G01 X80.0644 Y1.7064
G01 X80.0688 Y1.6924
G01 X80.1054 Y1.5909
G01 X80.1557 Y1.4844
G01 X80.2163 Y1.3834
G01 X80.2864 Y1.2888
G01 X80.3655 Y1.2015
G01 X80.4528 Y1.1224
G01 X80.5474 Y1.0523
G01 X80.6484 Y0.9917
G01 X80.7548 Y0.9414
G01 X80.8564 Y0.9048
G01 X80.8661 Y0.9016
G01 X80.9799 Y0.8731
G01 X81.0964 Y0.8558
G01 X81.2141 Y0.8501
G01 X81.3317 Y0.8558
G01 X81.4482 Y0.8731
G01 X81.5577 Y0.9004
G01 X81.5717 Y0.9048
G01 X81.6641 Y0.9379
G01 X81.6822 Y0.9454
G01 X81.7797 Y0.9917
G01 X81.8807 Y1.0523
G01 X81.9753 Y1.1224
G01 X82.0555 Y1.1948
G01 X82.0693 Y1.2086
G01 X82.1417 Y1.2888
G01 X82.2062 Y1.3753
G01 X82.2171 Y1.3917
G01 X82.2724 Y1.4844
G01 X82.3227 Y1.5908
G01 X82.3593 Y1.6924
G01 X82.3625 Y1.7021
G01 X82.3888 Y1.8064
G01 X82.3927 Y1.8256
G01 X82.4071 Y1.9227
G01 X82.4090 Y1.9422
G01 X82.4141 Y2.0500
G01 X82.4141 Y2.5500
G01 X82.4087 Y2.6628
G01 X82.4071 Y2.6774
G01 X82.3927 Y2.7745
G01 X82.3888 Y2.7937
G01 X82.3624 Y2.8984
G01 X82.3245 Y3.0047
G01 X82.3187 Y3.0182
G01 X82.2724 Y3.1157
G01 X82.2118 Y3.2167
G01 X82.1417 Y3.3113
G01 X82.0693 Y3.3915
G01 X82.0555 Y3.4053
G01 X81.9753 Y3.4777
G01 X81.8888 Y3.5422
G01 X81.8724 Y3.5531
G01 X81.7883 Y3.6035
G01 X81.7754 Y3.6106
G01 X81.7543 Y3.6206
G01 X81.7543 Y6.0969
G01 X81.8153 Y6.1424
G01 X81.8955 Y6.2148
G01 X81.9093 Y6.2286
G01 X81.9785 Y6.3050
G01 X81.9877 Y6.3165
G01 X82.0518 Y6.4034
G01 X82.1075 Y6.4958
G01 X82.1146 Y6.5087
G01 X82.1627 Y6.6108
G01 X82.1996 Y6.7131
G01 X82.2050 Y6.7312
G01 X82.2310 Y6.8359
G01 X82.2471 Y6.9427
G01 X82.2490 Y6.9622
G01 X82.2538 Y7.0602
G01 X82.2540 Y7.5750
G01 X82.2483 Y7.6877
G01 X82.2327 Y7.7945
G01 X82.2300 Y7.8090
G01 X82.2050 Y7.9089
G01 X82.1993 Y7.9277
G01 X82.1627 Y8.0293
G01 X82.1168 Y8.1270
G01 X82.1075 Y8.1443
G01 X82.0518 Y8.2367
G01 X81.9817 Y8.3313
G01 X81.9026 Y8.4186
G01 X81.8153 Y8.4977
G01 X81.7207 Y8.5678
G01 X81.6197 Y8.6284
G01 X81.5133 Y8.6787
G01 X81.4024 Y8.7184
G01 X81.2882 Y8.7470
G01 X81.1717 Y8.7643
G01 X81.0541 Y8.7700
G01 X80.9364 Y8.7643
G01 X80.8199 Y8.7470
G01 X80.7057 Y8.7184
G01 X80.5948 Y8.6787
G01 X80.4884 Y8.6284
G01 X80.3874 Y8.5678
G01 X80.2928 Y8.4977
G01 X80.2055 Y8.4186
G01 X80.1264 Y8.3313
G01 X80.0563 Y8.2367
G01 X80.0006 Y8.1443
G01 X79.9913 Y8.1270
G01 X79.9494 Y8.0382
G01 X79.9419 Y8.0201
G01 X79.9057 Y7.9184
G01 X79.8771 Y7.8042
G01 X79.8598 Y7.6877
G01 X79.8541 Y7.5750
G01 X79.8541 Y7.0700
G01 X79.8591 Y6.9622
G01 X79.8610 Y6.9427
G01 X79.8754 Y6.8456
G01 X79.8793 Y6.8264
G01 X79.9057 Y6.7217
G01 X79.9419 Y6.6200
G00 Z3.0000
G00 X82.4819 Y6.6200
G01 F60.00
G01 Z-0.1000
G01 F70.00
G01 X82.4894 Y6.6019
G01 X82.5357 Y6.5044
G01 X82.5963 Y6.4034
G01 X82.6664 Y6.3088
G01 X82.7388 Y6.2286
G01 X82.7526 Y6.2148
G01 X82.8328 Y6.1424
G01 X82.9193 Y6.0779
G01 X82.9357 Y6.0670
G01 X83.0198 Y6.0166
G01 X83.0327 Y6.0095
G01 X83.0538 Y5.9995
G01 X83.0538 Y3.5232
G01 X83.0005 Y3.4837
G01 X82.9890 Y3.4745
G01 X82.9126 Y3.4053
G01 X82.9021 Y3.3951
G01 X82.8264 Y3.3113
G01 X82.7619 Y3.2248
G01 X82.7536 Y3.2126
G01 X82.6957 Y3.1157
G01 X82.6454 Y3.0093
G01 X82.6057 Y2.8984
G01 X82.5793 Y2.7937
G01 X82.5754 Y2.7745
G01 X82.5598 Y2.6677
G01 X82.5541 Y2.5550
G01 X82.5541 Y2.0451
G01 X82.5591 Y1.9422
G01 X82.5610 Y1.9227
G01 X82.5771 Y1.8159
G01 X82.6044 Y1.7064
G01 X82.6088 Y1.6924
G01 X82.6454 Y1.5909
G01 X82.6957 Y1.4844
G01 X82.7563 Y1.3834
G01 X82.8264 Y1.2888
G01 X82.9055 Y1.2015
G01 X82.9928 Y1.1224
G01 X83.0874 Y1.0523
G01 X83.1884 Y0.9917
G01 X83.2948 Y0.9414
G01 X83.3964 Y0.9048
G01 X83.4061 Y0.9016
G01 X83.5199 Y0.8731
G01 X83.6364 Y0.8558
G01 X83.7541 Y0.8501
G01 X83.8717 Y0.8558
G01 X83.9882 Y0.8731
G01 X84.0977 Y0.9004
G01 X84.1117 Y0.9048
G01 X84.2041 Y0.9379
G01 X84.2222 Y0.9454
G01 X84.3197 Y0.9917
G01 X84.4207 Y1.0523
G01 X84.5153 Y1.1224
G01 X84.5955 Y1.1948
G01 X84.6093 Y1.2086
G01 X84.6817 Y1.2888
G01 X84.7462 Y1.3753
G01 X84.7571 Y1.3917
G01 X84.8124 Y1.4844
G01 X84.8627 Y1.5908
G01 X84.8993 Y1.6924
G01 X84.9025 Y1.7021
G01 X84.9288 Y1.8064
G01 X84.9327 Y1.8256
G01 X84.9471 Y1.9227
G01 X84.9490 Y1.9422
G01 X84.9541 Y2.0500
G01 X84.9538 Y2.5599
G01 X84.9483 Y2.6677
G01 X84.9327 Y2.7745
G01 X84.9288 Y2.7937
G01 X84.9024 Y2.8984
G01 X84.8627 Y3.0093
G01 X84.8168 Y3.1070
G01 X84.8075 Y3.1243
G01 X84.7571 Y3.2084
G01 X84.7490 Y3.2208
G01 X84.6817 Y3.3113
G01 X84.6060 Y3.3951
G01 X84.5955 Y3.4053
G01 X84.5191 Y3.4745
G01 X84.5076 Y3.4837
G01 X84.4543 Y3.5232
G01 X84.4543 Y6.2341
G01 X84.5217 Y6.3088
G01 X84.5918 Y6.4034
G01 X84.6524 Y6.5044
G01 X84.7027 Y6.6108
G01 X84.7393 Y6.7124
G01 X84.7425 Y6.7221
G01 X84.7710 Y6.8359
G01 X84.7883 Y6.9524
G01 X84.7940 Y7.0651
G01 X84.7940 Y7.5750
G01 X84.7883 Y7.6877
G01 X84.7727 Y7.7945
G01 X84.7700 Y7.8090
G01 X84.7450 Y7.9089
G01 X84.7393 Y7.9277
G01 X84.7027 Y8.0293
G01 X84.6568 Y8.1270
G01 X84.6475 Y8.1443
G01 X84.5918 Y8.2367
G01 X84.5217 Y8.3313
G01 X84.4426 Y8.4186
G01 X84.3553 Y8.4977
G01 X84.2607 Y8.5678
G01 X84.1597 Y8.6284
G01 X84.0533 Y8.6787
G01 X83.9424 Y8.7184
G01 X83.8282 Y8.7470
G01 X83.7117 Y8.7643
G01 X83.5941 Y8.7700
G01 X83.4764 Y8.7643
G01 X83.3599 Y8.7470
G01 X83.2457 Y8.7184
G01 X83.1348 Y8.6787
G01 X83.0284 Y8.6284
G01 X82.9274 Y8.5678
G01 X82.8328 Y8.4977
G01 X82.7455 Y8.4186
G01 X82.6664 Y8.3313
G01 X82.5963 Y8.2367
G01 X82.5406 Y8.1443
G01 X82.5313 Y8.1270
G01 X82.4894 Y8.0382
G01 X82.4819 Y8.0201
G01 X82.4457 Y7.9184
G01 X82.4171 Y7.8042
G01 X82.3998 Y7.6877
G01 X82.3941 Y7.5750
G01 X82.3941 Y7.0700
G01 X82.3991 Y6.9622
G01 X82.4010 Y6.9427
G01 X82.4154 Y6.8456
G01 X82.4193 Y6.8264
G01 X82.4457 Y6.7217
G01 X82.4819 Y6.6200
G00 Z3.0000
G00 X85.0219 Y6.6200
G01 F60.00
G01 Z-0.1000
G01 F70.00
G01 X85.0294 Y6.6019
G01 X85.0713 Y6.5131
G01 X85.0806 Y6.4958
G01 X85.1363 Y6.4034
G01 X85.2034 Y6.3126
G01 X85.2129 Y6.3013
G01 X85.2788 Y6.2286
G01 X85.2890 Y6.2181
G01 X85.3728 Y6.1424
G01 X85.4338 Y6.0969
G01 X85.4338 Y3.3860
G01 X85.3664 Y3.3113
G01 X85.3019 Y3.2248
G01 X85.2910 Y3.2084
G01 X85.2357 Y3.1157
G01 X85.1854 Y3.0093
G01 X85.1488 Y2.9077
G01 X85.1431 Y2.8889
G01 X85.1193 Y2.7937
G01 X85.1162 Y2.7793
G01 X85.0998 Y2.6677
G01 X85.0941 Y2.5550
G01 X85.0941 Y2.0451
G01 X85.0991 Y1.9422
G01 X85.1010 Y1.9227
G01 X85.1171 Y1.8159
G01 X85.1444 Y1.7064
G01 X85.1488 Y1.6924
G01 X85.1854 Y1.5909
G01 X85.2357 Y1.4844
G01 X85.2963 Y1.3834
G01 X85.3664 Y1.2888
G01 X85.4455 Y1.2015
G01 X85.5328 Y1.1224
G01 X85.6274 Y1.0523
G01 X85.7284 Y0.9917
G01 X85.8348 Y0.9414
G01 X85.9364 Y0.9048
G01 X85.9461 Y0.9016
G01 X86.0599 Y0.8731
G01 X86.1764 Y0.8558
G01 X86.2941 Y0.8501
G01 X86.4117 Y0.8558
G01 X86.5282 Y0.8731
G01 X86.6377 Y0.9004
G01 X86.6517 Y0.9048
G01 X86.7441 Y0.9379
G01 X86.7622 Y0.9454
G01 X86.8597 Y0.9917
G01 X86.9607 Y1.0523
G01 X87.0553 Y1.1224
G01 X87.1355 Y1.1948
G01 X87.1493 Y1.2086
G01 X87.2217 Y1.2888
G01 X87.2862 Y1.3753
G01 X87.2971 Y1.3917
G01 X87.3524 Y1.4844
G01 X87.4027 Y1.5908
G01 X87.4393 Y1.6924
G01 X87.4425 Y1.7021
G01 X87.4688 Y1.8064
G01 X87.4727 Y1.8256
G01 X87.4871 Y1.9227
G01 X87.4890 Y1.9422
G01 X87.4941 Y2.0500
G01 X87.4941 Y2.5500
G01 X87.4887 Y2.6628
G01 X87.4871 Y2.6774
G01 X87.4727 Y2.7745
G01 X87.4688 Y2.7937
G01 X87.4424 Y2.8984
G01 X87.4045 Y3.0047
G01 X87.3987 Y3.0182
G01 X87.3524 Y3.1157
G01 X87.2918 Y3.2167
G01 X87.2217 Y3.3113
G01 X87.1493 Y3.3915
G01 X87.1355 Y3.4053
G01 X87.0553 Y3.4777
G01 X86.9688 Y3.5422
G01 X86.9524 Y3.5531
G01 X86.8683 Y3.6035
G01 X86.8554 Y3.6106
G01 X86.8343 Y3.6206
G01 X86.8343 Y6.0969
G01 X86.8953 Y6.1424
G01 X86.9755 Y6.2148
G01 X86.9893 Y6.2286
G01 X87.0585 Y6.3050
G01 X87.0677 Y6.3165
G01 X87.1318 Y6.4034
G01 X87.1875 Y6.4958
G01 X87.1946 Y6.5087
G01 X87.2427 Y6.6108
G01 X87.2796 Y6.7131
G01 X87.2850 Y6.7312
G01 X87.3110 Y6.8359
G01 X87.3271 Y6.9427
G01 X87.3290 Y6.9622
G01 X87.3338 Y7.0602
G01 X87.3340 Y7.5750
G01 X87.3283 Y7.6877
G01 X87.3127 Y7.7945
G01 X87.3100 Y7.8090
G01 X87.2850 Y7.9089
G01 X87.2793 Y7.9277
G01 X87.2427 Y8.0293
G01 X87.1968 Y8.1270
G01 X87.1875 Y8.1443
G01 X87.1318 Y8.2367
G01 X87.0617 Y8.3313
G01 X86.9826 Y8.4186
G01 X86.8953 Y8.4977
G01 X86.8007 Y8.5678
G01 X86.6997 Y8.6284
G01 X86.5933 Y8.6787
G01 X86.4824 Y8.7184
G01 X86.3682 Y8.7470
G01 X86.2517 Y8.7643
G01 X86.1341 Y8.7700
G01 X86.0164 Y8.7643
G01 X85.8999 Y8.7470
G01 X85.7857 Y8.7184
G01 X85.6749 Y8.6787
G01 X85.5684 Y8.6284
G01 X85.4674 Y8.5678
G01 X85.3728 Y8.4977
G01 X85.2855 Y8.4186
G01 X85.2064 Y8.3313
G01 X85.1363 Y8.2367
G01 X85.0806 Y8.1443
G01 X85.0713 Y8.1270
G01 X85.0294 Y8.0382
G01 X85.0219 Y8.0201
G01 X84.9857 Y7.9184
G01 X84.9571 Y7.8042
G01 X84.9398 Y7.6877
G01 X84.9341 Y7.5750
G01 X84.9341 Y7.0700
G01 X84.9391 Y6.9622
G01 X84.9410 Y6.9427
G01 X84.9554 Y6.8456
G01 X84.9593 Y6.8264
G01 X84.9857 Y6.7217
G01 X85.0219 Y6.6200
G00 Z3.0000
G00 X89.3741 Y5.9717
G01 F60.00
G01 Z-0.1000
G01 F70.00
G01 X89.5209 Y6.0785
G01 X89.6656 Y6.2232
G01 X89.6886 Y6.2542
G01 X89.7128 Y6.2819
G01 X89.7235 Y6.2923
G01 X89.7310 Y6.2987
G01 X89.7388 Y6.3048
G01 X89.7511 Y6.3131
G01 X89.7640 Y6.3205
G01 X89.8347 Y6.3576
G01 X89.8531 Y6.3650
G01 X89.8673 Y6.3694
G01 X89.8770 Y6.3718
G01 X89.8966 Y6.3750
G01 X89.9114 Y6.3761
G01 X89.9214 Y6.3762
G01 X89.9362 Y6.3755
G01 X90.0108 Y6.3690
G01 X90.0304 Y6.3659
G01 X90.0496 Y6.3608
G01 X90.0636 Y6.3557
G01 X90.0816 Y6.3474
G01 X90.0946 Y6.3400
G01 X90.1069 Y6.3316
G01 X90.1662 Y6.2860
G01 X90.1807 Y6.2737
G01 X90.1940 Y6.2600
G01 X90.2030 Y6.2490
G01 X90.2221 Y6.2228
G01 X90.3668 Y6.0781
G01 X90.5324 Y5.9578
G01 X90.7148 Y5.8648
G01 X90.9095 Y5.8016
G01 X91.1117 Y5.7695
G01 X91.3164 Y5.7695
G01 X91.5186 Y5.8016
G01 X91.7133 Y5.8648
G01 X91.8957 Y5.9578
G01 X92.0613 Y6.0781
G01 X92.2060 Y6.2228
G01 X92.2289 Y6.2538
G01 X92.2498 Y6.2779
G01 X92.2638 Y6.2918
G01 X92.2792 Y6.3043
G01 X92.2914 Y6.3127
G01 X92.3043 Y6.3201
G01 X92.3705 Y6.3550
G01 X92.3887 Y6.3629
G01 X92.4028 Y6.3677
G01 X92.4221 Y6.3723
G01 X92.4418 Y6.3750
G01 X92.4617 Y6.3758
G01 X92.4765 Y6.3751
G01 X92.5462 Y6.3691
G01 X92.5658 Y6.3664
G01 X92.5804 Y6.3631
G01 X92.5993 Y6.3571
G01 X92.6130 Y6.3514
G01 X92.6306 Y6.3421
G01 X92.6432 Y6.3341
G01 X92.6512 Y6.3282
G01 X92.7065 Y6.2856
G01 X92.7210 Y6.2732
G01 X92.7311 Y6.2631
G01 X92.7404 Y6.2523
G01 X92.7621 Y6.2228
G01 X92.9068 Y6.0781
G01 X93.0724 Y5.9578
G01 X93.2548 Y5.8648
G01 X93.4495 Y5.8016
G01 X93.6517 Y5.7695
G01 X93.8564 Y5.7695
G01 X94.0586 Y5.8016
G01 X94.2533 Y5.8648
G01 X94.4357 Y5.9578
G01 X94.6013 Y6.0781
G01 X94.7460 Y6.2228
G01 X94.8663 Y6.3884
G01 X94.9593 Y6.5708
G01 X95.0225 Y6.7655
G01 X95.0546 Y6.9677
G01 X95.0546 Y7.6724
G01 X95.0225 Y7.8746
G01 X94.9593 Y8.0693
G01 X94.8663 Y8.2517
G01 X94.7460 Y8.4173
G01 X94.6013 Y8.5620
G01 X94.4357 Y8.6823
G01 X94.2533 Y8.7753
G01 X94.0586 Y8.8385
G01 X93.8564 Y8.8706
G01 X93.6517 Y8.8706
G01 X93.4495 Y8.8385
G01 X93.2548 Y8.7753
G01 X93.0724 Y8.6823
G01 X92.9068 Y8.5620
G01 X92.7621 Y8.4173
G01 X92.7392 Y8.3863
G01 X92.7150 Y8.3586
G01 X92.7006 Y8.3450
G01 X92.6850 Y8.3329
G01 X92.6726 Y8.3249
G01 X92.6640 Y8.3201
G01 X92.6020 Y8.2874
G01 X92.5840 Y8.2790
G01 X92.5653 Y8.2725
G01 X92.5508 Y8.2688
G01 X92.5312 Y8.2656
G01 X92.5164 Y8.2644
G01 X92.5015 Y8.2644
G01 X92.4916 Y8.2650
G01 X92.4219 Y8.2710
